(2xShortShelfSupport)
(T1  D=9.5 CR=0 - ZMIN=-22 - flat end mill)
G90 G94
G17
G21

(2D Contour1 2)
M9
S25000 M3
G54
M9
G0 X-2 Y525.75
Z15
Z4
G1 Z0 F3000
X58.25 F2000
Y559
G2 X63 Y563.75 I4.75
G1 X150
X152
Z-2 F3000
X63 F2000
G3 X58.25 Y559 J-4.75
G1 Y525.75
X0
X-2
Z-4 F3000
X58.25 F2000
Y559
G2 X63 Y563.75 I4.75
G1 X150
X152
Z-6 F3000
X63 F2000
G3 X58.25 Y559 J-4.75
G1 Y525.75
X0
X-2
Z-8 F3000
X58.25 F2000
Y559
G2 X63 Y563.75 I4.75
G1 X150
X152
Z-10 F3000
X63 F2000
G3 X58.25 Y559 J-4.75
G1 Y525.75
X0
X-2
Z-12 F3000
X58.25 F2000
Y559
G2 X63 Y563.75 I4.75
G1 X150
X152
Z-14 F3000
X63 F2000
G3 X58.25 Y559 J-4.75
G1 Y525.75
X0
X-2
Z-16 F3000
X58.25 F2000
Y559
G2 X63 Y563.75 I4.75
G1 X150
X152
Z-18 F3000
X63 F2000
G3 X58.25 Y559 J-4.75
G1 Y525.75
X0
X-2
Z-20 F3000
X58.25 F2000
Y559
G2 X63 Y563.75 I4.75
G1 X150
X152
Z-22 F3000
X63 F2000
G3 X58.25 Y559 J-4.75
G1 Y525.75
X0
X-2
G0 Z5
Y-4.75
Z4
G1 Z0 F3000
X75 F2000
G3 X79.75 Y0 J4.75
G1 Y15.25
X150
X152
Z-2 F3000
X79.75 F2000
Y0
G2 X75 Y-4.75 I-4.75
G1 X0
X-2
Z-4 F3000
X75 F2000
G3 X79.75 Y0 J4.75
G1 Y15.25
X150
X152
Z-6 F3000
X79.75 F2000
Y0
G2 X75 Y-4.75 I-4.75
G1 X0
X-2
Z-8 F3000
X75 F2000
G3 X79.75 Y0 J4.75
G1 Y15.25
X150
X152
Z-10 F3000
X79.75 F2000
Y0
G2 X75 Y-4.75 I-4.75
G1 X0
X-2
Z-12 F3000
X75 F2000
G3 X79.75 Y0 J4.75
G1 Y15.25
X150
X152
Z-14 F3000
X79.75 F2000
Y0
G2 X75 Y-4.75 I-4.75
G1 X0
X-2
Z-16 F3000
X75 F2000
G3 X79.75 Y0 J4.75
G1 Y15.25
X150
X152
Z-18 F3000
X79.75 F2000
Y0
G2 X75 Y-4.75 I-4.75
G1 X0
X-2
Z-20 F3000
X75 F2000
G3 X79.75 Y0 J4.75
G1 Y15.25
X150
X152
Z-22 F3000
X79.75 F2000
Y0
G2 X75 Y-4.75 I-4.75
G1 X0
X-2
G0 Z15
M9
M30
