%
(Backlash Test v4)
(T3  D=4.8 CR=0 - ZMIN=-13 - flat end mill)
G90 G94
G17
G21
G28 G91 Z0
G90

(2D Pocket2)
M9
T3 M6
S10000 M3
G54
M8
G0 X28.592 Y96.129
Z15
Z5
G1 Z2.98 F1000
X28.589 Y96.123 Z2.898
X28.581 Y96.104 Z2.819
X28.568 Y96.073 Z2.745
X28.55 Y96.03 Z2.677
X28.528 Y95.978 Z2.618
X28.502 Y95.917 Z2.57
X28.474 Y95.849 Z2.533
X28.444 Y95.777 Z2.51
X28.412 Y95.702 Z2.5
X27.364 Y93.222 Z2.406
X29.789 Z2.321
X44.48 Y128.973 Z0.972
G2 X49.841 Y128.982 Z0.733 I2.682 J-1.102
G1 X64.675 Y93.222 Z-0.619
X67.085 Z-0.703
X49.3 Y134.834 Z-2.284
X44.935 Z-2.436
X44.224 Y133.15 Z-2.5
X27.364 Y93.222
X29.789
X44.48 Y128.973
G2 X49.841 Y128.982 I2.682 J-1.102
G1 X64.675 Y93.222
X67.085
X49.3 Y134.834
X44.935
X44.224 Y133.15
G3 X44.186 Y132.971 Z-2.463 I0.442 J-0.187
X44.209 Y132.818 Z-2.359 I0.48 J-0.008
X44.251 Y132.723 Z-2.204 I0.457 J0.145
X44.27 Y132.692 Z-2.02 I0.416 J0.24
G0 Z15

(2D Pocket3)
M8
X50.11 Y55.371
Z10
Z2
G1 Z1.48 F1000
G3 X50.106 Y55.345 Z1.321 I2.25 J-0.371
X50.096 Y55.268 Z1.181 I2.254 J-0.345
X50.085 Y55.148 Z1.073 I2.264 J-0.268
X50.08 Y55 Z1.012 I2.275 J-0.148
X50.082 Y54.91 Z1 I2.28
X54.638 Y55.09 Z0.75 I2.278 J0.09
X50.082 Y54.91 Z0.5 I-2.278 J-0.09
X54.638 Y55.09 Z0.25 I2.278 J0.09
X50.082 Y54.91 Z-0.001 I-2.278 J-0.09
X54.638 Y55.09 Z-0.251 I2.278 J0.09
X50.082 Y54.91 Z-0.501 I-2.278 J-0.09
X54.638 Y55.09 Z-0.751 I2.278 J0.09
X50.082 Y54.91 Z-1.001 I-2.278 J-0.09
X54.638 Y55.09 Z-1.251 I2.278 J0.09
X50.082 Y54.91 Z-1.501 I-2.278 J-0.09
X54.638 Y55.09 Z-1.751 I2.278 J0.09
X50.082 Y54.91 Z-2.002 I-2.278 J-0.09
X54.638 Y55.09 Z-2.252 I2.278 J0.09
X50.082 Y54.91 Z-2.502 I-2.278 J-0.09
X54.638 Y55.09 Z-2.752 I2.278 J0.09
X50.082 Y54.91 Z-3.002 I-2.278 J-0.09
X54.638 Y55.09 Z-3.252 I2.278 J0.09
X50.082 Y54.91 Z-3.502 I-2.278 J-0.09
X54.638 Y55.09 Z-3.753 I2.278 J0.09
X50.082 Y54.91 Z-4.003 I-2.278 J-0.09
X54.638 Y55.09 Z-4.253 I2.278 J0.09
X50.082 Y54.91 Z-4.503 I-2.278 J-0.09
X54.638 Y55.09 Z-4.753 I2.278 J0.09
X50.08 Y55 Z-5 I-2.278 J-0.09
X54.48 I2.2
X45.52 I-4.48
X59.04 I6.76
X40.96 I-9.04
X63.6 I11.32
X36.4 I-13.6
X63.6 I13.6
X63.352 Y55.24 I-0.24
G1 X56.84 Y55.018
X50.327 Y55.173
G3 X50.081 Y54.925 I-0.006 J-0.24
X54.639 Y55.075 Z-5.25 I2.279 J0.075
X50.081 Y54.925 Z-5.5 I-2.279 J-0.075
X54.639 Y55.075 Z-5.75 I2.279 J0.075
X50.081 Y54.925 Z-6.001 I-2.279 J-0.075
X54.639 Y55.075 Z-6.251 I2.279 J0.075
X50.081 Y54.925 Z-6.501 I-2.279 J-0.075
X54.639 Y55.075 Z-6.751 I2.279 J0.075
X50.081 Y54.925 Z-7.001 I-2.279 J-0.075
X54.639 Y55.075 Z-7.251 I2.279 J0.075
X50.081 Y54.925 Z-7.501 I-2.279 J-0.075
X54.639 Y55.075 Z-7.751 I2.279 J0.075
X50.081 Y54.925 Z-8.002 I-2.279 J-0.075
X54.639 Y55.075 Z-8.252 I2.279 J0.075
X50.081 Y54.925 Z-8.502 I-2.279 J-0.075
X54.639 Y55.075 Z-8.752 I2.279 J0.075
X50.081 Y54.925 Z-9.002 I-2.279 J-0.075
X54.639 Y55.075 Z-9.252 I2.279 J0.075
X50.081 Y54.925 Z-9.502 I-2.279 J-0.075
X54.639 Y55.075 Z-9.752 I2.279 J0.075
X50.08 Y55 Z-10 I-2.279 J-0.075
X54.48 I2.2
X45.52 I-4.48
X59.04 I6.76
X40.96 I-9.04
X63.6 I11.32
X36.4 I-13.6
X63.6 I13.6
X63.352 Y55.24 I-0.24
G1 X56.84 Y55.011
X50.327 Y55.199
G3 X50.08 Y54.955 I-0.007 J-0.24
X54.64 Y55.045 Z-10.25 I2.28 J0.045
X50.08 Y54.955 Z-10.5 I-2.28 J-0.045
X54.64 Y55.045 Z-10.75 I2.28 J0.045
X50.08 Y54.955 Z-11.001 I-2.28 J-0.045
X54.64 Y55.045 Z-11.251 I2.28 J0.045
X50.08 Y54.955 Z-11.501 I-2.28 J-0.045
X54.64 Y55.045 Z-11.751 I2.28 J0.045
X50.08 Y54.955 Z-12.001 I-2.28 J-0.045
X54.64 Y55.045 Z-12.251 I2.28 J0.045
X50.08 Y54.955 Z-12.501 I-2.28 J-0.045
X54.64 Y55.045 Z-12.751 I2.28 J0.045
X50.08 Y55 Z-13 I-2.28 J-0.045
X54.48 I2.2
X45.52 I-4.48
X59.04 I6.76
X40.96 I-9.04
X63.6 I11.32
X36.4 I-13.6
X63.6 I13.6
X63.565 Y55.179 Z-12.963 I-0.48
X63.485 Y55.312 Z-12.859 I-0.445 J-0.179
X63.409 Y55.383 Z-12.704 I-0.365 J-0.312
X63.379 Y55.404 Z-12.52 I-0.289 J-0.383
G0 Z5
X100.11 Y55.371
Z2
G1 Z1.48 F1000
G3 X100.106 Y55.345 Z1.321 I2.25 J-0.371
X100.096 Y55.268 Z1.181 I2.254 J-0.345
X100.085 Y55.148 Z1.073 I2.264 J-0.268
X100.08 Y55 Z1.012 I2.275 J-0.148
X100.082 Y54.91 Z1 I2.28
X104.638 Y55.09 Z0.75 I2.278 J0.09
X100.082 Y54.91 Z0.5 I-2.278 J-0.09
X104.638 Y55.09 Z0.25 I2.278 J0.09
X100.082 Y54.91 Z-0.001 I-2.278 J-0.09
X104.638 Y55.09 Z-0.251 I2.278 J0.09
X100.082 Y54.91 Z-0.501 I-2.278 J-0.09
X104.638 Y55.09 Z-0.751 I2.278 J0.09
X100.082 Y54.91 Z-1.001 I-2.278 J-0.09
X104.638 Y55.09 Z-1.251 I2.278 J0.09
X100.082 Y54.91 Z-1.501 I-2.278 J-0.09
X104.638 Y55.09 Z-1.751 I2.278 J0.09
X100.082 Y54.91 Z-2.002 I-2.278 J-0.09
X104.638 Y55.09 Z-2.252 I2.278 J0.09
X100.082 Y54.91 Z-2.502 I-2.278 J-0.09
X104.638 Y55.09 Z-2.752 I2.278 J0.09
X100.082 Y54.91 Z-3.002 I-2.278 J-0.09
X104.638 Y55.09 Z-3.252 I2.278 J0.09
X100.082 Y54.91 Z-3.502 I-2.278 J-0.09
X104.638 Y55.09 Z-3.753 I2.278 J0.09
X100.082 Y54.91 Z-4.003 I-2.278 J-0.09
X104.638 Y55.09 Z-4.253 I2.278 J0.09
X100.082 Y54.91 Z-4.503 I-2.278 J-0.09
X104.638 Y55.09 Z-4.753 I2.278 J0.09
X100.08 Y55 Z-5 I-2.278 J-0.09
X104.48 I2.2
X95.52 I-4.48
X109.04 I6.76
X90.96 I-9.04
X113.6 I11.32
X86.4 I-13.6
X113.6 I13.6
X113.352 Y55.24 I-0.24
G1 X106.84 Y55.018
X100.327 Y55.173
G3 X100.081 Y54.925 I-0.006 J-0.24
X104.639 Y55.075 Z-5.25 I2.279 J0.075
X100.081 Y54.925 Z-5.5 I-2.279 J-0.075
X104.639 Y55.075 Z-5.75 I2.279 J0.075
X100.081 Y54.925 Z-6.001 I-2.279 J-0.075
X104.639 Y55.075 Z-6.251 I2.279 J0.075
X100.081 Y54.925 Z-6.501 I-2.279 J-0.075
X104.639 Y55.075 Z-6.751 I2.279 J0.075
X100.081 Y54.925 Z-7.001 I-2.279 J-0.075
X104.639 Y55.075 Z-7.251 I2.279 J0.075
X100.081 Y54.925 Z-7.501 I-2.279 J-0.075
X104.639 Y55.075 Z-7.751 I2.279 J0.075
X100.081 Y54.925 Z-8.002 I-2.279 J-0.075
X104.639 Y55.075 Z-8.252 I2.279 J0.075
X100.081 Y54.925 Z-8.502 I-2.279 J-0.075
X104.639 Y55.075 Z-8.752 I2.279 J0.075
X100.081 Y54.925 Z-9.002 I-2.279 J-0.075
X104.639 Y55.075 Z-9.252 I2.279 J0.075
X100.081 Y54.925 Z-9.502 I-2.279 J-0.075
X104.639 Y55.075 Z-9.752 I2.279 J0.075
X100.08 Y55 Z-10 I-2.279 J-0.075
X104.48 I2.2
X95.52 I-4.48
X109.04 I6.76
X90.96 I-9.04
X113.6 I11.32
X86.4 I-13.6
X113.6 I13.6
X113.352 Y55.24 I-0.24
G1 X106.84 Y55.011
X100.327 Y55.199
G3 X100.08 Y54.955 I-0.007 J-0.24
X104.64 Y55.045 Z-10.25 I2.28 J0.045
X100.08 Y54.955 Z-10.5 I-2.28 J-0.045
X104.64 Y55.045 Z-10.75 I2.28 J0.045
X100.08 Y54.955 Z-11.001 I-2.28 J-0.045
X104.64 Y55.045 Z-11.251 I2.28 J0.045
X100.08 Y54.955 Z-11.501 I-2.28 J-0.045
X104.64 Y55.045 Z-11.751 I2.28 J0.045
X100.08 Y54.955 Z-12.001 I-2.28 J-0.045
X104.64 Y55.045 Z-12.251 I2.28 J0.045
X100.08 Y54.955 Z-12.501 I-2.28 J-0.045
X104.64 Y55.045 Z-12.751 I2.28 J0.045
X100.08 Y55 Z-13 I-2.28 J-0.045
X104.48 I2.2
X95.52 I-4.48
X109.04 I6.76
X90.96 I-9.04
X113.6 I11.32
X86.4 I-13.6
X113.6 I13.6
X113.565 Y55.179 Z-12.963 I-0.48
X113.485 Y55.312 Z-12.859 I-0.445 J-0.179
X113.409 Y55.383 Z-12.704 I-0.365 J-0.312
X113.379 Y55.404 Z-12.52 I-0.289 J-0.383
G0 Z10

(2D Contour3)
M8
Z15
X66.16 Y55.48
Z5
G1 Z3 F1000
Z-1.52
G18 G2 X66.64 Z-2 I0.48
G1 X67.12
G17 G2 X67.6 Y55 J-0.48
X32.4 I-17.6
X67.6 I17.6
X67.12 Y54.52 I-0.48
G1 X66.64
G18 G3 X66.16 Z-1.52 K0.48
G0 Z5
Y55.48
G1 Z1 F1000
Z-3.52
G2 X66.64 Z-4 I0.48
G1 X67.12
G17 G2 X67.6 Y55 J-0.48
X32.4 I-17.6
X67.6 I17.6
X67.12 Y54.52 I-0.48
G1 X66.64
G18 G3 X66.16 Z-3.52 K0.48
G0 Z5
Y55.48
G1 Z-1 F1000
Z-5.52
G2 X66.64 Z-6 I0.48
G1 X67.12
G17 G2 X67.6 Y55 J-0.48
X32.4 I-17.6
X67.6 I17.6
X67.12 Y54.52 I-0.48
G1 X66.64
G18 G3 X66.16 Z-5.52 K0.48
G0 Z5
Y55.48
G1 Z-3 F1000
Z-7.52
G2 X66.64 Z-8 I0.48
G1 X67.12
G17 G2 X67.6 Y55 J-0.48
X32.4 I-17.6
X67.6 I17.6
X67.12 Y54.52 I-0.48
G1 X66.64
G18 G3 X66.16 Z-7.52 K0.48
G0 Z5
Y55.48
G1 Z-5 F1000
Z-9.52
G2 X66.64 Z-10 I0.48
G1 X67.12
G17 G2 X67.6 Y55 J-0.48
X32.4 I-17.6
X67.6 I17.6
X67.12 Y54.52 I-0.48
G1 X66.64
G18 G3 X66.16 Z-9.52 K0.48
G0 Z5
Y55.48
G1 Z-7 F1000
Z-11.52
G2 X66.64 Z-12 I0.48
G1 X67.12
G17 G2 X67.6 Y55 J-0.48
X32.4 I-17.6
X67.6 I17.6
X67.12 Y54.52 I-0.48
G1 X66.64
G18 G3 X66.16 Z-11.52 K0.48
G0 Z5
Y55.48
G1 Z-9 F1000
Z-12.52
G2 X66.64 Z-13 I0.48
G1 X67.12
G17 G2 X67.6 Y55 J-0.48
X32.4 I-17.6
X67.6 I17.6
X67.12 Y54.52 I-0.48
G1 X66.64
G18 G3 X66.16 Z-12.52 K0.48
G0 Z15
G17

(2D Contour4)
M8
G0 X116.16 Y54.52
Z15
Z5
G1 Z3 F1000
Z-1.52
G18 G2 X116.64 Z-2 I0.48
G1 X117.12
G17 G3 X117.6 Y55 J0.48
X82.4 I-17.6
X117.6 I17.6
X117.12 Y55.48 I-0.48
G1 X116.64
G18 G3 X116.16 Z-1.52 K0.48
G0 Z5
Y54.52
G1 Z1 F1000
Z-3.52
G2 X116.64 Z-4 I0.48
G1 X117.12
G17 G3 X117.6 Y55 J0.48
X82.4 I-17.6
X117.6 I17.6
X117.12 Y55.48 I-0.48
G1 X116.64
G18 G3 X116.16 Z-3.52 K0.48
G0 Z5
Y54.52
G1 Z-1 F1000
Z-5.52
G2 X116.64 Z-6 I0.48
G1 X117.12
G17 G3 X117.6 Y55 J0.48
X82.4 I-17.6
X117.6 I17.6
X117.12 Y55.48 I-0.48
G1 X116.64
G18 G3 X116.16 Z-5.52 K0.48
G0 Z5
Y54.52
G1 Z-3 F1000
Z-7.52
G2 X116.64 Z-8 I0.48
G1 X117.12
G17 G3 X117.6 Y55 J0.48
X82.4 I-17.6
X117.6 I17.6
X117.12 Y55.48 I-0.48
G1 X116.64
G18 G3 X116.16 Z-7.52 K0.48
G0 Z5
Y54.52
G1 Z-5 F1000
Z-9.52
G2 X116.64 Z-10 I0.48
G1 X117.12
G17 G3 X117.6 Y55 J0.48
X82.4 I-17.6
X117.6 I17.6
X117.12 Y55.48 I-0.48
G1 X116.64
G18 G3 X116.16 Z-9.52 K0.48
G0 Z5
Y54.52
G1 Z-7 F1000
Z-11.52
G2 X116.64 Z-12 I0.48
G1 X117.12
G17 G3 X117.6 Y55 J0.48
X82.4 I-17.6
X117.6 I17.6
X117.12 Y55.48 I-0.48
G1 X116.64
G18 G3 X116.16 Z-11.52 K0.48
G0 Z5
Y54.52
G1 Z-9 F1000
Z-12.52
G2 X116.64 Z-13 I0.48
G1 X117.12
G17 G3 X117.6 Y55 J0.48
X82.4 I-17.6
X117.6 I17.6
X117.12 Y55.48 I-0.48
G1 X116.64
G18 G3 X116.16 Z-12.52 K0.48
G0 Z15
G17

(2D Contour2)
M8
G0 X76.16 Y9.52
Z15
Z5
G1 Z-2.77 F1000
G18 G2 X76.64 Z-3.25 I0.48
G1 X77.12
G17 G3 X77.6 Y10 J0.48
G1 Y17.6
X72.4
Y10
G2 X70 Y7.6 I-2.4
G1 X62.4
Y0
G2 X60 Y-2.4 I-2.4
G1 X35
G2 X32.6 Y0 J2.4
G1 Y7.6
X27.4
Y0
G2 X25 Y-2.4 I-2.4
G1 X0
G2 X-2.4 Y0 J2.4
G1 Y25
G2 X0 Y27.4 I2.4
G1 X7.6
Y32.6
X0
G2 X-2.4 Y35 J2.4
G1 Y60
G2 X0 Y62.4 I2.4
G1 X7.6
Y70
G2 X10 Y72.4 I2.4
G1 X17.6
Y77.6
X10
G2 X7.6 Y80 J2.4
G1 Y87.6
X0
G2 X-2.4 Y90 J2.4
G1 Y115
G2 X0 Y117.4 I2.4
G1 X7.6
Y122.6
X0
G2 X-2.4 Y125 J2.4
G1 Y150
G2 X0 Y152.4 I2.4
G1 X25
G2 X27.4 Y150 J-2.4
G1 Y142.4
X32.6
Y150
G2 X35 Y152.4 I2.4
G1 X60
G2 X62.4 Y150 J-2.4
G1 Y142.4
X70
G2 X72.4 Y140 J-2.4
G1 Y132.4
X77.6
Y140
G2 X80 Y142.4 I2.4
G1 X87.6
Y150
G2 X90 Y152.4 I2.4
G1 X115
G2 X117.4 Y150 J-2.4
G1 Y142.4
X122.6
Y150
G2 X125 Y152.4 I2.4
G1 X150
G2 X152.4 Y150 J-2.4
G1 Y125
G2 X150 Y122.6 I-2.4
G1 X142.4
Y117.4
X150
G2 X152.4 Y115 J-2.4
G1 Y90
G2 X150 Y87.6 I-2.4
G1 X142.4
Y80
G2 X140 Y77.6 I-2.4
G1 X132.4
Y72.4
X140
G2 X142.4 Y70 J-2.4
G1 Y62.4
X150
G2 X152.4 Y60 J-2.4
G1 Y35
G2 X150 Y32.6 I-2.4
G1 X142.4
Y27.4
X150
G2 X152.4 Y25 J-2.4
G1 Y0
G2 X150 Y-2.4 I-2.4
G1 X125
G2 X122.6 Y0 J2.4
G1 Y7.6
X117.4
Y0
G2 X115 Y-2.4 I-2.4
G1 X90
G2 X87.6 Y0 J2.4
G1 Y7.6
X80
G2 X77.6 Y10 J2.4
G3 X77.12 Y10.48 I-0.48
G1 X76.64
G18 G3 X76.16 Z-2.77 K0.48
G0 Z5
Y9.52
G1 Z1.75 F1000
Z-6.02
G2 X76.64 Z-6.5 I0.48
G1 X77.12
G17 G3 X77.6 Y10 J0.48
G1 Y17.6
X72.4
Y10
G2 X70 Y7.6 I-2.4
G1 X62.4
Y0
G2 X60 Y-2.4 I-2.4
G1 X35
G2 X32.6 Y0 J2.4
G1 Y7.6
X27.4
Y0
G2 X25 Y-2.4 I-2.4
G1 X0
G2 X-2.4 Y0 J2.4
G1 Y25
G2 X0 Y27.4 I2.4
G1 X7.6
Y32.6
X0
G2 X-2.4 Y35 J2.4
G1 Y60
G2 X0 Y62.4 I2.4
G1 X7.6
Y70
G2 X10 Y72.4 I2.4
G1 X17.6
Y77.6
X10
G2 X7.6 Y80 J2.4
G1 Y87.6
X0
G2 X-2.4 Y90 J2.4
G1 Y115
G2 X0 Y117.4 I2.4
G1 X7.6
Y122.6
X0
G2 X-2.4 Y125 J2.4
G1 Y150
G2 X0 Y152.4 I2.4
G1 X25
G2 X27.4 Y150 J-2.4
G1 Y142.4
X32.6
Y150
G2 X35 Y152.4 I2.4
G1 X60
G2 X62.4 Y150 J-2.4
G1 Y142.4
X70
G2 X72.4 Y140 J-2.4
G1 Y132.4
X77.6
Y140
G2 X80 Y142.4 I2.4
G1 X87.6
Y150
G2 X90 Y152.4 I2.4
G1 X115
G2 X117.4 Y150 J-2.4
G1 Y142.4
X122.6
Y150
G2 X125 Y152.4 I2.4
G1 X150
G2 X152.4 Y150 J-2.4
G1 Y125
G2 X150 Y122.6 I-2.4
G1 X142.4
Y117.4
X150
G2 X152.4 Y115 J-2.4
G1 Y90
G2 X150 Y87.6 I-2.4
G1 X142.4
Y80
G2 X140 Y77.6 I-2.4
G1 X132.4
Y72.4
X140
G2 X142.4 Y70 J-2.4
G1 Y62.4
X150
G2 X152.4 Y60 J-2.4
G1 Y35
G2 X150 Y32.6 I-2.4
G1 X142.4
Y27.4
X150
G2 X152.4 Y25 J-2.4
G1 Y0
G2 X150 Y-2.4 I-2.4
G1 X125
G2 X122.6 Y0 J2.4
G1 Y7.6
X117.4
Y0
G2 X115 Y-2.4 I-2.4
G1 X90
G2 X87.6 Y0 J2.4
G1 Y7.6
X80
G2 X77.6 Y10 J2.4
G3 X77.12 Y10.48 I-0.48
G1 X76.64
G18 G3 X76.16 Z-6.02 K0.48
G0 Z5
Y9.52
G1 Z-1.5 F1000
Z-9.27
G2 X76.64 Z-9.75 I0.48
G1 X77.12
G17 G3 X77.6 Y10 J0.48
G1 Y17.6
X72.4
Y10
G2 X70 Y7.6 I-2.4
G1 X62.4
Y0
G2 X60 Y-2.4 I-2.4
G1 X35
G2 X32.6 Y0 J2.4
G1 Y7.6
X27.4
Y0
G2 X25 Y-2.4 I-2.4
G1 X0
G2 X-2.4 Y0 J2.4
G1 Y25
G2 X0 Y27.4 I2.4
G1 X7.6
Y32.6
X0
G2 X-2.4 Y35 J2.4
G1 Y60
G2 X0 Y62.4 I2.4
G1 X7.6
Y70
G2 X10 Y72.4 I2.4
G1 X17.6
Y77.6
X10
G2 X7.6 Y80 J2.4
G1 Y87.6
X0
G2 X-2.4 Y90 J2.4
G1 Y115
G2 X0 Y117.4 I2.4
G1 X7.6
Y122.6
X0
G2 X-2.4 Y125 J2.4
G1 Y150
G2 X0 Y152.4 I2.4
G1 X25
G2 X27.4 Y150 J-2.4
G1 Y142.4
X32.6
Y150
G2 X35 Y152.4 I2.4
G1 X60
G2 X62.4 Y150 J-2.4
G1 Y142.4
X70
G2 X72.4 Y140 J-2.4
G1 Y132.4
X77.6
Y140
G2 X80 Y142.4 I2.4
G1 X87.6
Y150
G2 X90 Y152.4 I2.4
G1 X115
G2 X117.4 Y150 J-2.4
G1 Y142.4
X122.6
Y150
G2 X125 Y152.4 I2.4
G1 X150
G2 X152.4 Y150 J-2.4
G1 Y125
G2 X150 Y122.6 I-2.4
G1 X142.4
Y117.4
X150
G2 X152.4 Y115 J-2.4
G1 Y90
G2 X150 Y87.6 I-2.4
G1 X142.4
Y80
G2 X140 Y77.6 I-2.4
G1 X132.4
Y72.4
X140
G2 X142.4 Y70 J-2.4
G1 Y62.4
X150
G2 X152.4 Y60 J-2.4
G1 Y35
G2 X150 Y32.6 I-2.4
G1 X142.4
Y27.4
X150
G2 X152.4 Y25 J-2.4
G1 Y0
G2 X150 Y-2.4 I-2.4
G1 X125
G2 X122.6 Y0 J2.4
G1 Y7.6
X117.4
Y0
G2 X115 Y-2.4 I-2.4
G1 X90
G2 X87.6 Y0 J2.4
G1 Y7.6
X80
G2 X77.6 Y10 J2.4
G3 X77.12 Y10.48 I-0.48
G1 X76.64
G18 G3 X76.16 Z-9.27 K0.48
G0 Z5
Y9.52
G1 Z-4.75 F1000
Z-12.52
G2 X76.64 Z-13 I0.48
G1 X77.12
G17 G3 X77.6 Y10 J0.48
G1 Y17.6
X72.4
Y10
G2 X70 Y7.6 I-2.4
G1 X62.4
Y0
G2 X60 Y-2.4 I-2.4
G1 X51.4
X49.9 Z-11
X45.1
X43.6 Z-13
X35
G2 X32.6 Y0 J2.4
G1 Y7.6
X27.4
Y0
G2 X25 Y-2.4 I-2.4
G1 X16.4
X14.9 Z-11
X10.1
X8.6 Z-13
X0
G2 X-2.4 Y0 J2.4
G1 Y8.6
Y10.1 Z-11
Y14.9
Y16.4 Z-13
Y25
G2 X0 Y27.4 I2.4
G1 X7.6
Y32.6
X0
G2 X-2.4 Y35 J2.4
G1 Y43.6
Y45.1 Z-11
Y49.9
Y51.4 Z-13
Y60
G2 X0 Y62.4 I2.4
G1 X7.6
Y70
G2 X10 Y72.4 I2.4
G1 X17.6
Y77.6
X10
G2 X7.6 Y80 J2.4
G1 Y87.6
X0
G2 X-2.4 Y90 J2.4
G1 Y98.6
Y100.1 Z-11
Y104.9
Y106.4 Z-13
Y115
G2 X0 Y117.4 I2.4
G1 X7.6
Y122.6
X0
G2 X-2.4 Y125 J2.4
G1 Y133.6
Y135.1 Z-11
Y139.9
Y141.4 Z-13
Y150
G2 X0 Y152.4 I2.4
G1 X8.6
X10.1 Z-11
X14.9
X16.4 Z-13
X25
G2 X27.4 Y150 J-2.4
G1 Y142.4
X32.6
Y150
G2 X35 Y152.4 I2.4
G1 X43.6
X45.1 Z-11
X49.9
X51.4 Z-13
X60
G2 X62.4 Y150 J-2.4
G1 Y142.4
X70
G2 X72.4 Y140 J-2.4
G1 Y132.4
X77.6
Y140
G2 X80 Y142.4 I2.4
G1 X87.6
Y150
G2 X90 Y152.4 I2.4
G1 X98.6
X100.1 Z-11
X104.9
X106.4 Z-13
X115
G2 X117.4 Y150 J-2.4
G1 Y142.4
X122.6
Y150
G2 X125 Y152.4 I2.4
G1 X133.6
X135.1 Z-11
X139.9
X141.4 Z-13
X150
G2 X152.4 Y150 J-2.4
G1 Y141.4
Y139.9 Z-11
Y135.1
Y133.6 Z-13
Y125
G2 X150 Y122.6 I-2.4
G1 X142.4
Y117.4
X150
G2 X152.4 Y115 J-2.4
G1 Y106.4
Y104.9 Z-11
Y100.1
Y98.6 Z-13
Y90
G2 X150 Y87.6 I-2.4
G1 X142.4
Y80
G2 X140 Y77.6 I-2.4
G1 X132.4
Y72.4
X140
G2 X142.4 Y70 J-2.4
G1 Y62.4
X150
G2 X152.4 Y60 J-2.4
G1 Y51.4
Y49.9 Z-11
Y45.1
Y43.6 Z-13
Y35
G2 X150 Y32.6 I-2.4
G1 X142.4
Y27.4
X150
G2 X152.4 Y25 J-2.4
G1 Y16.4
Y14.9 Z-11
Y10.1
Y8.6 Z-13
Y0
G2 X150 Y-2.4 I-2.4
G1 X141.4
X139.9 Z-11
X135.1
X133.6 Z-13
X125
G2 X122.6 Y0 J2.4
G1 Y7.6
X117.4
Y0
G2 X115 Y-2.4 I-2.4
G1 X106.4
X104.9 Z-11
X100.1
X98.6 Z-13
X90
G2 X87.6 Y0 J2.4
G1 Y7.6
X80
G2 X77.6 Y10 J2.4
G3 X77.12 Y10.48 I-0.48
G1 X76.64
G18 G3 X76.16 Z-12.52 K0.48
G0 Z15
G17
M9
G28 G91 Z0
G28 X0 Y0
M30
%
(preview_img:1517780725.png)
