(Test2)
(T1  D=9.5 CR=0 - ZMIN=-31 - flat end mill)
G90 G94
G17
G21

(2D Contour1 3)
M9
S25000 M3
G54
M8
G0 X300 Y-1219.75
Z15
Z5
G1 Z3 F3000
Z-2
X-270 F2000
Z-4 F3000
X300 F2000
Z-6 F3000
X-270 F2000
Z-8 F3000
X300 F2000
Z-10 F3000
X-270 F2000
Z-12 F3000
X300 F2000
Z-14 F3000
X-270 F2000
Z-16 F3000
X300 F2000
Z-18 F3000
X-270 F2000
Z-20 F3000
X300 F2000
Z-22 F3000
X-270 F2000
Z-24 F3000
X300 F2000
Z-26 F3000
X-270 F2000
Z-28 F3000
X300 F2000
Z-30 F3000
X-270 F2000
Z-31 F3000
X300 F2000
G0 Z15
M9
M30
