(TopLongWT620x40)
(T1  D=9.5 CR=0 - ZMIN=-42 - flat end mill)
G90 G94
G17
G21

(2D Contour1 3)
M9
S25000 M3
G54
M8
G0 X620 Y-4.75
Z15
Z5
G1 Z3 F3000
Z-2
X0 F2000
Z-4 F3000
X620 F2000
Z-6 F3000
X0 F2000
Z-8 F3000
X620 F2000
Z-10 F3000
X0 F2000
Z-12 F3000
X620 F2000
Z-14 F3000
X0 F2000
Z-16 F3000
X620 F2000
Z-18 F3000
X0 F2000
Z-20 F3000
X620 F2000
Z-22 F3000
X0 F2000
Z-24 F3000
X620 F2000
Z-26 F3000
X0 F2000
Z-28 F3000
X620 F2000
Z-30 F3000
X0 F2000
Z-32 F3000
X620 F2000
Z-34 F3000
X0 F2000
Z-36 F3000
X620 F2000
Z-38 F3000
X0 F2000
Z-40 F3000
X620 F2000
Z-42 F3000
X0 F2000
G0 Z15

(2D Contour1 2)
M9
X-5.6 Y619.55
Z15
Z5
G1 Z3 F2000
Z-2
X20.2 Y585.15
G2 X25.25 Y570 I-20.2 J-15.15
G1 Y0
Y-3
Z-4
Y570
G3 X20.2 Y585.15 I-25.25
G1 X-3.8 Y617.15
X-5.6 Y619.55
Z-6
X20.2 Y585.15
G2 X25.25 Y570 I-20.2 J-15.15
G1 Y0
Y-3
Z-8
Y570
G3 X20.2 Y585.15 I-25.25
G1 X-3.8 Y617.15
X-5.6 Y619.55
Z-10
X20.2 Y585.15
G2 X25.25 Y570 I-20.2 J-15.15
G1 Y0
Y-3
Z-12
Y570
G3 X20.2 Y585.15 I-25.25
G1 X-3.8 Y617.15
X-5.6 Y619.55
Z-14
X20.2 Y585.15
G2 X25.25 Y570 I-20.2 J-15.15
G1 Y0
Y-3
Z-16
Y570
G3 X20.2 Y585.15 I-25.25
G1 X-3.8 Y617.15
X-5.6 Y619.55
Z-18
X20.2 Y585.15
G2 X25.25 Y570 I-20.2 J-15.15
G1 Y0
Y-3
Z-20
Y570
G3 X20.2 Y585.15 I-25.25
G1 X-3.8 Y617.15
X-5.6 Y619.55
Z-22
X20.2 Y585.15
G2 X25.25 Y570 I-20.2 J-15.15
G1 Y0
Y-3
Z-24
Y570
G3 X20.2 Y585.15 I-25.25
G1 X-3.8 Y617.15
X-5.6 Y619.55
Z-26
X20.2 Y585.15
G2 X25.25 Y570 I-20.2 J-15.15
G1 Y0
Y-3
Z-28
Y570
G3 X20.2 Y585.15 I-25.25
G1 X-3.8 Y617.15
X-5.6 Y619.55
Z-30
X20.2 Y585.15
G2 X25.25 Y570 I-20.2 J-15.15
G1 Y0
Y-3
Z-32
Y570
G3 X20.2 Y585.15 I-25.25
G1 X-3.8 Y617.15
X-5.6 Y619.55
Z-34
X20.2 Y585.15
G2 X25.25 Y570 I-20.2 J-15.15
G1 Y0
Y-3
Z-36
Y570
G3 X20.2 Y585.15 I-25.25
G1 X-3.8 Y617.15
X-5.6 Y619.55
Z-38
X20.2 Y585.15
G2 X25.25 Y570 I-20.2 J-15.15
G1 Y0
Y-3
Z-40
Y570
G3 X20.2 Y585.15 I-25.25
G1 X-3.8 Y617.15
X-5.6 Y619.55
Z-42
X20.2 Y585.15
G2 X25.25 Y570 I-20.2 J-15.15
G1 Y0
Y-3
G0 Z15

(2D Pocket2 3)
M9
X385.827 Y2424.68
Z15
Z5
G1 Z2 F2000
Z-2
Y2424.643
Y2420.492
G2 X385.508 Y2420.173 I-0.319
G1 X379.492
G2 X379.173 Y2420.492 J0.319
G1 Y2424.643
G3 X379.132 Y2424.764 I-0.2
G1 X371.726 Y2434.494
G3 X371.367 Y2434.373 I-0.159 J-0.121
G1 Y2412.687
G3 X371.686 Y2412.367 I0.319
G1 X393.314
G3 X393.633 Y2412.687 J0.319
G1 Y2434.365
G2 X393.825 Y2434.564 I0.2
G1 X401.231 Y2434.848
G2 X401.439 Y2434.648 I0.008 J-0.2
G1 Y2404.88
G2 X401.12 Y2404.561 I-0.319
G1 X363.88
G2 X363.561 Y2404.88 J0.319
G1 Y2434.635
G3 X363.361 Y2434.835 I-0.2
G1 X355.95 Y2434.842
G3 X355.75 Y2434.642 J-0.2
G1 Y2396.75
X409.25
Y2430
Y2434.635
G3 X408.971 Y2434.819 I-0.2
G1 X385.948 Y2424.864
G3 X385.827 Y2424.68 I0.079 J-0.184
G1 Z-4
Y2424.643
Y2420.492
G2 X385.508 Y2420.173 I-0.319
G1 X379.492
G2 X379.173 Y2420.492 J0.319
G1 Y2424.643
G3 X379.132 Y2424.764 I-0.2
G1 X371.726 Y2434.494
G3 X371.367 Y2434.373 I-0.159 J-0.121
G1 Y2412.687
G3 X371.686 Y2412.367 I0.319
G1 X393.314
G3 X393.633 Y2412.687 J0.319
G1 Y2434.365
G2 X393.825 Y2434.564 I0.2
G1 X401.231 Y2434.848
G2 X401.439 Y2434.648 I0.008 J-0.2
G1 Y2404.88
G2 X401.12 Y2404.561 I-0.319
G1 X363.88
G2 X363.561 Y2404.88 J0.319
G1 Y2434.635
G3 X363.361 Y2434.835 I-0.2
G1 X355.95 Y2434.842
G3 X355.75 Y2434.642 J-0.2
G1 Y2396.75
X409.25
Y2430
Y2434.635
G3 X408.971 Y2434.819 I-0.2
G1 X385.948 Y2424.864
G3 X385.827 Y2424.68 I0.079 J-0.184
G1 Z-6
Y2424.643
Y2420.492
G2 X385.508 Y2420.173 I-0.319
G1 X379.492
G2 X379.173 Y2420.492 J0.319
G1 Y2424.643
G3 X379.132 Y2424.764 I-0.2
G1 X371.726 Y2434.494
G3 X371.367 Y2434.373 I-0.159 J-0.121
G1 Y2412.687
G3 X371.686 Y2412.367 I0.319
G1 X393.314
G3 X393.633 Y2412.687 J0.319
G1 Y2434.365
G2 X393.825 Y2434.564 I0.2
G1 X401.231 Y2434.848
G2 X401.439 Y2434.648 I0.008 J-0.2
G1 Y2404.88
G2 X401.12 Y2404.561 I-0.319
G1 X363.88
G2 X363.561 Y2404.88 J0.319
G1 Y2434.635
G3 X363.361 Y2434.835 I-0.2
G1 X355.95 Y2434.842
G3 X355.75 Y2434.642 J-0.2
G1 Y2396.75
X409.25
Y2430
Y2434.635
G3 X408.971 Y2434.819 I-0.2
G1 X385.948 Y2424.864
G3 X385.827 Y2424.68 I0.079 J-0.184
G1 Z-8
Y2424.643
Y2420.492
G2 X385.508 Y2420.173 I-0.319
G1 X379.492
G2 X379.173 Y2420.492 J0.319
G1 Y2424.643
G3 X379.132 Y2424.764 I-0.2
G1 X371.726 Y2434.494
G3 X371.367 Y2434.373 I-0.159 J-0.121
G1 Y2412.687
G3 X371.686 Y2412.367 I0.319
G1 X393.314
G3 X393.633 Y2412.687 J0.319
G1 Y2434.365
G2 X393.825 Y2434.564 I0.2
G1 X401.231 Y2434.848
G2 X401.439 Y2434.648 I0.008 J-0.2
G1 Y2404.88
G2 X401.12 Y2404.561 I-0.319
G1 X363.88
G2 X363.561 Y2404.88 J0.319
G1 Y2434.635
G3 X363.361 Y2434.835 I-0.2
G1 X355.95 Y2434.842
G3 X355.75 Y2434.642 J-0.2
G1 Y2396.75
X409.25
Y2430
Y2434.635
G3 X408.971 Y2434.819 I-0.2
G1 X385.948 Y2424.864
G3 X385.827 Y2424.68 I0.079 J-0.184
G1 Z-10
Y2424.643
Y2420.492
G2 X385.508 Y2420.173 I-0.319
G1 X379.492
G2 X379.173 Y2420.492 J0.319
G1 Y2424.643
G3 X379.132 Y2424.764 I-0.2
G1 X371.726 Y2434.494
G3 X371.367 Y2434.373 I-0.159 J-0.121
G1 Y2412.687
G3 X371.686 Y2412.367 I0.319
G1 X393.314
G3 X393.633 Y2412.687 J0.319
G1 Y2434.365
G2 X393.825 Y2434.564 I0.2
G1 X401.231 Y2434.848
G2 X401.439 Y2434.648 I0.008 J-0.2
G1 Y2404.88
G2 X401.12 Y2404.561 I-0.319
G1 X363.88
G2 X363.561 Y2404.88 J0.319
G1 Y2434.635
G3 X363.361 Y2434.835 I-0.2
G1 X355.95 Y2434.842
G3 X355.75 Y2434.642 J-0.2
G1 Y2396.75
X409.25
Y2430
Y2434.635
G3 X408.971 Y2434.819 I-0.2
G1 X385.948 Y2424.864
G3 X385.827 Y2424.68 I0.079 J-0.184
G1 Z-12
Y2424.643
Y2420.492
G2 X385.508 Y2420.173 I-0.319
G1 X379.492
G2 X379.173 Y2420.492 J0.319
G1 Y2424.643
G3 X379.132 Y2424.764 I-0.2
G1 X371.726 Y2434.494
G3 X371.367 Y2434.373 I-0.159 J-0.121
G1 Y2412.687
G3 X371.686 Y2412.367 I0.319
G1 X393.314
G3 X393.633 Y2412.687 J0.319
G1 Y2434.365
G2 X393.825 Y2434.564 I0.2
G1 X401.231 Y2434.848
G2 X401.439 Y2434.648 I0.008 J-0.2
G1 Y2404.88
G2 X401.12 Y2404.561 I-0.319
G1 X363.88
G2 X363.561 Y2404.88 J0.319
G1 Y2434.635
G3 X363.361 Y2434.835 I-0.2
G1 X355.95 Y2434.842
G3 X355.75 Y2434.642 J-0.2
G1 Y2396.75
X409.25
Y2430
Y2434.635
G3 X408.971 Y2434.819 I-0.2
G1 X385.948 Y2424.864
G3 X385.827 Y2424.68 I0.079 J-0.184
G1 Z-14
Y2424.643
Y2420.492
G2 X385.508 Y2420.173 I-0.319
G1 X379.492
G2 X379.173 Y2420.492 J0.319
G1 Y2424.643
G3 X379.132 Y2424.764 I-0.2
G1 X371.726 Y2434.494
G3 X371.367 Y2434.373 I-0.159 J-0.121
G1 Y2412.687
G3 X371.686 Y2412.367 I0.319
G1 X393.314
G3 X393.633 Y2412.687 J0.319
G1 Y2434.365
G2 X393.825 Y2434.564 I0.2
G1 X401.231 Y2434.848
G2 X401.439 Y2434.648 I0.008 J-0.2
G1 Y2404.88
G2 X401.12 Y2404.561 I-0.319
G1 X363.88
G2 X363.561 Y2404.88 J0.319
G1 Y2434.635
G3 X363.361 Y2434.835 I-0.2
G1 X355.95 Y2434.842
G3 X355.75 Y2434.642 J-0.2
G1 Y2396.75
X409.25
Y2430
Y2434.635
G3 X408.971 Y2434.819 I-0.2
G1 X385.948 Y2424.864
G3 X385.827 Y2424.68 I0.079 J-0.184
G1 Z-16
Y2424.643
Y2420.492
G2 X385.508 Y2420.173 I-0.319
G1 X379.492
G2 X379.173 Y2420.492 J0.319
G1 Y2424.643
G3 X379.132 Y2424.764 I-0.2
G1 X371.726 Y2434.494
G3 X371.367 Y2434.373 I-0.159 J-0.121
G1 Y2412.687
G3 X371.686 Y2412.367 I0.319
G1 X393.314
G3 X393.633 Y2412.687 J0.319
G1 Y2434.365
G2 X393.825 Y2434.564 I0.2
G1 X401.231 Y2434.848
G2 X401.439 Y2434.648 I0.008 J-0.2
G1 Y2404.88
G2 X401.12 Y2404.561 I-0.319
G1 X363.88
G2 X363.561 Y2404.88 J0.319
G1 Y2434.635
G3 X363.361 Y2434.835 I-0.2
G1 X355.95 Y2434.842
G3 X355.75 Y2434.642 J-0.2
G1 Y2396.75
X409.25
Y2430
Y2434.635
G3 X408.971 Y2434.819 I-0.2
G1 X385.948 Y2424.864
G3 X385.827 Y2424.68 I0.079 J-0.184
G1 Z-18
Y2424.643
Y2420.492
G2 X385.508 Y2420.173 I-0.319
G1 X379.492
G2 X379.173 Y2420.492 J0.319
G1 Y2424.643
G3 X379.132 Y2424.764 I-0.2
G1 X371.726 Y2434.494
G3 X371.367 Y2434.373 I-0.159 J-0.121
G1 Y2412.687
G3 X371.686 Y2412.367 I0.319
G1 X393.314
G3 X393.633 Y2412.687 J0.319
G1 Y2434.365
G2 X393.825 Y2434.564 I0.2
G1 X401.231 Y2434.848
G2 X401.439 Y2434.648 I0.008 J-0.2
G1 Y2404.88
G2 X401.12 Y2404.561 I-0.319
G1 X363.88
G2 X363.561 Y2404.88 J0.319
G1 Y2434.635
G3 X363.361 Y2434.835 I-0.2
G1 X355.95 Y2434.842
G3 X355.75 Y2434.642 J-0.2
G1 Y2396.75
X409.25
Y2430
Y2434.635
G3 X408.971 Y2434.819 I-0.2
G1 X385.948 Y2424.864
G3 X385.827 Y2424.68 I0.079 J-0.184
G1 Z-20
Y2424.643
Y2420.492
G2 X385.508 Y2420.173 I-0.319
G1 X379.492
G2 X379.173 Y2420.492 J0.319
G1 Y2424.643
G3 X379.132 Y2424.764 I-0.2
G1 X371.726 Y2434.494
G3 X371.367 Y2434.373 I-0.159 J-0.121
G1 Y2412.687
G3 X371.686 Y2412.367 I0.319
G1 X393.314
G3 X393.633 Y2412.687 J0.319
G1 Y2434.365
G2 X393.825 Y2434.564 I0.2
G1 X401.231 Y2434.848
G2 X401.439 Y2434.648 I0.008 J-0.2
G1 Y2404.88
G2 X401.12 Y2404.561 I-0.319
G1 X363.88
G2 X363.561 Y2404.88 J0.319
G1 Y2434.635
G3 X363.361 Y2434.835 I-0.2
G1 X355.95 Y2434.842
G3 X355.75 Y2434.642 J-0.2
G1 Y2396.75
X409.25
Y2430
Y2434.635
G0 Z15
X617.979 Y2434.674
Z5
G1 Z2 F2000
Z-2
Y2434.637
Y2403.299
G3 X618.299 Y2402.979 I0.319
G1 X624.646
G2 X624.846 Y2402.779 J-0.2
G1 X624.842 Y2395.373
G2 X624.642 Y2395.173 I-0.2
G1 X610.492
G2 X610.173 Y2395.492 J0.319
G1 Y2434.642
G3 X609.973 Y2434.842 I-0.2
G1 X602.567 Y2434.846
G3 X602.367 Y2434.646 J-0.2
G1 Y2387.687
G3 X602.686 Y2387.367 I0.319
G1 X624.637
G2 X624.837 Y2387.167 J-0.2
G1 X624.848 Y2379.761
G2 X624.648 Y2379.561 I-0.2
G1 X594.88
G2 X594.561 Y2379.88 J0.319
G1 Y2434.635
G3 X594.361 Y2434.835 I-0.2
G1 X586.95 Y2434.842
G3 X586.75 Y2434.642 J-0.2
G1 Y2371.75
X620
X624.636
G3 X624.836 Y2371.95 J0.2
G1 X624.883 Y2402.779
G3 X624.683 Y2402.979 I-0.2
G1 Z-4
X624.646
X618.299
G2 X617.979 Y2403.299 J0.319
G1 Y2434.637
G3 X617.779 Y2434.837 I-0.2
G1 X610.373 Y2434.842
G3 X610.173 Y2434.642 J-0.2
G1 Y2395.492
G3 X610.492 Y2395.173 I0.319
G1 X624.642
G2 X624.842 Y2394.973 J-0.2
G1 X624.837 Y2387.567
G2 X624.637 Y2387.367 I-0.2
G1 X602.686
G2 X602.367 Y2387.687 J0.319
G1 Y2434.646
G3 X602.167 Y2434.846 I-0.2
G1 X594.761 Y2434.835
G3 X594.561 Y2434.635 J-0.2
G1 Y2379.88
G3 X594.88 Y2379.561 I0.319
G1 X624.648
G2 X624.848 Y2379.361 J-0.2
G1 X624.836 Y2371.95
G2 X624.636 Y2371.75 I-0.2
G1 X586.75
Y2430
Y2434.642
G2 X586.95 Y2434.842 I0.2
G1 X617.779 Y2434.875
G2 X617.979 Y2434.674 J-0.2
G1 Z-6
Y2434.637
Y2403.299
G3 X618.299 Y2402.979 I0.319
G1 X624.646
G2 X624.846 Y2402.779 J-0.2
G1 X624.842 Y2395.373
G2 X624.642 Y2395.173 I-0.2
G1 X610.492
G2 X610.173 Y2395.492 J0.319
G1 Y2434.642
G3 X609.973 Y2434.842 I-0.2
G1 X602.567 Y2434.846
G3 X602.367 Y2434.646 J-0.2
G1 Y2387.687
G3 X602.686 Y2387.367 I0.319
G1 X624.637
G2 X624.837 Y2387.167 J-0.2
G1 X624.848 Y2379.761
G2 X624.648 Y2379.561 I-0.2
G1 X594.88
G2 X594.561 Y2379.88 J0.319
G1 Y2434.635
G3 X594.361 Y2434.835 I-0.2
G1 X586.95 Y2434.842
G3 X586.75 Y2434.642 J-0.2
G1 Y2371.75
X620
X624.636
G3 X624.836 Y2371.95 J0.2
G1 X624.883 Y2402.779
G3 X624.683 Y2402.979 I-0.2
G1 Z-8
X624.646
X618.299
G2 X617.979 Y2403.299 J0.319
G1 Y2434.637
G3 X617.779 Y2434.837 I-0.2
G1 X610.373 Y2434.842
G3 X610.173 Y2434.642 J-0.2
G1 Y2395.492
G3 X610.492 Y2395.173 I0.319
G1 X624.642
G2 X624.842 Y2394.973 J-0.2
G1 X624.837 Y2387.567
G2 X624.637 Y2387.367 I-0.2
G1 X602.686
G2 X602.367 Y2387.687 J0.319
G1 Y2434.646
G3 X602.167 Y2434.846 I-0.2
G1 X594.761 Y2434.835
G3 X594.561 Y2434.635 J-0.2
G1 Y2379.88
G3 X594.88 Y2379.561 I0.319
G1 X624.648
G2 X624.848 Y2379.361 J-0.2
G1 X624.836 Y2371.95
G2 X624.636 Y2371.75 I-0.2
G1 X586.75
Y2430
Y2434.642
G2 X586.95 Y2434.842 I0.2
G1 X617.779 Y2434.875
G2 X617.979 Y2434.674 J-0.2
G1 Z-10
Y2434.637
Y2403.299
G3 X618.299 Y2402.979 I0.319
G1 X624.646
G2 X624.846 Y2402.779 J-0.2
G1 X624.842 Y2395.373
G2 X624.642 Y2395.173 I-0.2
G1 X610.492
G2 X610.173 Y2395.492 J0.319
G1 Y2434.642
G3 X609.973 Y2434.842 I-0.2
G1 X602.567 Y2434.846
G3 X602.367 Y2434.646 J-0.2
G1 Y2387.687
G3 X602.686 Y2387.367 I0.319
G1 X624.637
G2 X624.837 Y2387.167 J-0.2
G1 X624.848 Y2379.761
G2 X624.648 Y2379.561 I-0.2
G1 X594.88
G2 X594.561 Y2379.88 J0.319
G1 Y2434.635
G3 X594.361 Y2434.835 I-0.2
G1 X586.95 Y2434.842
G3 X586.75 Y2434.642 J-0.2
G1 Y2371.75
X620
X624.636
G3 X624.836 Y2371.95 J0.2
G1 X624.883 Y2402.779
G3 X624.683 Y2402.979 I-0.2
G1 Z-12
X624.646
X618.299
G2 X617.979 Y2403.299 J0.319
G1 Y2434.637
G3 X617.779 Y2434.837 I-0.2
G1 X610.373 Y2434.842
G3 X610.173 Y2434.642 J-0.2
G1 Y2395.492
G3 X610.492 Y2395.173 I0.319
G1 X624.642
G2 X624.842 Y2394.973 J-0.2
G1 X624.837 Y2387.567
G2 X624.637 Y2387.367 I-0.2
G1 X602.686
G2 X602.367 Y2387.687 J0.319
G1 Y2434.646
G3 X602.167 Y2434.846 I-0.2
G1 X594.761 Y2434.835
G3 X594.561 Y2434.635 J-0.2
G1 Y2379.88
G3 X594.88 Y2379.561 I0.319
G1 X624.648
G2 X624.848 Y2379.361 J-0.2
G1 X624.836 Y2371.95
G2 X624.636 Y2371.75 I-0.2
G1 X586.75
Y2430
Y2434.642
G2 X586.95 Y2434.842 I0.2
G1 X617.779 Y2434.875
G2 X617.979 Y2434.674 J-0.2
G1 Z-14
Y2434.637
Y2403.299
G3 X618.299 Y2402.979 I0.319
G1 X624.646
G2 X624.846 Y2402.779 J-0.2
G1 X624.842 Y2395.373
G2 X624.642 Y2395.173 I-0.2
G1 X610.492
G2 X610.173 Y2395.492 J0.319
G1 Y2434.642
G3 X609.973 Y2434.842 I-0.2
G1 X602.567 Y2434.846
G3 X602.367 Y2434.646 J-0.2
G1 Y2387.687
G3 X602.686 Y2387.367 I0.319
G1 X624.637
G2 X624.837 Y2387.167 J-0.2
G1 X624.848 Y2379.761
G2 X624.648 Y2379.561 I-0.2
G1 X594.88
G2 X594.561 Y2379.88 J0.319
G1 Y2434.635
G3 X594.361 Y2434.835 I-0.2
G1 X586.95 Y2434.842
G3 X586.75 Y2434.642 J-0.2
G1 Y2371.75
X620
X624.636
G3 X624.836 Y2371.95 J0.2
G1 X624.883 Y2402.779
G3 X624.683 Y2402.979 I-0.2
G1 Z-16
X624.646
X618.299
G2 X617.979 Y2403.299 J0.319
G1 Y2434.637
G3 X617.779 Y2434.837 I-0.2
G1 X610.373 Y2434.842
G3 X610.173 Y2434.642 J-0.2
G1 Y2395.492
G3 X610.492 Y2395.173 I0.319
G1 X624.642
G2 X624.842 Y2394.973 J-0.2
G1 X624.837 Y2387.567
G2 X624.637 Y2387.367 I-0.2
G1 X602.686
G2 X602.367 Y2387.687 J0.319
G1 Y2434.646
G3 X602.167 Y2434.846 I-0.2
G1 X594.761 Y2434.835
G3 X594.561 Y2434.635 J-0.2
G1 Y2379.88
G3 X594.88 Y2379.561 I0.319
G1 X624.648
G2 X624.848 Y2379.361 J-0.2
G1 X624.836 Y2371.95
G2 X624.636 Y2371.75 I-0.2
G1 X586.75
Y2430
Y2434.642
G2 X586.95 Y2434.842 I0.2
G1 X617.779 Y2434.875
G2 X617.979 Y2434.674 J-0.2
G1 Z-18
Y2434.637
Y2403.299
G3 X618.299 Y2402.979 I0.319
G1 X624.646
G2 X624.846 Y2402.779 J-0.2
G1 X624.842 Y2395.373
G2 X624.642 Y2395.173 I-0.2
G1 X610.492
G2 X610.173 Y2395.492 J0.319
G1 Y2434.642
G3 X609.973 Y2434.842 I-0.2
G1 X602.567 Y2434.846
G3 X602.367 Y2434.646 J-0.2
G1 Y2387.687
G3 X602.686 Y2387.367 I0.319
G1 X624.637
G2 X624.837 Y2387.167 J-0.2
G1 X624.848 Y2379.761
G2 X624.648 Y2379.561 I-0.2
G1 X594.88
G2 X594.561 Y2379.88 J0.319
G1 Y2434.635
G3 X594.361 Y2434.835 I-0.2
G1 X586.95 Y2434.842
G3 X586.75 Y2434.642 J-0.2
G1 Y2371.75
X620
X624.636
G3 X624.836 Y2371.95 J0.2
G1 X624.883 Y2402.779
G3 X624.683 Y2402.979 I-0.2
G1 Z-20
X624.646
X618.299
G2 X617.979 Y2403.299 J0.319
G1 Y2434.637
G3 X617.779 Y2434.837 I-0.2
G1 X610.373 Y2434.842
G3 X610.173 Y2434.642 J-0.2
G1 Y2395.492
G3 X610.492 Y2395.173 I0.319
G1 X624.642
G2 X624.842 Y2394.973 J-0.2
G1 X624.837 Y2387.567
G2 X624.637 Y2387.367 I-0.2
G1 X602.686
G2 X602.367 Y2387.687 J0.319
G1 Y2434.646
G3 X602.167 Y2434.846 I-0.2
G1 X594.761 Y2434.835
G3 X594.561 Y2434.635 J-0.2
G1 Y2379.88
G3 X594.88 Y2379.561 I0.319
G1 X624.648
G2 X624.848 Y2379.361 J-0.2
G1 X624.836 Y2371.95
G2 X624.636 Y2371.75 I-0.2
G1 X586.75
Y2430
Y2434.642
G0 Z15
X624.679 Y1211.673
Z5
G1 Z2 F2000
Z-2
X624.642
X610.492
G2 X610.173 Y1211.992 J0.319
G1 Y1218.008
G2 X610.492 Y1218.327 I0.319
G1 X624.636
G3 X624.836 Y1218.527 J0.2
G1 X624.84 Y1225.933
G3 X624.64 Y1226.133 I-0.2
G1 X602.686
G3 X602.367 Y1225.814 J-0.319
G1 Y1204.186
G3 X602.686 Y1203.867 I0.319
G1 X624.637
G2 X624.837 Y1203.667 J-0.2
G1 X624.848 Y1196.261
G2 X624.648 Y1196.061 I-0.2
G1 X594.88
G2 X594.561 Y1196.38 J0.319
G1 Y1233.62
G2 X594.88 Y1233.939 I0.319
G1 X624.644
G3 X624.844 Y1234.139 J0.2
G1 X624.84 Y1241.55
G3 X624.64 Y1241.75 I-0.2
G1 X586.75
Y1188.25
X620
X624.636
G3 X624.836 Y1188.45 J0.2
G1 X624.879 Y1211.473
G3 X624.679 Y1211.673 I-0.2
G1 Z-4
X624.642
X610.492
G2 X610.173 Y1211.992 J0.319
G1 Y1218.008
G2 X610.492 Y1218.327 I0.319
G1 X624.636
G3 X624.836 Y1218.527 J0.2
G1 X624.84 Y1225.933
G3 X624.64 Y1226.133 I-0.2
G1 X602.686
G3 X602.367 Y1225.814 J-0.319
G1 Y1204.186
G3 X602.686 Y1203.867 I0.319
G1 X624.637
G2 X624.837 Y1203.667 J-0.2
G1 X624.848 Y1196.261
G2 X624.648 Y1196.061 I-0.2
G1 X594.88
G2 X594.561 Y1196.38 J0.319
G1 Y1233.62
G2 X594.88 Y1233.939 I0.319
G1 X624.644
G3 X624.844 Y1234.139 J0.2
G1 X624.84 Y1241.55
G3 X624.64 Y1241.75 I-0.2
G1 X586.75
Y1188.25
X620
X624.636
G3 X624.836 Y1188.45 J0.2
G1 X624.879 Y1211.473
G3 X624.679 Y1211.673 I-0.2
G1 Z-6
X624.642
X610.492
G2 X610.173 Y1211.992 J0.319
G1 Y1218.008
G2 X610.492 Y1218.327 I0.319
G1 X624.636
G3 X624.836 Y1218.527 J0.2
G1 X624.84 Y1225.933
G3 X624.64 Y1226.133 I-0.2
G1 X602.686
G3 X602.367 Y1225.814 J-0.319
G1 Y1204.186
G3 X602.686 Y1203.867 I0.319
G1 X624.637
G2 X624.837 Y1203.667 J-0.2
G1 X624.848 Y1196.261
G2 X624.648 Y1196.061 I-0.2
G1 X594.88
G2 X594.561 Y1196.38 J0.319
G1 Y1233.62
G2 X594.88 Y1233.939 I0.319
G1 X624.644
G3 X624.844 Y1234.139 J0.2
G1 X624.84 Y1241.55
G3 X624.64 Y1241.75 I-0.2
G1 X586.75
Y1188.25
X620
X624.636
G3 X624.836 Y1188.45 J0.2
G1 X624.879 Y1211.473
G3 X624.679 Y1211.673 I-0.2
G1 Z-8
X624.642
X610.492
G2 X610.173 Y1211.992 J0.319
G1 Y1218.008
G2 X610.492 Y1218.327 I0.319
G1 X624.636
G3 X624.836 Y1218.527 J0.2
G1 X624.84 Y1225.933
G3 X624.64 Y1226.133 I-0.2
G1 X602.686
G3 X602.367 Y1225.814 J-0.319
G1 Y1204.186
G3 X602.686 Y1203.867 I0.319
G1 X624.637
G2 X624.837 Y1203.667 J-0.2
G1 X624.848 Y1196.261
G2 X624.648 Y1196.061 I-0.2
G1 X594.88
G2 X594.561 Y1196.38 J0.319
G1 Y1233.62
G2 X594.88 Y1233.939 I0.319
G1 X624.644
G3 X624.844 Y1234.139 J0.2
G1 X624.84 Y1241.55
G3 X624.64 Y1241.75 I-0.2
G1 X586.75
Y1188.25
X620
X624.636
G3 X624.836 Y1188.45 J0.2
G1 X624.879 Y1211.473
G3 X624.679 Y1211.673 I-0.2
G1 Z-10
X624.642
X610.492
G2 X610.173 Y1211.992 J0.319
G1 Y1218.008
G2 X610.492 Y1218.327 I0.319
G1 X624.636
G3 X624.836 Y1218.527 J0.2
G1 X624.84 Y1225.933
G3 X624.64 Y1226.133 I-0.2
G1 X602.686
G3 X602.367 Y1225.814 J-0.319
G1 Y1204.186
G3 X602.686 Y1203.867 I0.319
G1 X624.637
G2 X624.837 Y1203.667 J-0.2
G1 X624.848 Y1196.261
G2 X624.648 Y1196.061 I-0.2
G1 X594.88
G2 X594.561 Y1196.38 J0.319
G1 Y1233.62
G2 X594.88 Y1233.939 I0.319
G1 X624.644
G3 X624.844 Y1234.139 J0.2
G1 X624.84 Y1241.55
G3 X624.64 Y1241.75 I-0.2
G1 X586.75
Y1188.25
X620
X624.636
G3 X624.836 Y1188.45 J0.2
G1 X624.879 Y1211.473
G3 X624.679 Y1211.673 I-0.2
G1 Z-12
X624.642
X610.492
G2 X610.173 Y1211.992 J0.319
G1 Y1218.008
G2 X610.492 Y1218.327 I0.319
G1 X624.636
G3 X624.836 Y1218.527 J0.2
G1 X624.84 Y1225.933
G3 X624.64 Y1226.133 I-0.2
G1 X602.686
G3 X602.367 Y1225.814 J-0.319
G1 Y1204.186
G3 X602.686 Y1203.867 I0.319
G1 X624.637
G2 X624.837 Y1203.667 J-0.2
G1 X624.848 Y1196.261
G2 X624.648 Y1196.061 I-0.2
G1 X594.88
G2 X594.561 Y1196.38 J0.319
G1 Y1233.62
G2 X594.88 Y1233.939 I0.319
G1 X624.644
G3 X624.844 Y1234.139 J0.2
G1 X624.84 Y1241.55
G3 X624.64 Y1241.75 I-0.2
G1 X586.75
Y1188.25
X620
X624.636
G3 X624.836 Y1188.45 J0.2
G1 X624.879 Y1211.473
G3 X624.679 Y1211.673 I-0.2
G1 Z-14
X624.642
X610.492
G2 X610.173 Y1211.992 J0.319
G1 Y1218.008
G2 X610.492 Y1218.327 I0.319
G1 X624.636
G3 X624.836 Y1218.527 J0.2
G1 X624.84 Y1225.933
G3 X624.64 Y1226.133 I-0.2
G1 X602.686
G3 X602.367 Y1225.814 J-0.319
G1 Y1204.186
G3 X602.686 Y1203.867 I0.319
G1 X624.637
G2 X624.837 Y1203.667 J-0.2
G1 X624.848 Y1196.261
G2 X624.648 Y1196.061 I-0.2
G1 X594.88
G2 X594.561 Y1196.38 J0.319
G1 Y1233.62
G2 X594.88 Y1233.939 I0.319
G1 X624.644
G3 X624.844 Y1234.139 J0.2
G1 X624.84 Y1241.55
G3 X624.64 Y1241.75 I-0.2
G1 X586.75
Y1188.25
X620
X624.636
G3 X624.836 Y1188.45 J0.2
G1 X624.879 Y1211.473
G3 X624.679 Y1211.673 I-0.2
G1 Z-16
X624.642
X610.492
G2 X610.173 Y1211.992 J0.319
G1 Y1218.008
G2 X610.492 Y1218.327 I0.319
G1 X624.636
G3 X624.836 Y1218.527 J0.2
G1 X624.84 Y1225.933
G3 X624.64 Y1226.133 I-0.2
G1 X602.686
G3 X602.367 Y1225.814 J-0.319
G1 Y1204.186
G3 X602.686 Y1203.867 I0.319
G1 X624.637
G2 X624.837 Y1203.667 J-0.2
G1 X624.848 Y1196.261
G2 X624.648 Y1196.061 I-0.2
G1 X594.88
G2 X594.561 Y1196.38 J0.319
G1 Y1233.62
G2 X594.88 Y1233.939 I0.319
G1 X624.644
G3 X624.844 Y1234.139 J0.2
G1 X624.84 Y1241.55
G3 X624.64 Y1241.75 I-0.2
G1 X586.75
Y1188.25
X620
X624.636
G3 X624.836 Y1188.45 J0.2
G1 X624.879 Y1211.473
G3 X624.679 Y1211.673 I-0.2
G1 Z-18
X624.642
X610.492
G2 X610.173 Y1211.992 J0.319
G1 Y1218.008
G2 X610.492 Y1218.327 I0.319
G1 X624.636
G3 X624.836 Y1218.527 J0.2
G1 X624.84 Y1225.933
G3 X624.64 Y1226.133 I-0.2
G1 X602.686
G3 X602.367 Y1225.814 J-0.319
G1 Y1204.186
G3 X602.686 Y1203.867 I0.319
G1 X624.637
G2 X624.837 Y1203.667 J-0.2
G1 X624.848 Y1196.261
G2 X624.648 Y1196.061 I-0.2
G1 X594.88
G2 X594.561 Y1196.38 J0.319
G1 Y1233.62
G2 X594.88 Y1233.939 I0.319
G1 X624.644
G3 X624.844 Y1234.139 J0.2
G1 X624.84 Y1241.55
G3 X624.64 Y1241.75 I-0.2
G1 X586.75
Y1188.25
X620
X624.636
G3 X624.836 Y1188.45 J0.2
G1 X624.879 Y1211.473
G3 X624.679 Y1211.673 I-0.2
G1 Z-20
X624.642
X610.492
G2 X610.173 Y1211.992 J0.319
G1 Y1218.008
G2 X610.492 Y1218.327 I0.319
G1 X624.636
G3 X624.836 Y1218.527 J0.2
G1 X624.84 Y1225.933
G3 X624.64 Y1226.133 I-0.2
G1 X602.686
G3 X602.367 Y1225.814 J-0.319
G1 Y1204.186
G3 X602.686 Y1203.867 I0.319
G1 X624.637
G2 X624.837 Y1203.667 J-0.2
G1 X624.848 Y1196.261
G2 X624.648 Y1196.061 I-0.2
G1 X594.88
G2 X594.561 Y1196.38 J0.319
G1 Y1233.62
G2 X594.88 Y1233.939 I0.319
G1 X624.644
G3 X624.844 Y1234.139 J0.2
G1 X624.84 Y1241.55
G3 X624.64 Y1241.75 I-0.2
G1 X586.75
Y1188.25
X620
X624.636
G0 Z15
X617.979 Y-4.675
Z5
G1 Z2 F2000
Z-2
Y-4.638
Y26.705
G2 X618.294 Y27.021 I0.315
G1 X624.646
G3 X624.846 Y27.221 J0.2
G1 X624.836 Y34.627
G3 X624.636 Y34.827 I-0.2
G1 X610.488
G3 X610.173 Y34.512 J-0.315
G1 Y-4.649
G2 X609.973 Y-4.849 I-0.2
G1 X602.567 Y-4.844
G2 X602.367 Y-4.644 J0.2
G1 Y42.318
G2 X602.682 Y42.633 I0.315
G1 X624.64
G3 X624.84 Y42.833 J0.2
G1 X624.844 Y50.239
G3 X624.644 Y50.439 I-0.2
G1 X594.876
G3 X594.561 Y50.124 J-0.315
G1 Y-4.64
G2 X594.361 Y-4.84 I-0.2
G1 X586.95 Y-4.836
G2 X586.75 Y-4.636 J0.2
G1 Y58.25
X620
X624.64
G2 X624.84 Y58.05 J-0.2
G1 X624.884 Y27.221
G2 X624.684 Y27.021 I-0.2
G1 Z-4
X624.646
X618.294
G3 X617.979 Y26.705 J-0.315
G1 Y-4.638
G2 X617.779 Y-4.838 I-0.2
G1 X610.373 Y-4.849
G2 X610.173 Y-4.649 J0.2
G1 Y34.512
G2 X610.488 Y34.827 I0.315
G1 X624.636
G3 X624.836 Y35.027 J0.2
G1 X624.84 Y42.433
G3 X624.64 Y42.633 I-0.2
G1 X602.682
G3 X602.367 Y42.318 J-0.315
G1 Y-4.644
G2 X602.167 Y-4.844 I-0.2
G1 X594.761 Y-4.84
G2 X594.561 Y-4.64 J0.2
G1 Y50.124
G2 X594.876 Y50.439 I0.315
G1 X624.644
G3 X624.844 Y50.639 J0.2
G1 X624.84 Y58.05
G3 X624.64 Y58.25 I-0.2
G1 X586.75
Y0
Y-4.636
G3 X586.95 Y-4.836 I0.2
G1 X617.779 Y-4.875
G3 X617.979 Y-4.675 J0.2
G1 Z-6
Y-4.638
Y26.705
G2 X618.294 Y27.021 I0.315
G1 X624.646
G3 X624.846 Y27.221 J0.2
G1 X624.836 Y34.627
G3 X624.636 Y34.827 I-0.2
G1 X610.488
G3 X610.173 Y34.512 J-0.315
G1 Y-4.649
G2 X609.973 Y-4.849 I-0.2
G1 X602.567 Y-4.844
G2 X602.367 Y-4.644 J0.2
G1 Y42.318
G2 X602.682 Y42.633 I0.315
G1 X624.64
G3 X624.84 Y42.833 J0.2
G1 X624.844 Y50.239
G3 X624.644 Y50.439 I-0.2
G1 X594.876
G3 X594.561 Y50.124 J-0.315
G1 Y-4.64
G2 X594.361 Y-4.84 I-0.2
G1 X586.95 Y-4.836
G2 X586.75 Y-4.636 J0.2
G1 Y58.25
X620
X624.64
G2 X624.84 Y58.05 J-0.2
G1 X624.884 Y27.221
G2 X624.684 Y27.021 I-0.2
G1 Z-8
X624.646
X618.294
G3 X617.979 Y26.705 J-0.315
G1 Y-4.638
G2 X617.779 Y-4.838 I-0.2
G1 X610.373 Y-4.849
G2 X610.173 Y-4.649 J0.2
G1 Y34.512
G2 X610.488 Y34.827 I0.315
G1 X624.636
G3 X624.836 Y35.027 J0.2
G1 X624.84 Y42.433
G3 X624.64 Y42.633 I-0.2
G1 X602.682
G3 X602.367 Y42.318 J-0.315
G1 Y-4.644
G2 X602.167 Y-4.844 I-0.2
G1 X594.761 Y-4.84
G2 X594.561 Y-4.64 J0.2
G1 Y50.124
G2 X594.876 Y50.439 I0.315
G1 X624.644
G3 X624.844 Y50.639 J0.2
G1 X624.84 Y58.05
G3 X624.64 Y58.25 I-0.2
G1 X586.75
Y0
Y-4.636
G3 X586.95 Y-4.836 I0.2
G1 X617.779 Y-4.875
G3 X617.979 Y-4.675 J0.2
G1 Z-10
Y-4.638
Y26.705
G2 X618.294 Y27.021 I0.315
G1 X624.646
G3 X624.846 Y27.221 J0.2
G1 X624.836 Y34.627
G3 X624.636 Y34.827 I-0.2
G1 X610.488
G3 X610.173 Y34.512 J-0.315
G1 Y-4.649
G2 X609.973 Y-4.849 I-0.2
G1 X602.567 Y-4.844
G2 X602.367 Y-4.644 J0.2
G1 Y42.318
G2 X602.682 Y42.633 I0.315
G1 X624.64
G3 X624.84 Y42.833 J0.2
G1 X624.844 Y50.239
G3 X624.644 Y50.439 I-0.2
G1 X594.876
G3 X594.561 Y50.124 J-0.315
G1 Y-4.64
G2 X594.361 Y-4.84 I-0.2
G1 X586.95 Y-4.836
G2 X586.75 Y-4.636 J0.2
G1 Y58.25
X620
X624.64
G2 X624.84 Y58.05 J-0.2
G1 X624.884 Y27.221
G2 X624.684 Y27.021 I-0.2
G1 Z-12
X624.646
X618.294
G3 X617.979 Y26.705 J-0.315
G1 Y-4.638
G2 X617.779 Y-4.838 I-0.2
G1 X610.373 Y-4.849
G2 X610.173 Y-4.649 J0.2
G1 Y34.512
G2 X610.488 Y34.827 I0.315
G1 X624.636
G3 X624.836 Y35.027 J0.2
G1 X624.84 Y42.433
G3 X624.64 Y42.633 I-0.2
G1 X602.682
G3 X602.367 Y42.318 J-0.315
G1 Y-4.644
G2 X602.167 Y-4.844 I-0.2
G1 X594.761 Y-4.84
G2 X594.561 Y-4.64 J0.2
G1 Y50.124
G2 X594.876 Y50.439 I0.315
G1 X624.644
G3 X624.844 Y50.639 J0.2
G1 X624.84 Y58.05
G3 X624.64 Y58.25 I-0.2
G1 X586.75
Y0
Y-4.636
G3 X586.95 Y-4.836 I0.2
G1 X617.779 Y-4.875
G3 X617.979 Y-4.675 J0.2
G1 Z-14
Y-4.638
Y26.705
G2 X618.294 Y27.021 I0.315
G1 X624.646
G3 X624.846 Y27.221 J0.2
G1 X624.836 Y34.627
G3 X624.636 Y34.827 I-0.2
G1 X610.488
G3 X610.173 Y34.512 J-0.315
G1 Y-4.649
G2 X609.973 Y-4.849 I-0.2
G1 X602.567 Y-4.844
G2 X602.367 Y-4.644 J0.2
G1 Y42.318
G2 X602.682 Y42.633 I0.315
G1 X624.64
G3 X624.84 Y42.833 J0.2
G1 X624.844 Y50.239
G3 X624.644 Y50.439 I-0.2
G1 X594.876
G3 X594.561 Y50.124 J-0.315
G1 Y-4.64
G2 X594.361 Y-4.84 I-0.2
G1 X586.95 Y-4.836
G2 X586.75 Y-4.636 J0.2
G1 Y58.25
X620
X624.64
G2 X624.84 Y58.05 J-0.2
G1 X624.884 Y27.221
G2 X624.684 Y27.021 I-0.2
G1 Z-16
X624.646
X618.294
G3 X617.979 Y26.705 J-0.315
G1 Y-4.638
G2 X617.779 Y-4.838 I-0.2
G1 X610.373 Y-4.849
G2 X610.173 Y-4.649 J0.2
G1 Y34.512
G2 X610.488 Y34.827 I0.315
G1 X624.636
G3 X624.836 Y35.027 J0.2
G1 X624.84 Y42.433
G3 X624.64 Y42.633 I-0.2
G1 X602.682
G3 X602.367 Y42.318 J-0.315
G1 Y-4.644
G2 X602.167 Y-4.844 I-0.2
G1 X594.761 Y-4.84
G2 X594.561 Y-4.64 J0.2
G1 Y50.124
G2 X594.876 Y50.439 I0.315
G1 X624.644
G3 X624.844 Y50.639 J0.2
G1 X624.84 Y58.05
G3 X624.64 Y58.25 I-0.2
G1 X586.75
Y0
Y-4.636
G3 X586.95 Y-4.836 I0.2
G1 X617.779 Y-4.875
G3 X617.979 Y-4.675 J0.2
G1 Z-18
Y-4.638
Y26.705
G2 X618.294 Y27.021 I0.315
G1 X624.646
G3 X624.846 Y27.221 J0.2
G1 X624.836 Y34.627
G3 X624.636 Y34.827 I-0.2
G1 X610.488
G3 X610.173 Y34.512 J-0.315
G1 Y-4.649
G2 X609.973 Y-4.849 I-0.2
G1 X602.567 Y-4.844
G2 X602.367 Y-4.644 J0.2
G1 Y42.318
G2 X602.682 Y42.633 I0.315
G1 X624.64
G3 X624.84 Y42.833 J0.2
G1 X624.844 Y50.239
G3 X624.644 Y50.439 I-0.2
G1 X594.876
G3 X594.561 Y50.124 J-0.315
G1 Y-4.64
G2 X594.361 Y-4.84 I-0.2
G1 X586.95 Y-4.836
G2 X586.75 Y-4.636 J0.2
G1 Y58.25
X620
X624.64
G2 X624.84 Y58.05 J-0.2
G1 X624.884 Y27.221
G2 X624.684 Y27.021 I-0.2
G1 Z-20
X624.646
X618.294
G3 X617.979 Y26.705 J-0.315
G1 Y-4.638
G2 X617.779 Y-4.838 I-0.2
G1 X610.373 Y-4.849
G2 X610.173 Y-4.649 J0.2
G1 Y34.512
G2 X610.488 Y34.827 I0.315
G1 X624.636
G3 X624.836 Y35.027 J0.2
G1 X624.84 Y42.433
G3 X624.64 Y42.633 I-0.2
G1 X602.682
G3 X602.367 Y42.318 J-0.315
G1 Y-4.644
G2 X602.167 Y-4.844 I-0.2
G1 X594.761 Y-4.84
G2 X594.561 Y-4.64 J0.2
G1 Y50.124
G2 X594.876 Y50.439 I0.315
G1 X624.644
G3 X624.844 Y50.639 J0.2
G1 X624.84 Y58.05
G3 X624.64 Y58.25 I-0.2
G1 X586.75
Y0
Y-4.636
G0 Z15
X546.348 Y1514.42
Z5
G1 Z2 F2000
Z-2
G3 X547.388 Y1518.75 I-8.498 J4.33
G1 Y1593.818
G3 X547.068 Y1594.137 I-0.319
G1 X542.932
G3 X542.612 Y1593.818 J-0.319
G1 Y1443.682
G3 X542.932 Y1443.363 I0.319
G1 X547.068
G3 X547.388 Y1443.682 J0.319
G1 Y1518.75
G2 X549.819 Y1522.397 I3.951
G3 X552.25 Y1526.044 I-1.52 J3.647
G1 Y1595.75
G3 X549 Y1599 I-3.25
G1 X537.75
Y1438.5
X549
G3 X552.25 Y1441.75 J3.25
G1 Y1526.044
G3 X550.706 Y1526.963 I-1.046
G1 X546.333 Y1524.591
G3 X546.059 Y1524.384 I0.484 J-0.927
G1 X544.658 Y1522.908
G3 X544.813 Y1521.335 I0.758 J-0.72
X546.348 Y1521.714 I0.604 J0.854
G1 Z-4
G3 X547.388 Y1526.044 I-8.498 J4.33
G1 Y1593.818
G3 X547.068 Y1594.137 I-0.319
G1 X542.932
G3 X542.612 Y1593.818 J-0.319
G1 Y1443.682
G3 X542.932 Y1443.363 I0.319
G1 X547.068
G3 X547.388 Y1443.682 J0.319
G1 Y1526.044
G2 X549.819 Y1529.691 I3.951
G3 X552.25 Y1533.338 I-1.52 J3.647
G1 Y1595.75
G3 X549 Y1599 I-3.25
G1 X537.75
Y1438.5
X549
G3 X552.25 Y1441.75 J3.25
G1 Y1533.338
G3 X550.706 Y1534.257 I-1.046
G1 X546.333 Y1531.885
G3 X546.059 Y1531.678 I0.484 J-0.927
G1 X544.658 Y1530.202
G3 X544.813 Y1528.628 I0.758 J-0.72
X546.348 Y1529.007 I0.604 J0.854
G1 Z-6
G3 X547.388 Y1533.338 I-8.498 J4.33
G1 Y1593.818
G3 X547.068 Y1594.137 I-0.319
G1 X542.932
G3 X542.612 Y1593.818 J-0.319
G1 Y1443.682
G3 X542.932 Y1443.363 I0.319
G1 X547.068
G3 X547.388 Y1443.682 J0.319
G1 Y1533.338
G2 X549.819 Y1536.984 I3.951
G3 X552.25 Y1540.631 I-1.52 J3.647
G1 Y1595.75
G3 X549 Y1599 I-3.25
G1 X537.75
Y1438.5
X549
G3 X552.25 Y1441.75 J3.25
G1 Y1540.631
G3 X550.706 Y1541.55 I-1.046
G1 X546.333 Y1539.178
G3 X546.059 Y1538.972 I0.484 J-0.927
G1 X544.658 Y1537.496
G3 X544.813 Y1535.922 I0.758 J-0.72
X546.348 Y1536.301 I0.604 J0.854
G1 Z-8
G3 X547.388 Y1540.631 I-8.498 J4.33
G1 Y1593.818
G3 X547.068 Y1594.137 I-0.319
G1 X542.932
G3 X542.612 Y1593.818 J-0.319
G1 Y1443.682
G3 X542.932 Y1443.363 I0.319
G1 X547.068
G3 X547.388 Y1443.682 J0.319
G1 Y1540.631
G2 X549.819 Y1544.278 I3.951
G3 X552.25 Y1547.925 I-1.52 J3.647
G1 Y1595.75
G3 X549 Y1599 I-3.25
G1 X537.75
Y1438.5
X549
G3 X552.25 Y1441.75 J3.25
G1 Y1547.925
G3 X552.128 Y1548.135 I-0.242
G1 X551.55 Y1548.466
G2 X551.43 Y1548.645 I0.12 J0.21
G1 X545.566 Y1593.693
X545.624 Y1594.021
G3 X545.565 Y1594.102 I-0.068 J0.013
X541.39 Y1586.917 Z-8.369 I-0.565 J-4.477
X548.61 Z-8.661 I3.61 J2.708
X545 Y1594.137 Z-9.01 I-3.61 J2.708
X541.39 Y1586.917 Z-9.359 J-4.512
X548.61 Z-9.651 I3.61 J2.708
X545 Y1594.137 Z-10 I-3.61 J2.708
G1 X542.932
G3 X542.612 Y1593.818 J-0.319
G1 Y1443.682
G3 X542.932 Y1443.363 I0.319
G1 X547.068
G3 X547.388 Y1443.682 J0.319
G1 Y1593.818
G3 X547.068 Y1594.137 I-0.319
G1 X545
G2 X541.618 Y1596.225 J3.784
G3 X537.75 Y1595.309 I-1.825 J-0.916
G1 Y1438.5
X549
G3 X552.25 Y1441.75 J3.25
G1 Y1595.75
G3 X549 Y1599 I-3.25
G1 X537.75
Y1595.309
G3 X537.885 Y1595.187 I0.123
G1 X538.482 Y1595.24
X545.337 Y1593.936
X545.567 Y1593.966
G3 X545.565 Y1594.102 I-0.01 J0.068
X541.39 Y1586.917 Z-10.369 I-0.565 J-4.477
X548.61 Z-10.661 I3.61 J2.708
X545 Y1594.137 Z-11.01 I-3.61 J2.708
X541.39 Y1586.917 Z-11.359 J-4.512
X548.61 Z-11.651 I3.61 J2.708
X545 Y1594.137 Z-12 I-3.61 J2.708
G1 X542.932
G3 X542.612 Y1593.818 J-0.319
G1 Y1443.682
G3 X542.932 Y1443.363 I0.319
G1 X547.068
G3 X547.388 Y1443.682 J0.319
G1 Y1593.818
G3 X547.068 Y1594.137 I-0.319
G1 X545
G2 X541.618 Y1596.225 J3.784
G3 X537.75 Y1595.309 I-1.825 J-0.916
G1 Y1438.5
X549
G3 X552.25 Y1441.75 J3.25
G1 Y1595.75
G3 X549 Y1599 I-3.25
G1 X537.75
Y1595.309
G3 X537.885 Y1595.187 I0.123
G1 X538.482 Y1595.24
X545.337 Y1593.936
X545.567 Y1593.966
G3 X545.565 Y1594.102 I-0.01 J0.068
X541.39 Y1586.917 Z-12.369 I-0.565 J-4.477
X548.61 Z-12.661 I3.61 J2.708
X545 Y1594.137 Z-13.01 I-3.61 J2.708
X541.39 Y1586.917 Z-13.359 J-4.512
X548.61 Z-13.651 I3.61 J2.708
X545 Y1594.137 Z-14 I-3.61 J2.708
G1 X542.932
G3 X542.612 Y1593.818 J-0.319
G1 Y1443.682
G3 X542.932 Y1443.363 I0.319
G1 X547.068
G3 X547.388 Y1443.682 J0.319
G1 Y1593.818
G3 X547.068 Y1594.137 I-0.319
G1 X545
G2 X541.618 Y1596.225 J3.784
G3 X537.75 Y1595.309 I-1.825 J-0.916
G1 Y1438.5
X549
G3 X552.25 Y1441.75 J3.25
G1 Y1595.75
G3 X549 Y1599 I-3.25
G1 X537.75
Y1595.309
G3 X537.885 Y1595.187 I0.123
G1 X538.482 Y1595.238
X545.049 Y1593.948
X545.29 Y1593.98
G3 X545.283 Y1594.129 I-0.011 J0.074
X541.39 Y1586.917 Z-14.359 I-0.283 J-4.504
X548.61 Z-14.651 I3.61 J2.708
X545 Y1594.137 Z-15 I-3.61 J2.708
G1 X542.932
G3 X542.612 Y1593.818 J-0.319
G1 Y1443.682
G3 X542.932 Y1443.363 I0.319
G1 X547.068
G3 X547.388 Y1443.682 J0.319
G1 Y1593.818
G3 X547.068 Y1594.137 I-0.319
G1 X545
G2 X541.618 Y1596.225 J3.784
G3 X537.75 Y1595.309 I-1.825 J-0.916
G1 Y1438.5
X549
G3 X552.25 Y1441.75 J3.25
G1 Y1595.75
G3 X549 Y1599 I-3.25
G1 X537.75
Y1595.309
G0 Z15

(2D Pocket2 4)
M9
X385.052 Y2434.682
Z15
Z5
G1 Z2 F2000
Z-2
Y2434.645
Y2430.267
G2 X384.733 Y2429.948 I-0.319
G1 X380.267
G2 X379.948 Y2430.267 J0.319
G1 Y2434.64
G3 X379.748 Y2434.84 I-0.2
G1 X374.95 Y2434.843
G3 X374.75 Y2434.642 J-0.2
G1 Y2424.75
X390.25
Y2430
Y2434.635
G3 X390.052 Y2434.836 I-0.2
G1 X385.254 Y2434.882
G3 X385.052 Y2434.682 I-0.002 J-0.2
G1 Z-4
Y2434.645
Y2430.267
G2 X384.733 Y2429.948 I-0.319
G1 X380.267
G2 X379.948 Y2430.267 J0.319
G1 Y2434.64
G3 X379.748 Y2434.84 I-0.2
G1 X374.95 Y2434.843
G3 X374.75 Y2434.642 J-0.2
G1 Y2424.75
X390.25
Y2430
Y2434.635
G3 X390.052 Y2434.836 I-0.2
G1 X385.254 Y2434.882
G3 X385.052 Y2434.682 I-0.002 J-0.2
G1 Z-6
Y2434.645
Y2430.267
G2 X384.733 Y2429.948 I-0.319
G1 X380.267
G2 X379.948 Y2430.267 J0.319
G1 Y2434.64
G3 X379.748 Y2434.84 I-0.2
G1 X374.95 Y2434.843
G3 X374.75 Y2434.642 J-0.2
G1 Y2424.75
X390.25
Y2430
Y2434.635
G3 X390.052 Y2434.836 I-0.2
G1 X385.254 Y2434.882
G3 X385.052 Y2434.682 I-0.002 J-0.2
G1 Z-8
Y2434.645
Y2430.267
G2 X384.733 Y2429.948 I-0.319
G1 X380.267
G2 X379.948 Y2430.267 J0.319
G1 Y2434.64
G3 X379.748 Y2434.84 I-0.2
G1 X374.95 Y2434.843
G3 X374.75 Y2434.642 J-0.2
G1 Y2424.75
X390.25
Y2430
Y2434.635
G3 X390.052 Y2434.836 I-0.2
G1 X385.254 Y2434.882
G3 X385.052 Y2434.682 I-0.002 J-0.2
G1 Z-10
Y2434.645
Y2430.267
G2 X384.733 Y2429.948 I-0.319
G1 X380.267
G2 X379.948 Y2430.267 J0.319
G1 Y2434.64
G3 X379.748 Y2434.84 I-0.2
G1 X374.95 Y2434.843
G3 X374.75 Y2434.642 J-0.2
G1 Y2424.75
X390.25
Y2430
Y2434.635
G3 X390.052 Y2434.836 I-0.2
G1 X385.254 Y2434.882
G3 X385.052 Y2434.682 I-0.002 J-0.2
G1 Z-12
Y2434.645
Y2430.267
G2 X384.733 Y2429.948 I-0.319
G1 X380.267
G2 X379.948 Y2430.267 J0.319
G1 Y2434.64
G3 X379.748 Y2434.84 I-0.2
G1 X374.95 Y2434.843
G3 X374.75 Y2434.642 J-0.2
G1 Y2424.75
X390.25
Y2430
Y2434.635
G3 X390.052 Y2434.836 I-0.2
G1 X385.254 Y2434.882
G3 X385.052 Y2434.682 I-0.002 J-0.2
G1 Z-14
Y2434.645
Y2430.267
G2 X384.733 Y2429.948 I-0.319
G1 X380.267
G2 X379.948 Y2430.267 J0.319
G1 Y2434.64
G3 X379.748 Y2434.84 I-0.2
G1 X374.95 Y2434.843
G3 X374.75 Y2434.642 J-0.2
G1 Y2424.75
X390.25
Y2430
Y2434.635
G3 X390.052 Y2434.836 I-0.2
G1 X385.254 Y2434.882
G3 X385.052 Y2434.682 I-0.002 J-0.2
G1 Z-16
Y2434.645
Y2430.267
G2 X384.733 Y2429.948 I-0.319
G1 X380.267
G2 X379.948 Y2430.267 J0.319
G1 Y2434.64
G3 X379.748 Y2434.84 I-0.2
G1 X374.95 Y2434.843
G3 X374.75 Y2434.642 J-0.2
G1 Y2424.75
X390.25
Y2430
Y2434.635
G3 X390.052 Y2434.836 I-0.2
G1 X385.254 Y2434.882
G3 X385.052 Y2434.682 I-0.002 J-0.2
G1 Z-18
Y2434.645
Y2430.267
G2 X384.733 Y2429.948 I-0.319
G1 X380.267
G2 X379.948 Y2430.267 J0.319
G1 Y2434.64
G3 X379.748 Y2434.84 I-0.2
G1 X374.95 Y2434.843
G3 X374.75 Y2434.642 J-0.2
G1 Y2424.75
X390.25
Y2430
Y2434.635
G3 X390.052 Y2434.836 I-0.2
G1 X385.254 Y2434.882
G3 X385.052 Y2434.682 I-0.002 J-0.2
G1 Z-20
Y2434.645
Y2430.267
G2 X384.733 Y2429.948 I-0.319
G1 X380.267
G2 X379.948 Y2430.267 J0.319
G1 Y2434.64
G3 X379.748 Y2434.84 I-0.2
G1 X374.95 Y2434.843
G3 X374.75 Y2434.642 J-0.2
G1 Y2424.75
X390.25
Y2430
Y2434.635
G3 X390.052 Y2434.836 I-0.2
G1 X385.254 Y2434.882
G3 X385.052 Y2434.682 I-0.002 J-0.2
G1 Z-22
Y2434.645
Y2430.267
G2 X384.733 Y2429.948 I-0.319
G1 X380.267
G2 X379.948 Y2430.267 J0.319
G1 Y2434.64
G3 X379.748 Y2434.84 I-0.2
G1 X374.95 Y2434.843
G3 X374.75 Y2434.642 J-0.2
G1 Y2424.75
X390.25
Y2430
Y2434.635
G3 X390.052 Y2434.836 I-0.2
G1 X385.254 Y2434.882
G3 X385.052 Y2434.682 I-0.002 J-0.2
G1 Z-24
Y2434.645
Y2430.267
G2 X384.733 Y2429.948 I-0.319
G1 X380.267
G2 X379.948 Y2430.267 J0.319
G1 Y2434.64
G3 X379.748 Y2434.84 I-0.2
G1 X374.95 Y2434.843
G3 X374.75 Y2434.642 J-0.2
G1 Y2424.75
X390.25
Y2430
Y2434.635
G3 X390.052 Y2434.836 I-0.2
G1 X385.254 Y2434.882
G3 X385.052 Y2434.682 I-0.002 J-0.2
G1 Z-26
Y2434.645
Y2430.267
G2 X384.733 Y2429.948 I-0.319
G1 X380.267
G2 X379.948 Y2430.267 J0.319
G1 Y2434.64
G3 X379.748 Y2434.84 I-0.2
G1 X374.95 Y2434.843
G3 X374.75 Y2434.642 J-0.2
G1 Y2424.75
X390.25
Y2430
Y2434.635
G3 X390.052 Y2434.836 I-0.2
G1 X385.254 Y2434.882
G3 X385.052 Y2434.682 I-0.002 J-0.2
G1 Z-28
Y2434.645
Y2430.267
G2 X384.733 Y2429.948 I-0.319
G1 X380.267
G2 X379.948 Y2430.267 J0.319
G1 Y2434.64
G3 X379.748 Y2434.84 I-0.2
G1 X374.95 Y2434.843
G3 X374.75 Y2434.642 J-0.2
G1 Y2424.75
X390.25
Y2430
Y2434.635
G3 X390.052 Y2434.836 I-0.2
G1 X385.254 Y2434.882
G3 X385.052 Y2434.682 I-0.002 J-0.2
G1 Z-30
Y2434.645
Y2430.267
G2 X384.733 Y2429.948 I-0.319
G1 X380.267
G2 X379.948 Y2430.267 J0.319
G1 Y2434.64
G3 X379.748 Y2434.84 I-0.2
G1 X374.95 Y2434.843
G3 X374.75 Y2434.642 J-0.2
G1 Y2424.75
X390.25
Y2430
Y2434.635
G3 X390.052 Y2434.836 I-0.2
G1 X385.254 Y2434.882
G3 X385.052 Y2434.682 I-0.002 J-0.2
G1 Z-32
Y2434.645
Y2430.267
G2 X384.733 Y2429.948 I-0.319
G1 X380.267
G2 X379.948 Y2430.267 J0.319
G1 Y2434.64
G3 X379.748 Y2434.84 I-0.2
G1 X374.95 Y2434.843
G3 X374.75 Y2434.642 J-0.2
G1 Y2424.75
X390.25
Y2430
Y2434.635
G3 X390.052 Y2434.836 I-0.2
G1 X385.254 Y2434.882
G3 X385.052 Y2434.682 I-0.002 J-0.2
G1 Z-34
Y2434.645
Y2430.267
G2 X384.733 Y2429.948 I-0.319
G1 X380.267
G2 X379.948 Y2430.267 J0.319
G1 Y2434.64
G3 X379.748 Y2434.84 I-0.2
G1 X374.95 Y2434.843
G3 X374.75 Y2434.642 J-0.2
G1 Y2424.75
X390.25
Y2430
Y2434.635
G3 X390.052 Y2434.836 I-0.2
G1 X385.254 Y2434.882
G3 X385.052 Y2434.682 I-0.002 J-0.2
G1 Z-36
Y2434.645
Y2430.267
G2 X384.733 Y2429.948 I-0.319
G1 X380.267
G2 X379.948 Y2430.267 J0.319
G1 Y2434.64
G3 X379.748 Y2434.84 I-0.2
G1 X374.95 Y2434.843
G3 X374.75 Y2434.642 J-0.2
G1 Y2424.75
X390.25
Y2430
Y2434.635
G3 X390.052 Y2434.836 I-0.2
G1 X385.254 Y2434.882
G3 X385.052 Y2434.682 I-0.002 J-0.2
G1 Z-38
Y2434.645
Y2430.267
G2 X384.733 Y2429.948 I-0.319
G1 X380.267
G2 X379.948 Y2430.267 J0.319
G1 Y2434.64
G3 X379.748 Y2434.84 I-0.2
G1 X374.95 Y2434.843
G3 X374.75 Y2434.642 J-0.2
G1 Y2424.75
X390.25
Y2430
Y2434.635
G3 X390.052 Y2434.836 I-0.2
G1 X385.254 Y2434.882
G3 X385.052 Y2434.682 I-0.002 J-0.2
G1 Z-40
Y2434.645
Y2430.267
G2 X384.733 Y2429.948 I-0.319
G1 X380.267
G2 X379.948 Y2430.267 J0.319
G1 Y2434.64
G3 X379.748 Y2434.84 I-0.2
G1 X374.95 Y2434.843
G3 X374.75 Y2434.642 J-0.2
G1 Y2424.75
X390.25
Y2430
Y2434.635
G3 X390.052 Y2434.836 I-0.2
G1 X385.254 Y2434.882
G3 X385.052 Y2434.682 I-0.002 J-0.2
G1 Z-42
Y2434.645
Y2430.267
G2 X384.733 Y2429.948 I-0.319
G1 X380.267
G2 X379.948 Y2430.267 J0.319
G1 Y2434.64
G3 X379.748 Y2434.84 I-0.2
G1 X374.95 Y2434.843
G3 X374.75 Y2434.642 J-0.2
G1 Y2424.75
X390.25
Y2430
Y2434.635
G0 Z5
X519.653 Y1816.866
G1 Z2.5 F2000
G3 X522.572 Y1821.087 Z2.309 I-1.593 J4.222
X515.352 Y1824.697 Z1.96 I-4.513
X516.796 Y1816.755 Z1.611 I2.708 J-3.61
X519.323 Y1825.419 Z1.116 I1.263 J4.332
X515.352 Y1824.697 Z0.97 I-1.263 J-4.332
X516.796 Y1816.755 Z0.621 I2.708 J-3.61
X519.323 Y1825.419 Z0.126 I1.263 J4.332
X515.352 Y1824.697 Z-0.02 I-1.263 J-4.332
X516.796 Y1816.755 Z-0.369 I2.708 J-3.61
X519.323 Y1825.419 Z-0.864 I1.263 J4.332
X515.352 Y1824.697 Z-1.01 I-1.263 J-4.332
X516.796 Y1816.755 Z-1.359 I2.708 J-3.61
X519.323 Y1825.419 Z-1.854 I1.263 J4.332
X515.352 Y1824.697 Z-2 I-1.263 J-4.332
X518.648 Y1820.303 I1.648 J-2.197
X515.352 Y1824.697 I-1.648 J2.197
G2 X511.604 Y1824.118 I-2.417 J3.223
G3 X508.604 Y1821.796 I-0.747 J-2.133
X525.396 Y1823.204 I8.396 J0.704
X511.945 Y1829.24 I-8.396 J-0.704
X508.604 Y1821.796 I5.055 J-6.74
G2 X505.901 Y1815.892 I-6.591 J-0.553
G3 X505.618 Y1809.405 I2.438 J-3.356
X528.382 Y1835.595 I11.382 J13.095
X506.59 Y1836.38 I-11.382 J-13.095
X505.618 Y1809.405 I10.41 J-13.88
G2 X507.814 Y1802.708 I-4.507 J-5.186
G3 X511.626 Y1796.781 I4.823 J-1.088
X522.374 Y1848.219 I5.374 J25.719
X511.626 Y1796.781 I-5.374 J-25.719
G2 X516.967 Y1791.734 I-1.435 J-6.87
G3 X523.169 Y1787.794 I5.25 J1.413
X517 Y1857.75 I-6.169 J34.706
X481.75 Y1822.5 J-35.25
X523.169 Y1787.794 I35.25
X525.677 Y1791.936 I-0.564 J3.171
G1 X521.19 Y1806.135
G2 X521.041 Y1807.02 I3.071 J0.97
G1 X520.64 Y1822.294
G3 X515.826 Y1825.008 I-3.22 J-0.085
X520.293 Y1817.167 Z-2.495 I2.234 J-3.921
X521.832 Y1823.563 Z-2.752 I-2.234 J3.921
X515.352 Y1824.697 Z-3.01 I-3.773 J-2.476
X516.796 Y1816.755 Z-3.359 I2.708 J-3.61
X519.323 Y1825.419 Z-3.854 I1.263 J4.332
X515.352 Y1824.697 Z-4 I-1.263 J-4.332
X518.648 Y1820.303 I1.648 J-2.197
X515.352 Y1824.697 I-1.648 J2.197
G2 X511.604 Y1824.118 I-2.417 J3.223
G3 X508.604 Y1821.796 I-0.747 J-2.133
X525.396 Y1823.204 I8.396 J0.704
X511.945 Y1829.24 I-8.396 J-0.704
X508.604 Y1821.796 I5.055 J-6.74
G2 X505.901 Y1815.892 I-6.591 J-0.553
G3 X505.618 Y1809.405 I2.438 J-3.356
X528.382 Y1835.595 I11.382 J13.095
X506.59 Y1836.38 I-11.382 J-13.095
X505.618 Y1809.405 I10.41 J-13.88
G2 X507.814 Y1802.708 I-4.507 J-5.186
G3 X511.626 Y1796.781 I4.823 J-1.088
X522.374 Y1848.219 I5.374 J25.719
X511.626 Y1796.781 I-5.374 J-25.719
G2 X516.967 Y1791.734 I-1.435 J-6.87
G3 X523.169 Y1787.794 I5.25 J1.413
X517 Y1857.75 I-6.169 J34.706
X481.75 Y1822.5 J-35.25
X523.169 Y1787.794 I35.25
X525.677 Y1791.936 I-0.564 J3.171
G1 X521.19 Y1806.135
G2 X521.041 Y1807.02 I3.071 J0.97
G1 X520.64 Y1822.294
G3 X515.826 Y1825.008 I-3.22 J-0.085
X520.293 Y1817.167 Z-4.495 I2.234 J-3.921
X521.832 Y1823.563 Z-4.752 I-2.234 J3.921
X515.352 Y1824.697 Z-5.01 I-3.773 J-2.476
X516.796 Y1816.755 Z-5.359 I2.708 J-3.61
X519.323 Y1825.419 Z-5.854 I1.263 J4.332
X515.352 Y1824.697 Z-6 I-1.263 J-4.332
X518.648 Y1820.303 I1.648 J-2.197
X515.352 Y1824.697 I-1.648 J2.197
G2 X511.604 Y1824.118 I-2.417 J3.223
G3 X508.604 Y1821.796 I-0.747 J-2.133
X525.396 Y1823.204 I8.396 J0.704
X511.945 Y1829.24 I-8.396 J-0.704
X508.604 Y1821.796 I5.055 J-6.74
G2 X505.901 Y1815.892 I-6.591 J-0.553
G3 X505.618 Y1809.405 I2.438 J-3.356
X528.382 Y1835.595 I11.382 J13.095
X506.59 Y1836.38 I-11.382 J-13.095
X505.618 Y1809.405 I10.41 J-13.88
G2 X507.814 Y1802.708 I-4.507 J-5.186
G3 X511.626 Y1796.781 I4.823 J-1.088
X522.374 Y1848.219 I5.374 J25.719
X511.626 Y1796.781 I-5.374 J-25.719
G2 X516.967 Y1791.734 I-1.435 J-6.87
G3 X523.169 Y1787.794 I5.25 J1.413
X517 Y1857.75 I-6.169 J34.706
X481.75 Y1822.5 J-35.25
X523.169 Y1787.794 I35.25
X525.677 Y1791.936 I-0.564 J3.171
G1 X521.19 Y1806.135
G2 X521.041 Y1807.02 I3.071 J0.97
G1 X520.64 Y1822.294
G3 X515.826 Y1825.008 I-3.22 J-0.085
X520.293 Y1817.167 Z-6.495 I2.234 J-3.921
X521.832 Y1823.563 Z-6.752 I-2.234 J3.921
X515.352 Y1824.697 Z-7.01 I-3.773 J-2.476
X516.796 Y1816.755 Z-7.359 I2.708 J-3.61
X519.323 Y1825.419 Z-7.854 I1.263 J4.332
X515.352 Y1824.697 Z-8 I-1.263 J-4.332
X518.648 Y1820.303 I1.648 J-2.197
X515.352 Y1824.697 I-1.648 J2.197
G2 X511.604 Y1824.118 I-2.417 J3.223
G3 X508.604 Y1821.796 I-0.747 J-2.133
X525.396 Y1823.204 I8.396 J0.704
X511.945 Y1829.24 I-8.396 J-0.704
X508.604 Y1821.796 I5.055 J-6.74
G2 X505.901 Y1815.892 I-6.591 J-0.553
G3 X505.618 Y1809.405 I2.438 J-3.356
X528.382 Y1835.595 I11.382 J13.095
X506.59 Y1836.38 I-11.382 J-13.095
X505.618 Y1809.405 I10.41 J-13.88
G2 X507.814 Y1802.708 I-4.507 J-5.186
G3 X511.626 Y1796.781 I4.823 J-1.088
X522.374 Y1848.219 I5.374 J25.719
X511.626 Y1796.781 I-5.374 J-25.719
G2 X516.967 Y1791.734 I-1.435 J-6.87
G3 X523.169 Y1787.794 I5.25 J1.413
X517 Y1857.75 I-6.169 J34.706
X481.75 Y1822.5 J-35.25
X523.169 Y1787.794 I35.25
X525.677 Y1791.936 I-0.564 J3.171
G1 X521.19 Y1806.135
G2 X521.041 Y1807.02 I3.071 J0.97
G1 X520.64 Y1822.294
G3 X515.826 Y1825.008 I-3.22 J-0.085
X520.293 Y1817.167 Z-8.495 I2.234 J-3.921
X521.832 Y1823.563 Z-8.752 I-2.234 J3.921
X515.352 Y1824.697 Z-9.01 I-3.773 J-2.476
X516.796 Y1816.755 Z-9.359 I2.708 J-3.61
X519.323 Y1825.419 Z-9.854 I1.263 J4.332
X515.352 Y1824.697 Z-10 I-1.263 J-4.332
X518.648 Y1820.303 I1.648 J-2.197
X515.352 Y1824.697 I-1.648 J2.197
G2 X511.604 Y1824.118 I-2.417 J3.223
G3 X508.604 Y1821.796 I-0.747 J-2.133
X525.396 Y1823.204 I8.396 J0.704
X511.945 Y1829.24 I-8.396 J-0.704
X508.604 Y1821.796 I5.055 J-6.74
G2 X505.901 Y1815.892 I-6.591 J-0.553
G3 X505.618 Y1809.405 I2.438 J-3.356
X528.382 Y1835.595 I11.382 J13.095
X506.59 Y1836.38 I-11.382 J-13.095
X505.618 Y1809.405 I10.41 J-13.88
G2 X507.814 Y1802.708 I-4.507 J-5.186
G3 X511.626 Y1796.781 I4.823 J-1.088
X522.374 Y1848.219 I5.374 J25.719
X511.626 Y1796.781 I-5.374 J-25.719
G2 X516.967 Y1791.734 I-1.435 J-6.87
G3 X523.169 Y1787.794 I5.25 J1.413
X517 Y1857.75 I-6.169 J34.706
X481.75 Y1822.5 J-35.25
X523.169 Y1787.794 I35.25
X525.677 Y1791.936 I-0.564 J3.171
G1 X521.19 Y1806.135
G2 X521.041 Y1807.02 I3.071 J0.97
G1 X520.64 Y1822.294
G3 X515.826 Y1825.008 I-3.22 J-0.085
X520.293 Y1817.167 Z-10.495 I2.234 J-3.921
X521.832 Y1823.563 Z-10.752 I-2.234 J3.921
X515.352 Y1824.697 Z-11.01 I-3.773 J-2.476
X516.796 Y1816.755 Z-11.359 I2.708 J-3.61
X519.323 Y1825.419 Z-11.854 I1.263 J4.332
X515.352 Y1824.697 Z-12 I-1.263 J-4.332
X518.648 Y1820.303 I1.648 J-2.197
X515.352 Y1824.697 I-1.648 J2.197
G2 X511.604 Y1824.118 I-2.417 J3.223
G3 X508.604 Y1821.796 I-0.747 J-2.133
X525.396 Y1823.204 I8.396 J0.704
X511.945 Y1829.24 I-8.396 J-0.704
X508.604 Y1821.796 I5.055 J-6.74
G2 X505.901 Y1815.892 I-6.591 J-0.553
G3 X505.618 Y1809.405 I2.438 J-3.356
X528.382 Y1835.595 I11.382 J13.095
X506.59 Y1836.38 I-11.382 J-13.095
X505.618 Y1809.405 I10.41 J-13.88
G2 X507.814 Y1802.708 I-4.507 J-5.186
G3 X511.626 Y1796.781 I4.823 J-1.088
X522.374 Y1848.219 I5.374 J25.719
X511.626 Y1796.781 I-5.374 J-25.719
G2 X516.967 Y1791.734 I-1.435 J-6.87
G3 X523.169 Y1787.794 I5.25 J1.413
X517 Y1857.75 I-6.169 J34.706
X481.75 Y1822.5 J-35.25
X523.169 Y1787.794 I35.25
X525.677 Y1791.936 I-0.564 J3.171
G1 X521.19 Y1806.135
G2 X521.041 Y1807.02 I3.071 J0.97
G1 X520.64 Y1822.294
G3 X515.826 Y1825.008 I-3.22 J-0.085
X520.293 Y1817.167 Z-12.495 I2.234 J-3.921
X521.832 Y1823.563 Z-12.752 I-2.234 J3.921
X515.352 Y1824.697 Z-13.01 I-3.773 J-2.476
X516.796 Y1816.755 Z-13.359 I2.708 J-3.61
X519.323 Y1825.419 Z-13.854 I1.263 J4.332
X515.352 Y1824.697 Z-14 I-1.263 J-4.332
X518.648 Y1820.303 I1.648 J-2.197
X515.352 Y1824.697 I-1.648 J2.197
G2 X511.604 Y1824.118 I-2.417 J3.223
G3 X508.604 Y1821.796 I-0.747 J-2.133
X525.396 Y1823.204 I8.396 J0.704
X511.945 Y1829.24 I-8.396 J-0.704
X508.604 Y1821.796 I5.055 J-6.74
G2 X505.901 Y1815.892 I-6.591 J-0.553
G3 X505.618 Y1809.405 I2.438 J-3.356
X528.382 Y1835.595 I11.382 J13.095
X506.59 Y1836.38 I-11.382 J-13.095
X505.618 Y1809.405 I10.41 J-13.88
G2 X507.814 Y1802.708 I-4.507 J-5.186
G3 X511.626 Y1796.781 I4.823 J-1.088
X522.374 Y1848.219 I5.374 J25.719
X511.626 Y1796.781 I-5.374 J-25.719
G2 X516.967 Y1791.734 I-1.435 J-6.87
G3 X523.169 Y1787.794 I5.25 J1.413
X517 Y1857.75 I-6.169 J34.706
X481.75 Y1822.5 J-35.25
X523.169 Y1787.794 I35.25
X525.677 Y1791.936 I-0.564 J3.171
G1 X521.19 Y1806.135
G2 X521.041 Y1807.02 I3.071 J0.97
G1 X520.64 Y1822.294
G3 X515.826 Y1825.008 I-3.22 J-0.085
X520.293 Y1817.167 Z-14.495 I2.234 J-3.921
X521.832 Y1823.563 Z-14.752 I-2.234 J3.921
X515.352 Y1824.697 Z-15.01 I-3.773 J-2.476
X516.796 Y1816.755 Z-15.359 I2.708 J-3.61
X519.323 Y1825.419 Z-15.854 I1.263 J4.332
X515.352 Y1824.697 Z-16 I-1.263 J-4.332
X518.648 Y1820.303 I1.648 J-2.197
X515.352 Y1824.697 I-1.648 J2.197
G2 X511.604 Y1824.118 I-2.417 J3.223
G3 X508.604 Y1821.796 I-0.747 J-2.133
X525.396 Y1823.204 I8.396 J0.704
X511.945 Y1829.24 I-8.396 J-0.704
X508.604 Y1821.796 I5.055 J-6.74
G2 X505.901 Y1815.892 I-6.591 J-0.553
G3 X505.618 Y1809.405 I2.438 J-3.356
X528.382 Y1835.595 I11.382 J13.095
X506.59 Y1836.38 I-11.382 J-13.095
X505.618 Y1809.405 I10.41 J-13.88
G2 X507.814 Y1802.708 I-4.507 J-5.186
G3 X511.626 Y1796.781 I4.823 J-1.088
X522.374 Y1848.219 I5.374 J25.719
X511.626 Y1796.781 I-5.374 J-25.719
G2 X516.967 Y1791.734 I-1.435 J-6.87
G3 X523.169 Y1787.794 I5.25 J1.413
X517 Y1857.75 I-6.169 J34.706
X481.75 Y1822.5 J-35.25
X523.169 Y1787.794 I35.25
X525.677 Y1791.936 I-0.564 J3.171
G1 X521.19 Y1806.135
G2 X521.041 Y1807.02 I3.071 J0.97
G1 X520.64 Y1822.294
G3 X515.826 Y1825.008 I-3.22 J-0.085
X520.293 Y1817.167 Z-16.495 I2.234 J-3.921
X521.832 Y1823.563 Z-16.752 I-2.234 J3.921
X515.352 Y1824.697 Z-17.01 I-3.773 J-2.476
X516.796 Y1816.755 Z-17.359 I2.708 J-3.61
X519.323 Y1825.419 Z-17.854 I1.263 J4.332
X515.352 Y1824.697 Z-18 I-1.263 J-4.332
X518.648 Y1820.303 I1.648 J-2.197
X515.352 Y1824.697 I-1.648 J2.197
G2 X511.604 Y1824.118 I-2.417 J3.223
G3 X508.604 Y1821.796 I-0.747 J-2.133
X525.396 Y1823.204 I8.396 J0.704
X511.945 Y1829.24 I-8.396 J-0.704
X508.604 Y1821.796 I5.055 J-6.74
G2 X505.901 Y1815.892 I-6.591 J-0.553
G3 X505.618 Y1809.405 I2.438 J-3.356
X528.382 Y1835.595 I11.382 J13.095
X506.59 Y1836.38 I-11.382 J-13.095
X505.618 Y1809.405 I10.41 J-13.88
G2 X507.814 Y1802.708 I-4.507 J-5.186
G3 X511.626 Y1796.781 I4.823 J-1.088
X522.374 Y1848.219 I5.374 J25.719
X511.626 Y1796.781 I-5.374 J-25.719
G2 X516.967 Y1791.734 I-1.435 J-6.87
G3 X523.169 Y1787.794 I5.25 J1.413
X517 Y1857.75 I-6.169 J34.706
X481.75 Y1822.5 J-35.25
X523.169 Y1787.794 I35.25
X525.677 Y1791.936 I-0.564 J3.171
G1 X521.19 Y1806.135
G2 X521.041 Y1807.02 I3.071 J0.97
G1 X520.64 Y1822.294
G3 X515.826 Y1825.008 I-3.22 J-0.085
X520.293 Y1817.167 Z-18.495 I2.234 J-3.921
X521.832 Y1823.563 Z-18.752 I-2.234 J3.921
X515.352 Y1824.697 Z-19.01 I-3.773 J-2.476
X516.796 Y1816.755 Z-19.359 I2.708 J-3.61
X519.323 Y1825.419 Z-19.854 I1.263 J4.332
X515.352 Y1824.697 Z-20 I-1.263 J-4.332
X518.648 Y1820.303 I1.648 J-2.197
X515.352 Y1824.697 I-1.648 J2.197
G2 X511.604 Y1824.118 I-2.417 J3.223
G3 X508.604 Y1821.796 I-0.747 J-2.133
X525.396 Y1823.204 I8.396 J0.704
X511.945 Y1829.24 I-8.396 J-0.704
X508.604 Y1821.796 I5.055 J-6.74
G2 X505.901 Y1815.892 I-6.591 J-0.553
G3 X505.618 Y1809.405 I2.438 J-3.356
X528.382 Y1835.595 I11.382 J13.095
X506.59 Y1836.38 I-11.382 J-13.095
X505.618 Y1809.405 I10.41 J-13.88
G2 X507.814 Y1802.708 I-4.507 J-5.186
G3 X511.626 Y1796.781 I4.823 J-1.088
X522.374 Y1848.219 I5.374 J25.719
X511.626 Y1796.781 I-5.374 J-25.719
G2 X516.967 Y1791.734 I-1.435 J-6.87
G3 X523.169 Y1787.794 I5.25 J1.413
X517 Y1857.75 I-6.169 J34.706
X481.75 Y1822.5 J-35.25
X523.169 Y1787.794 I35.25
X525.677 Y1791.936 I-0.564 J3.171
G1 X521.19 Y1806.135
G2 X521.041 Y1807.02 I3.071 J0.97
G1 X520.64 Y1822.294
G3 X515.826 Y1825.008 I-3.22 J-0.085
X520.293 Y1817.167 Z-20.495 I2.234 J-3.921
X521.832 Y1823.563 Z-20.752 I-2.234 J3.921
X515.352 Y1824.697 Z-21.01 I-3.773 J-2.476
X516.796 Y1816.755 Z-21.359 I2.708 J-3.61
X519.323 Y1825.419 Z-21.854 I1.263 J4.332
X515.352 Y1824.697 Z-22 I-1.263 J-4.332
X518.648 Y1820.303 I1.648 J-2.197
X515.352 Y1824.697 I-1.648 J2.197
G2 X511.604 Y1824.118 I-2.417 J3.223
G3 X508.604 Y1821.796 I-0.747 J-2.133
X525.396 Y1823.204 I8.396 J0.704
X511.945 Y1829.24 I-8.396 J-0.704
X508.604 Y1821.796 I5.055 J-6.74
G2 X505.901 Y1815.892 I-6.591 J-0.553
G3 X505.618 Y1809.405 I2.438 J-3.356
X528.382 Y1835.595 I11.382 J13.095
X506.59 Y1836.38 I-11.382 J-13.095
X505.618 Y1809.405 I10.41 J-13.88
G2 X507.814 Y1802.708 I-4.507 J-5.186
G3 X511.626 Y1796.781 I4.823 J-1.088
X522.374 Y1848.219 I5.374 J25.719
X511.626 Y1796.781 I-5.374 J-25.719
G2 X516.967 Y1791.734 I-1.435 J-6.87
G3 X523.169 Y1787.794 I5.25 J1.413
X517 Y1857.75 I-6.169 J34.706
X481.75 Y1822.5 J-35.25
X523.169 Y1787.794 I35.25
X525.677 Y1791.936 I-0.564 J3.171
G1 X521.19 Y1806.135
G2 X521.041 Y1807.02 I3.071 J0.97
G1 X520.64 Y1822.294
G3 X515.826 Y1825.008 I-3.22 J-0.085
X520.293 Y1817.167 Z-22.495 I2.234 J-3.921
X521.832 Y1823.563 Z-22.752 I-2.234 J3.921
X515.352 Y1824.697 Z-23.01 I-3.773 J-2.476
X516.796 Y1816.755 Z-23.359 I2.708 J-3.61
X519.323 Y1825.419 Z-23.854 I1.263 J4.332
X515.352 Y1824.697 Z-24 I-1.263 J-4.332
X518.648 Y1820.303 I1.648 J-2.197
X515.352 Y1824.697 I-1.648 J2.197
G2 X511.604 Y1824.118 I-2.417 J3.223
G3 X508.604 Y1821.796 I-0.747 J-2.133
X525.396 Y1823.204 I8.396 J0.704
X511.945 Y1829.24 I-8.396 J-0.704
X508.604 Y1821.796 I5.055 J-6.74
G2 X505.901 Y1815.892 I-6.591 J-0.553
G3 X505.618 Y1809.405 I2.438 J-3.356
X528.382 Y1835.595 I11.382 J13.095
X506.59 Y1836.38 I-11.382 J-13.095
X505.618 Y1809.405 I10.41 J-13.88
G2 X507.814 Y1802.708 I-4.507 J-5.186
G3 X511.626 Y1796.781 I4.823 J-1.088
X522.374 Y1848.219 I5.374 J25.719
X511.626 Y1796.781 I-5.374 J-25.719
G2 X516.967 Y1791.734 I-1.435 J-6.87
G3 X523.169 Y1787.794 I5.25 J1.413
X517 Y1857.75 I-6.169 J34.706
X481.75 Y1822.5 J-35.25
X523.169 Y1787.794 I35.25
X525.677 Y1791.936 I-0.564 J3.171
G1 X521.19 Y1806.135
G2 X521.041 Y1807.02 I3.071 J0.97
G1 X520.64 Y1822.294
G3 X515.826 Y1825.008 I-3.22 J-0.085
X520.293 Y1817.167 Z-24.495 I2.234 J-3.921
X521.832 Y1823.563 Z-24.752 I-2.234 J3.921
X515.352 Y1824.697 Z-25.01 I-3.773 J-2.476
X516.796 Y1816.755 Z-25.359 I2.708 J-3.61
X519.323 Y1825.419 Z-25.854 I1.263 J4.332
X515.352 Y1824.697 Z-26 I-1.263 J-4.332
X518.648 Y1820.303 I1.648 J-2.197
X515.352 Y1824.697 I-1.648 J2.197
G2 X511.604 Y1824.118 I-2.417 J3.223
G3 X508.604 Y1821.796 I-0.747 J-2.133
X525.396 Y1823.204 I8.396 J0.704
X511.945 Y1829.24 I-8.396 J-0.704
X508.604 Y1821.796 I5.055 J-6.74
G2 X505.901 Y1815.892 I-6.591 J-0.553
G3 X505.618 Y1809.405 I2.438 J-3.356
X528.382 Y1835.595 I11.382 J13.095
X506.59 Y1836.38 I-11.382 J-13.095
X505.618 Y1809.405 I10.41 J-13.88
G2 X507.814 Y1802.708 I-4.507 J-5.186
G3 X511.626 Y1796.781 I4.823 J-1.088
X522.374 Y1848.219 I5.374 J25.719
X511.626 Y1796.781 I-5.374 J-25.719
G2 X516.967 Y1791.734 I-1.435 J-6.87
G3 X523.169 Y1787.794 I5.25 J1.413
X517 Y1857.75 I-6.169 J34.706
X481.75 Y1822.5 J-35.25
X523.169 Y1787.794 I35.25
X525.677 Y1791.936 I-0.564 J3.171
G1 X521.19 Y1806.135
G2 X521.041 Y1807.02 I3.071 J0.97
G1 X520.64 Y1822.294
G3 X515.826 Y1825.008 I-3.22 J-0.085
X520.293 Y1817.167 Z-26.495 I2.234 J-3.921
X521.832 Y1823.563 Z-26.752 I-2.234 J3.921
X515.352 Y1824.697 Z-27.01 I-3.773 J-2.476
X516.796 Y1816.755 Z-27.359 I2.708 J-3.61
X519.323 Y1825.419 Z-27.854 I1.263 J4.332
X515.352 Y1824.697 Z-28 I-1.263 J-4.332
X518.648 Y1820.303 I1.648 J-2.197
X515.352 Y1824.697 I-1.648 J2.197
G2 X511.604 Y1824.118 I-2.417 J3.223
G3 X508.604 Y1821.796 I-0.747 J-2.133
X525.396 Y1823.204 I8.396 J0.704
X511.945 Y1829.24 I-8.396 J-0.704
X508.604 Y1821.796 I5.055 J-6.74
G2 X505.901 Y1815.892 I-6.591 J-0.553
G3 X505.618 Y1809.405 I2.438 J-3.356
X528.382 Y1835.595 I11.382 J13.095
X506.59 Y1836.38 I-11.382 J-13.095
X505.618 Y1809.405 I10.41 J-13.88
G2 X507.814 Y1802.708 I-4.507 J-5.186
G3 X511.626 Y1796.781 I4.823 J-1.088
X522.374 Y1848.219 I5.374 J25.719
X511.626 Y1796.781 I-5.374 J-25.719
G2 X516.967 Y1791.734 I-1.435 J-6.87
G3 X523.169 Y1787.794 I5.25 J1.413
X517 Y1857.75 I-6.169 J34.706
X481.75 Y1822.5 J-35.25
X523.169 Y1787.794 I35.25
X525.677 Y1791.936 I-0.564 J3.171
G1 X521.19 Y1806.135
G2 X521.041 Y1807.02 I3.071 J0.97
G1 X520.64 Y1822.294
G3 X515.826 Y1825.008 I-3.22 J-0.085
X520.293 Y1817.167 Z-28.495 I2.234 J-3.921
X521.832 Y1823.563 Z-28.752 I-2.234 J3.921
X515.352 Y1824.697 Z-29.01 I-3.773 J-2.476
X516.796 Y1816.755 Z-29.359 I2.708 J-3.61
X519.323 Y1825.419 Z-29.854 I1.263 J4.332
X515.352 Y1824.697 Z-30 I-1.263 J-4.332
X518.648 Y1820.303 I1.648 J-2.197
X515.352 Y1824.697 I-1.648 J2.197
G2 X511.604 Y1824.118 I-2.417 J3.223
G3 X508.604 Y1821.796 I-0.747 J-2.133
X525.396 Y1823.204 I8.396 J0.704
X511.945 Y1829.24 I-8.396 J-0.704
X508.604 Y1821.796 I5.055 J-6.74
G2 X505.901 Y1815.892 I-6.591 J-0.553
G3 X505.618 Y1809.405 I2.438 J-3.356
X528.382 Y1835.595 I11.382 J13.095
X506.59 Y1836.38 I-11.382 J-13.095
X505.618 Y1809.405 I10.41 J-13.88
G2 X507.814 Y1802.708 I-4.507 J-5.186
G3 X511.626 Y1796.781 I4.823 J-1.088
X522.374 Y1848.219 I5.374 J25.719
X511.626 Y1796.781 I-5.374 J-25.719
G2 X516.967 Y1791.734 I-1.435 J-6.87
G3 X523.169 Y1787.794 I5.25 J1.413
X517 Y1857.75 I-6.169 J34.706
X481.75 Y1822.5 J-35.25
X523.169 Y1787.794 I35.25
X525.677 Y1791.936 I-0.564 J3.171
G1 X521.19 Y1806.135
G2 X521.041 Y1807.02 I3.071 J0.97
G1 X520.64 Y1822.294
G3 X515.826 Y1825.008 I-3.22 J-0.085
X520.293 Y1817.167 Z-30.495 I2.234 J-3.921
X521.832 Y1823.563 Z-30.752 I-2.234 J3.921
X515.352 Y1824.697 Z-31.01 I-3.773 J-2.476
X516.796 Y1816.755 Z-31.359 I2.708 J-3.61
X519.323 Y1825.419 Z-31.854 I1.263 J4.332
X515.352 Y1824.697 Z-32 I-1.263 J-4.332
X518.648 Y1820.303 I1.648 J-2.197
X515.352 Y1824.697 I-1.648 J2.197
G2 X511.604 Y1824.118 I-2.417 J3.223
G3 X508.604 Y1821.796 I-0.747 J-2.133
X525.396 Y1823.204 I8.396 J0.704
X511.945 Y1829.24 I-8.396 J-0.704
X508.604 Y1821.796 I5.055 J-6.74
G2 X505.901 Y1815.892 I-6.591 J-0.553
G3 X505.618 Y1809.405 I2.438 J-3.356
X528.382 Y1835.595 I11.382 J13.095
X506.59 Y1836.38 I-11.382 J-13.095
X505.618 Y1809.405 I10.41 J-13.88
G2 X507.814 Y1802.708 I-4.507 J-5.186
G3 X511.626 Y1796.781 I4.823 J-1.088
X522.374 Y1848.219 I5.374 J25.719
X511.626 Y1796.781 I-5.374 J-25.719
G2 X516.967 Y1791.734 I-1.435 J-6.87
G3 X523.169 Y1787.794 I5.25 J1.413
X517 Y1857.75 I-6.169 J34.706
X481.75 Y1822.5 J-35.25
X523.169 Y1787.794 I35.25
X525.677 Y1791.936 I-0.564 J3.171
G1 X521.19 Y1806.135
G2 X521.041 Y1807.02 I3.071 J0.97
G1 X520.64 Y1822.294
G3 X515.826 Y1825.008 I-3.22 J-0.085
X520.293 Y1817.167 Z-32.495 I2.234 J-3.921
X521.832 Y1823.563 Z-32.752 I-2.234 J3.921
X515.352 Y1824.697 Z-33.01 I-3.773 J-2.476
X516.796 Y1816.755 Z-33.359 I2.708 J-3.61
X519.323 Y1825.419 Z-33.854 I1.263 J4.332
X515.352 Y1824.697 Z-34 I-1.263 J-4.332
X518.648 Y1820.303 I1.648 J-2.197
X515.352 Y1824.697 I-1.648 J2.197
G2 X511.604 Y1824.118 I-2.417 J3.223
G3 X508.604 Y1821.796 I-0.747 J-2.133
X525.396 Y1823.204 I8.396 J0.704
X511.945 Y1829.24 I-8.396 J-0.704
X508.604 Y1821.796 I5.055 J-6.74
G2 X505.901 Y1815.892 I-6.591 J-0.553
G3 X505.618 Y1809.405 I2.438 J-3.356
X528.382 Y1835.595 I11.382 J13.095
X506.59 Y1836.38 I-11.382 J-13.095
X505.618 Y1809.405 I10.41 J-13.88
G2 X507.814 Y1802.708 I-4.507 J-5.186
G3 X511.626 Y1796.781 I4.823 J-1.088
X522.374 Y1848.219 I5.374 J25.719
X511.626 Y1796.781 I-5.374 J-25.719
G2 X516.967 Y1791.734 I-1.435 J-6.87
G3 X523.169 Y1787.794 I5.25 J1.413
X517 Y1857.75 I-6.169 J34.706
X481.75 Y1822.5 J-35.25
X523.169 Y1787.794 I35.25
X525.677 Y1791.936 I-0.564 J3.171
G1 X521.19 Y1806.135
G2 X521.041 Y1807.02 I3.071 J0.97
G1 X520.64 Y1822.294
G3 X515.826 Y1825.008 I-3.22 J-0.085
X520.293 Y1817.167 Z-34.495 I2.234 J-3.921
X521.832 Y1823.563 Z-34.752 I-2.234 J3.921
X515.352 Y1824.697 Z-35.01 I-3.773 J-2.476
X516.796 Y1816.755 Z-35.359 I2.708 J-3.61
X519.323 Y1825.419 Z-35.854 I1.263 J4.332
X515.352 Y1824.697 Z-36 I-1.263 J-4.332
X518.648 Y1820.303 I1.648 J-2.197
X515.352 Y1824.697 I-1.648 J2.197
G2 X511.604 Y1824.118 I-2.417 J3.223
G3 X508.604 Y1821.796 I-0.747 J-2.133
X525.396 Y1823.204 I8.396 J0.704
X511.945 Y1829.24 I-8.396 J-0.704
X508.604 Y1821.796 I5.055 J-6.74
G2 X505.901 Y1815.892 I-6.591 J-0.553
G3 X505.618 Y1809.405 I2.438 J-3.356
X528.382 Y1835.595 I11.382 J13.095
X506.59 Y1836.38 I-11.382 J-13.095
X505.618 Y1809.405 I10.41 J-13.88
G2 X507.814 Y1802.708 I-4.507 J-5.186
G3 X511.626 Y1796.781 I4.823 J-1.088
X522.374 Y1848.219 I5.374 J25.719
X511.626 Y1796.781 I-5.374 J-25.719
G2 X516.967 Y1791.734 I-1.435 J-6.87
G3 X523.169 Y1787.794 I5.25 J1.413
X517 Y1857.75 I-6.169 J34.706
X481.75 Y1822.5 J-35.25
X523.169 Y1787.794 I35.25
X525.677 Y1791.936 I-0.564 J3.171
G1 X521.19 Y1806.135
G2 X521.041 Y1807.02 I3.071 J0.97
G1 X520.64 Y1822.294
G3 X515.826 Y1825.008 I-3.22 J-0.085
X520.293 Y1817.167 Z-36.495 I2.234 J-3.921
X521.832 Y1823.563 Z-36.752 I-2.234 J3.921
X515.352 Y1824.697 Z-37.01 I-3.773 J-2.476
X516.796 Y1816.755 Z-37.359 I2.708 J-3.61
X519.323 Y1825.419 Z-37.854 I1.263 J4.332
X515.352 Y1824.697 Z-38 I-1.263 J-4.332
X518.648 Y1820.303 I1.648 J-2.197
X515.352 Y1824.697 I-1.648 J2.197
G2 X511.604 Y1824.118 I-2.417 J3.223
G3 X508.604 Y1821.796 I-0.747 J-2.133
X525.396 Y1823.204 I8.396 J0.704
X511.945 Y1829.24 I-8.396 J-0.704
X508.604 Y1821.796 I5.055 J-6.74
G2 X505.901 Y1815.892 I-6.591 J-0.553
G3 X505.618 Y1809.405 I2.438 J-3.356
X528.382 Y1835.595 I11.382 J13.095
X506.59 Y1836.38 I-11.382 J-13.095
X505.618 Y1809.405 I10.41 J-13.88
G2 X507.814 Y1802.708 I-4.507 J-5.186
G3 X511.626 Y1796.781 I4.823 J-1.088
X522.374 Y1848.219 I5.374 J25.719
X511.626 Y1796.781 I-5.374 J-25.719
G2 X516.967 Y1791.734 I-1.435 J-6.87
G3 X523.169 Y1787.794 I5.25 J1.413
X517 Y1857.75 I-6.169 J34.706
X481.75 Y1822.5 J-35.25
X523.169 Y1787.794 I35.25
X525.677 Y1791.936 I-0.564 J3.171
G1 X521.19 Y1806.135
G2 X521.041 Y1807.02 I3.071 J0.97
G1 X520.64 Y1822.294
G3 X515.826 Y1825.008 I-3.22 J-0.085
X520.293 Y1817.167 Z-38.495 I2.234 J-3.921
X521.832 Y1823.563 Z-38.752 I-2.234 J3.921
X515.352 Y1824.697 Z-39.01 I-3.773 J-2.476
X516.796 Y1816.755 Z-39.359 I2.708 J-3.61
X519.323 Y1825.419 Z-39.854 I1.263 J4.332
X515.352 Y1824.697 Z-40 I-1.263 J-4.332
X518.648 Y1820.303 I1.648 J-2.197
X515.352 Y1824.697 I-1.648 J2.197
G2 X511.604 Y1824.118 I-2.417 J3.223
G3 X508.604 Y1821.796 I-0.747 J-2.133
X525.396 Y1823.204 I8.396 J0.704
X511.945 Y1829.24 I-8.396 J-0.704
X508.604 Y1821.796 I5.055 J-6.74
G2 X505.901 Y1815.892 I-6.591 J-0.553
G3 X505.618 Y1809.405 I2.438 J-3.356
X528.382 Y1835.595 I11.382 J13.095
X506.59 Y1836.38 I-11.382 J-13.095
X505.618 Y1809.405 I10.41 J-13.88
G2 X507.814 Y1802.708 I-4.507 J-5.186
G3 X511.626 Y1796.781 I4.823 J-1.088
X522.374 Y1848.219 I5.374 J25.719
X511.626 Y1796.781 I-5.374 J-25.719
G2 X516.967 Y1791.734 I-1.435 J-6.87
G3 X523.169 Y1787.794 I5.25 J1.413
X517 Y1857.75 I-6.169 J34.706
X481.75 Y1822.5 J-35.25
X523.169 Y1787.794 I35.25
X525.677 Y1791.936 I-0.564 J3.171
G1 X521.19 Y1806.135
G2 X521.041 Y1807.02 I3.071 J0.97
G1 X520.64 Y1822.294
G3 X515.826 Y1825.008 I-3.22 J-0.085
X520.293 Y1817.167 Z-40.495 I2.234 J-3.921
X521.832 Y1823.563 Z-40.752 I-2.234 J3.921
X515.352 Y1824.697 Z-41.01 I-3.773 J-2.476
X516.796 Y1816.755 Z-41.359 I2.708 J-3.61
X519.323 Y1825.419 Z-41.854 I1.263 J4.332
X515.352 Y1824.697 Z-42 I-1.263 J-4.332
X518.648 Y1820.303 I1.648 J-2.197
X515.352 Y1824.697 I-1.648 J2.197
G2 X511.604 Y1824.118 I-2.417 J3.223
G3 X508.604 Y1821.796 I-0.747 J-2.133
X525.396 Y1823.204 I8.396 J0.704
X511.945 Y1829.24 I-8.396 J-0.704
X508.604 Y1821.796 I5.055 J-6.74
G2 X505.901 Y1815.892 I-6.591 J-0.553
G3 X505.618 Y1809.405 I2.438 J-3.356
X528.382 Y1835.595 I11.382 J13.095
X506.59 Y1836.38 I-11.382 J-13.095
X505.618 Y1809.405 I10.41 J-13.88
G2 X507.814 Y1802.708 I-4.507 J-5.186
G3 X511.626 Y1796.781 I4.823 J-1.088
X522.374 Y1848.219 I5.374 J25.719
X511.626 Y1796.781 I-5.374 J-25.719
G2 X516.967 Y1791.734 I-1.435 J-6.87
G3 X523.169 Y1787.794 I5.25 J1.413
X517 Y1857.75 I-6.169 J34.706
X481.75 Y1822.5 J-35.25
X523.169 Y1787.794 I35.25
G0 Z5
X545.215 Y1538.981
G1 Z2.5 F2000
G3 X545 Y1539 Z2.492 I-0.215 J-1.231
X543.75 Y1537.75 Z2.424 J-1.25
G1 Y1499.75 Z1.097
G3 X546.25 Z0.96 I1.25
G1 Y1537.75 Z-0.367
G3 X543.75 Z-0.504 I-1.25
G1 Y1499.75 Z-1.831
G3 X546.25 Z-1.968 I1.25
G1 Y1500.652 Z-2
Y1537.75
G3 X543.75 I-1.25
G1 Y1499.75
G3 X546.25 I1.25
G1 Y1500.652
Y1537.75 Z-3.295
G3 X543.75 Z-3.433 I-1.25
G1 Y1521.502 Z-4
Y1499.75
G3 X546.25 I1.25
G1 Y1537.75
G3 X543.75 I-1.25
G1 Y1521.502
Y1499.75 Z-4.76
G3 X546.25 Z-4.897 I1.25
G1 Y1531.344 Z-6
Y1537.75
G3 X543.75 I-1.25
G1 Y1499.75
G3 X546.25 I1.25
G1 Y1531.344
Y1537.75 Z-6.224
G3 X543.75 Z-6.361 I-1.25
G1 Y1499.75 Z-7.688
G3 X546.25 Z-7.825 I1.25
G1 Y1504.762 Z-8
Y1531.344
Y1537.75
G3 X543.75 I-1.25
G1 Y1499.75
G3 X546.25 I1.25
G1 Y1504.762
Y1537.75 Z-9.152
G3 X543.75 Z-9.289 I-1.25
G1 Y1517.392 Z-10
Y1499.75
G3 X546.25 I1.25
G1 Y1537.75
G3 X543.75 I-1.25
G1 Y1517.392
Y1499.75 Z-10.616
G3 X546.25 Z-10.753 I1.25
G1 Y1535.453 Z-12
Y1537.75
G3 X543.75 I-1.25
G1 Y1517.392
Y1499.75
G3 X546.25 I1.25
G1 Y1535.453
Y1537.75 Z-12.08
G3 X543.75 Z-12.217 I-1.25
G1 Y1499.75 Z-13.544
G3 X546.25 Z-13.681 I1.25
G1 Y1508.872 Z-14
Y1535.453
Y1537.75
G3 X543.75 I-1.25
G1 Y1499.75
G3 X546.25 I1.25
G1 Y1508.872
Y1537.75 Z-15.008
G3 X543.75 Z-15.146 I-1.25
G1 Y1513.283 Z-16
Y1499.75
G3 X546.25 I1.25
G1 Y1537.75
G3 X543.75 I-1.25
G1 Y1513.283
Y1499.75 Z-16.473
G3 X546.25 Z-16.61 I1.25
G1 Y1537.75 Z-17.937
G3 X545.151 Y1538.991 Z-18 I-1.25
X543.75 Y1537.75 I-0.151 J-1.241
G1 Y1513.283
Y1499.75
G3 X546.25 I1.25
G1 Y1537.75
G3 X545.151 Y1538.991 I-1.25
X545 Y1539 Z-18.005 I-0.151 J-1.241
X543.75 Y1537.75 Z-18.074 J-1.25
G1 Y1499.75 Z-19.401
G3 X546.25 Z-19.538 I1.25
G1 Y1512.981 Z-20
Y1537.75
G3 X543.75 I-1.25
G1 Y1499.75
G3 X546.25 I1.25
G1 Y1512.981
Y1537.75 Z-20.865
G3 X543.75 Z-21.002 I-1.25
G1 Y1509.173 Z-22
Y1499.75
G3 X546.25 I1.25
G1 Y1537.75
G3 X543.75 I-1.25
G1 Y1509.173
Y1499.75 Z-22.329
G3 X546.25 Z-22.466 I1.25
G1 Y1537.75 Z-23.793
G3 X543.75 Z-23.93 I-1.25
G1 Y1535.755 Z-24
Y1509.173
Y1499.75
G3 X546.25 I1.25
G1 Y1537.75
G3 X543.75 I-1.25
G1 Y1535.755
Y1499.75 Z-25.257
G3 X546.25 Z-25.394 I1.25
G1 Y1517.091 Z-26
Y1537.75
G3 X543.75 I-1.25
G1 Y1499.75
G3 X546.25 I1.25
G1 Y1517.091
Y1537.75 Z-26.721
G3 X543.75 Z-26.859 I-1.25
G1 Y1505.064 Z-28
Y1499.75
G3 X546.25 I1.25
G1 Y1537.75
G3 X543.75 I-1.25
G1 Y1505.064
Y1499.75 Z-28.186
G3 X546.25 Z-28.323 I1.25
G1 Y1537.75 Z-29.65
G3 X543.75 Z-29.787 I-1.25
G1 Y1531.645 Z-30
Y1505.064
Y1499.75
G3 X546.25 I1.25
G1 Y1537.75
G3 X543.75 I-1.25
G1 Y1531.645
Y1499.75 Z-31.114
G3 X546.25 Z-31.251 I1.25
G1 Y1521.2 Z-32
Y1537.75
G3 X543.75 I-1.25
G1 Y1499.75
G3 X546.25 I1.25
G1 Y1521.2
Y1537.75 Z-32.578
G3 X543.75 Z-32.715 I-1.25
G1 Y1500.954 Z-34
Y1499.75
G3 X546.25 I1.25
G1 Y1521.2
Y1537.75
G3 X543.75 I-1.25
G1 Y1500.954
Y1499.75 Z-34.042
G3 X546.25 Z-34.179 I1.25
G1 Y1537.75 Z-35.506
G3 X543.75 Z-35.643 I-1.25
G1 Y1527.536 Z-36
Y1500.954
Y1499.75
G3 X546.25 I1.25
G1 Y1537.75
G3 X543.75 I-1.25
G1 Y1527.536
Y1499.75 Z-36.97
G3 X546.25 Z-37.107 I1.25
G1 Y1525.31 Z-38
Y1537.75
G3 X543.75 I-1.25
G1 Y1499.75
G3 X546.25 I1.25
G1 Y1525.31
Y1537.75 Z-38.434
G3 X543.75 Z-38.572 I-1.25
G1 Y1499.75 Z-39.899
G3 X545 Y1498.5 Z-39.967 I1.25
X545.855 Y1498.838 Z-40 J1.25
X546.25 Y1499.75 I-0.855 J0.912
G1 Y1525.31
Y1537.75
G3 X543.75 I-1.25
G1 Y1499.75
G3 X545.855 Y1498.838 I1.25
X546.25 Y1499.75 Z-40.036 I-0.855 J0.912
G1 Y1537.75 Z-41.363
G3 X543.75 Z-41.5 I-1.25
G1 Y1523.426 Z-42
Y1499.75
G3 X546.25 I1.25
G1 Y1537.75
G3 X543.75 I-1.25
G1 Y1523.426
G0 Z5
X510.901 Y1216.258
G1 Z2.5 F2000
G3 X512.527 Y1211.39 Z2.309 I4.334 J-1.258
X519.747 Y1215 Z1.96 I2.708 J3.61
X510.722 Z1.465 I-4.513
X519.747 Z0.97 I4.513
X510.722 Z0.475 I-4.513
X519.747 Z-0.02 I4.513
X510.722 Z-0.515 I-4.513
X519.747 Z-1.01 I4.513
X510.722 Z-1.505 I-4.513
X519.747 Z-2 I4.513
X514.253 I-2.747
X519.747 I2.747
G2 X521.532 Y1218.346 I4.029
G3 X521.474 Y1222.139 I-1.258 J1.877
X508.575 Y1215 I-4.474 J-7.139
X525.425 I8.425
X521.474 Y1222.139 I-8.425
G2 X518.373 Y1227.844 I3.513 J5.605
G3 X513.353 Y1231.962 I-4.148 J0.063
X517 Y1197.65 I3.647 J-16.962
Y1232.35 J17.35
X513.353 Y1231.962 J-17.35
G2 X506.678 Y1234.224 I-1.444 J6.717
G3 X499.649 Y1234.731 I-3.764 J-3.206
X517 Y1188.725 I17.351 J-19.731
Y1241.275 J26.275
X499.649 Y1234.731 J-26.275
G2 X492.407 Y1233.486 I-4.634 J5.27
G3 X485.534 Y1230.888 I-2.02 J-5.048
X548.466 Y1199.112 I31.466 J-15.888
X485.534 Y1230.888 I-31.466 J15.888
X487.342 Y1226.397 I2.875 J-1.452
G1 X501.394 Y1221.467
G2 X502.191 Y1221.055 I-1.066 J-3.039
G1 X514.652 Y1212.212
G3 X519.711 Y1214.435 I1.864 J2.626
X510.757 Y1215.565 Z-2.495 I-4.477 J0.565
X514.951 Y1210.496 Z-2.752 I4.477 J-0.565
X519.747 Y1215 Z-3.01 I0.283 J4.504
X510.722 Z-3.505 I-4.513
X519.747 Z-4 I4.513
X514.253 I-2.747
X519.747 I2.747
G2 X521.532 Y1218.346 I4.029
G3 X521.474 Y1222.139 I-1.258 J1.877
X508.575 Y1215 I-4.474 J-7.139
X525.425 I8.425
X521.474 Y1222.139 I-8.425
G2 X518.373 Y1227.844 I3.513 J5.605
G3 X513.353 Y1231.962 I-4.148 J0.063
X517 Y1197.65 I3.647 J-16.962
Y1232.35 J17.35
X513.353 Y1231.962 J-17.35
G2 X506.678 Y1234.224 I-1.444 J6.717
G3 X499.649 Y1234.731 I-3.764 J-3.206
X517 Y1188.725 I17.351 J-19.731
Y1241.275 J26.275
X499.649 Y1234.731 J-26.275
G2 X492.407 Y1233.486 I-4.634 J5.27
G3 X485.534 Y1230.888 I-2.02 J-5.048
X548.466 Y1199.112 I31.466 J-15.888
X485.534 Y1230.888 I-31.466 J15.888
X487.342 Y1226.397 I2.875 J-1.452
G1 X501.394 Y1221.467
G2 X502.191 Y1221.055 I-1.066 J-3.039
G1 X514.652 Y1212.212
G3 X519.711 Y1214.435 I1.864 J2.626
X510.757 Y1215.565 Z-4.495 I-4.477 J0.565
X514.951 Y1210.496 Z-4.752 I4.477 J-0.565
X519.747 Y1215 Z-5.01 I0.283 J4.504
X510.722 Z-5.505 I-4.513
X519.747 Z-6 I4.513
X514.253 I-2.747
X519.747 I2.747
G2 X521.532 Y1218.346 I4.029
G3 X521.474 Y1222.139 I-1.258 J1.877
X508.575 Y1215 I-4.474 J-7.139
X525.425 I8.425
X521.474 Y1222.139 I-8.425
G2 X518.373 Y1227.844 I3.513 J5.605
G3 X513.353 Y1231.962 I-4.148 J0.063
X517 Y1197.65 I3.647 J-16.962
Y1232.35 J17.35
X513.353 Y1231.962 J-17.35
G2 X506.678 Y1234.224 I-1.444 J6.717
G3 X499.649 Y1234.731 I-3.764 J-3.206
X517 Y1188.725 I17.351 J-19.731
Y1241.275 J26.275
X499.649 Y1234.731 J-26.275
G2 X492.407 Y1233.486 I-4.634 J5.27
G3 X485.534 Y1230.888 I-2.02 J-5.048
X548.466 Y1199.112 I31.466 J-15.888
X485.534 Y1230.888 I-31.466 J15.888
X487.342 Y1226.397 I2.875 J-1.452
G1 X501.394 Y1221.467
G2 X502.191 Y1221.055 I-1.066 J-3.039
G1 X514.652 Y1212.212
G3 X519.711 Y1214.435 I1.864 J2.626
X510.757 Y1215.565 Z-6.495 I-4.477 J0.565
X514.951 Y1210.496 Z-6.752 I4.477 J-0.565
X519.747 Y1215 Z-7.01 I0.283 J4.504
X510.722 Z-7.505 I-4.513
X519.747 Z-8 I4.513
X514.253 I-2.747
X519.747 I2.747
G2 X521.532 Y1218.346 I4.029
G3 X521.474 Y1222.139 I-1.258 J1.877
X508.575 Y1215 I-4.474 J-7.139
X525.425 I8.425
X521.474 Y1222.139 I-8.425
G2 X518.373 Y1227.844 I3.513 J5.605
G3 X513.353 Y1231.962 I-4.148 J0.063
X517 Y1197.65 I3.647 J-16.962
Y1232.35 J17.35
X513.353 Y1231.962 J-17.35
G2 X506.678 Y1234.224 I-1.444 J6.717
G3 X499.649 Y1234.731 I-3.764 J-3.206
X517 Y1188.725 I17.351 J-19.731
Y1241.275 J26.275
X499.649 Y1234.731 J-26.275
G2 X492.407 Y1233.486 I-4.634 J5.27
G3 X485.534 Y1230.888 I-2.02 J-5.048
X548.466 Y1199.112 I31.466 J-15.888
X485.534 Y1230.888 I-31.466 J15.888
X487.342 Y1226.397 I2.875 J-1.452
G1 X501.394 Y1221.467
G2 X502.191 Y1221.055 I-1.066 J-3.039
G1 X514.652 Y1212.212
G3 X519.711 Y1214.435 I1.864 J2.626
X510.757 Y1215.565 Z-8.495 I-4.477 J0.565
X514.951 Y1210.496 Z-8.752 I4.477 J-0.565
X519.747 Y1215 Z-9.01 I0.283 J4.504
X510.722 Z-9.505 I-4.513
X519.747 Z-10 I4.513
X514.253 I-2.747
X519.747 I2.747
G2 X521.532 Y1218.346 I4.029
G3 X521.474 Y1222.139 I-1.258 J1.877
X508.575 Y1215 I-4.474 J-7.139
X525.425 I8.425
X521.474 Y1222.139 I-8.425
G2 X518.373 Y1227.844 I3.513 J5.605
G3 X513.353 Y1231.962 I-4.148 J0.063
X517 Y1197.65 I3.647 J-16.962
Y1232.35 J17.35
X513.353 Y1231.962 J-17.35
G2 X506.678 Y1234.224 I-1.444 J6.717
G3 X499.649 Y1234.731 I-3.764 J-3.206
X517 Y1188.725 I17.351 J-19.731
Y1241.275 J26.275
X499.649 Y1234.731 J-26.275
G2 X492.407 Y1233.486 I-4.634 J5.27
G3 X485.534 Y1230.888 I-2.02 J-5.048
X548.466 Y1199.112 I31.466 J-15.888
X485.534 Y1230.888 I-31.466 J15.888
X487.342 Y1226.397 I2.875 J-1.452
G1 X501.394 Y1221.467
G2 X502.191 Y1221.055 I-1.066 J-3.039
G1 X514.652 Y1212.212
G3 X519.711 Y1214.435 I1.864 J2.626
X510.757 Y1215.565 Z-10.495 I-4.477 J0.565
X514.951 Y1210.496 Z-10.752 I4.477 J-0.565
X519.747 Y1215 Z-11.01 I0.283 J4.504
X510.722 Z-11.505 I-4.513
X519.747 Z-12 I4.513
X514.253 I-2.747
X519.747 I2.747
G2 X521.532 Y1218.346 I4.029
G3 X521.474 Y1222.139 I-1.258 J1.877
X508.575 Y1215 I-4.474 J-7.139
X525.425 I8.425
X521.474 Y1222.139 I-8.425
G2 X518.373 Y1227.844 I3.513 J5.605
G3 X513.353 Y1231.962 I-4.148 J0.063
X517 Y1197.65 I3.647 J-16.962
Y1232.35 J17.35
X513.353 Y1231.962 J-17.35
G2 X506.678 Y1234.224 I-1.444 J6.717
G3 X499.649 Y1234.731 I-3.764 J-3.206
X517 Y1188.725 I17.351 J-19.731
Y1241.275 J26.275
X499.649 Y1234.731 J-26.275
G2 X492.407 Y1233.486 I-4.634 J5.27
G3 X485.534 Y1230.888 I-2.02 J-5.048
X548.466 Y1199.112 I31.466 J-15.888
X485.534 Y1230.888 I-31.466 J15.888
X487.342 Y1226.397 I2.875 J-1.452
G1 X501.394 Y1221.467
G2 X502.191 Y1221.055 I-1.066 J-3.039
G1 X514.652 Y1212.212
G3 X519.711 Y1214.435 I1.864 J2.626
X510.757 Y1215.565 Z-12.495 I-4.477 J0.565
X514.951 Y1210.496 Z-12.752 I4.477 J-0.565
X519.747 Y1215 Z-13.01 I0.283 J4.504
X510.722 Z-13.505 I-4.513
X519.747 Z-14 I4.513
X514.253 I-2.747
X519.747 I2.747
G2 X521.532 Y1218.346 I4.029
G3 X521.474 Y1222.139 I-1.258 J1.877
X508.575 Y1215 I-4.474 J-7.139
X525.425 I8.425
X521.474 Y1222.139 I-8.425
G2 X518.373 Y1227.844 I3.513 J5.605
G3 X513.353 Y1231.962 I-4.148 J0.063
X517 Y1197.65 I3.647 J-16.962
Y1232.35 J17.35
X513.353 Y1231.962 J-17.35
G2 X506.678 Y1234.224 I-1.444 J6.717
G3 X499.649 Y1234.731 I-3.764 J-3.206
X517 Y1188.725 I17.351 J-19.731
Y1241.275 J26.275
X499.649 Y1234.731 J-26.275
G2 X492.407 Y1233.486 I-4.634 J5.27
G3 X485.534 Y1230.888 I-2.02 J-5.048
X548.466 Y1199.112 I31.466 J-15.888
X485.534 Y1230.888 I-31.466 J15.888
X487.342 Y1226.397 I2.875 J-1.452
G1 X501.394 Y1221.467
G2 X502.191 Y1221.055 I-1.066 J-3.039
G1 X514.652 Y1212.212
G3 X519.711 Y1214.435 I1.864 J2.626
X510.757 Y1215.565 Z-14.495 I-4.477 J0.565
X514.951 Y1210.496 Z-14.752 I4.477 J-0.565
X519.747 Y1215 Z-15.01 I0.283 J4.504
X510.722 Z-15.505 I-4.513
X519.747 Z-16 I4.513
X514.253 I-2.747
X519.747 I2.747
G2 X521.532 Y1218.346 I4.029
G3 X521.474 Y1222.139 I-1.258 J1.877
X508.575 Y1215 I-4.474 J-7.139
X525.425 I8.425
X521.474 Y1222.139 I-8.425
G2 X518.373 Y1227.844 I3.513 J5.605
G3 X513.353 Y1231.962 I-4.148 J0.063
X517 Y1197.65 I3.647 J-16.962
Y1232.35 J17.35
X513.353 Y1231.962 J-17.35
G2 X506.678 Y1234.224 I-1.444 J6.717
G3 X499.649 Y1234.731 I-3.764 J-3.206
X517 Y1188.725 I17.351 J-19.731
Y1241.275 J26.275
X499.649 Y1234.731 J-26.275
G2 X492.407 Y1233.486 I-4.634 J5.27
G3 X485.534 Y1230.888 I-2.02 J-5.048
X548.466 Y1199.112 I31.466 J-15.888
X485.534 Y1230.888 I-31.466 J15.888
X487.342 Y1226.397 I2.875 J-1.452
G1 X501.394 Y1221.467
G2 X502.191 Y1221.055 I-1.066 J-3.039
G1 X514.652 Y1212.212
G3 X519.711 Y1214.435 I1.864 J2.626
X510.757 Y1215.565 Z-16.495 I-4.477 J0.565
X514.951 Y1210.496 Z-16.752 I4.477 J-0.565
X519.747 Y1215 Z-17.01 I0.283 J4.504
X510.722 Z-17.505 I-4.513
X519.747 Z-18 I4.513
X514.253 I-2.747
X519.747 I2.747
G2 X521.532 Y1218.346 I4.029
G3 X521.474 Y1222.139 I-1.258 J1.877
X508.575 Y1215 I-4.474 J-7.139
X525.425 I8.425
X521.474 Y1222.139 I-8.425
G2 X518.373 Y1227.844 I3.513 J5.605
G3 X513.353 Y1231.962 I-4.148 J0.063
X517 Y1197.65 I3.647 J-16.962
Y1232.35 J17.35
X513.353 Y1231.962 J-17.35
G2 X506.678 Y1234.224 I-1.444 J6.717
G3 X499.649 Y1234.731 I-3.764 J-3.206
X517 Y1188.725 I17.351 J-19.731
Y1241.275 J26.275
X499.649 Y1234.731 J-26.275
G2 X492.407 Y1233.486 I-4.634 J5.27
G3 X485.534 Y1230.888 I-2.02 J-5.048
X548.466 Y1199.112 I31.466 J-15.888
X485.534 Y1230.888 I-31.466 J15.888
X487.342 Y1226.397 I2.875 J-1.452
G1 X501.394 Y1221.467
G2 X502.191 Y1221.055 I-1.066 J-3.039
G1 X514.652 Y1212.212
G3 X519.711 Y1214.435 I1.864 J2.626
X510.757 Y1215.565 Z-18.495 I-4.477 J0.565
X514.951 Y1210.496 Z-18.752 I4.477 J-0.565
X519.747 Y1215 Z-19.01 I0.283 J4.504
X510.722 Z-19.505 I-4.513
X519.747 Z-20 I4.513
X514.253 I-2.747
X519.747 I2.747
G2 X521.532 Y1218.346 I4.029
G3 X521.474 Y1222.139 I-1.258 J1.877
X508.575 Y1215 I-4.474 J-7.139
X525.425 I8.425
X521.474 Y1222.139 I-8.425
G2 X518.373 Y1227.844 I3.513 J5.605
G3 X513.353 Y1231.962 I-4.148 J0.063
X517 Y1197.65 I3.647 J-16.962
Y1232.35 J17.35
X513.353 Y1231.962 J-17.35
G2 X506.678 Y1234.224 I-1.444 J6.717
G3 X499.649 Y1234.731 I-3.764 J-3.206
X517 Y1188.725 I17.351 J-19.731
Y1241.275 J26.275
X499.649 Y1234.731 J-26.275
G2 X492.407 Y1233.486 I-4.634 J5.27
G3 X485.534 Y1230.888 I-2.02 J-5.048
X548.466 Y1199.112 I31.466 J-15.888
X485.534 Y1230.888 I-31.466 J15.888
X487.342 Y1226.397 I2.875 J-1.452
G1 X501.394 Y1221.467
G2 X502.191 Y1221.055 I-1.066 J-3.039
G1 X514.652 Y1212.212
G3 X519.711 Y1214.435 I1.864 J2.626
X510.757 Y1215.565 Z-20.495 I-4.477 J0.565
X514.951 Y1210.496 Z-20.752 I4.477 J-0.565
X519.747 Y1215 Z-21.01 I0.283 J4.504
X510.722 Z-21.505 I-4.513
X519.747 Z-22 I4.513
X514.253 I-2.747
X519.747 I2.747
G2 X521.532 Y1218.346 I4.029
G3 X521.474 Y1222.139 I-1.258 J1.877
X508.575 Y1215 I-4.474 J-7.139
X525.425 I8.425
X521.474 Y1222.139 I-8.425
G2 X518.373 Y1227.844 I3.513 J5.605
G3 X513.353 Y1231.962 I-4.148 J0.063
X517 Y1197.65 I3.647 J-16.962
Y1232.35 J17.35
X513.353 Y1231.962 J-17.35
G2 X506.678 Y1234.224 I-1.444 J6.717
G3 X499.649 Y1234.731 I-3.764 J-3.206
X517 Y1188.725 I17.351 J-19.731
Y1241.275 J26.275
X499.649 Y1234.731 J-26.275
G2 X492.407 Y1233.486 I-4.634 J5.27
G3 X485.534 Y1230.888 I-2.02 J-5.048
X548.466 Y1199.112 I31.466 J-15.888
X485.534 Y1230.888 I-31.466 J15.888
X487.342 Y1226.397 I2.875 J-1.452
G1 X501.394 Y1221.467
G2 X502.191 Y1221.055 I-1.066 J-3.039
G1 X514.652 Y1212.212
G3 X519.711 Y1214.435 I1.864 J2.626
X510.757 Y1215.565 Z-22.495 I-4.477 J0.565
X514.951 Y1210.496 Z-22.752 I4.477 J-0.565
X519.747 Y1215 Z-23.01 I0.283 J4.504
X510.722 Z-23.505 I-4.513
X519.747 Z-24 I4.513
X514.253 I-2.747
X519.747 I2.747
G2 X521.532 Y1218.346 I4.029
G3 X521.474 Y1222.139 I-1.258 J1.877
X508.575 Y1215 I-4.474 J-7.139
X525.425 I8.425
X521.474 Y1222.139 I-8.425
G2 X518.373 Y1227.844 I3.513 J5.605
G3 X513.353 Y1231.962 I-4.148 J0.063
X517 Y1197.65 I3.647 J-16.962
Y1232.35 J17.35
X513.353 Y1231.962 J-17.35
G2 X506.678 Y1234.224 I-1.444 J6.717
G3 X499.649 Y1234.731 I-3.764 J-3.206
X517 Y1188.725 I17.351 J-19.731
Y1241.275 J26.275
X499.649 Y1234.731 J-26.275
G2 X492.407 Y1233.486 I-4.634 J5.27
G3 X485.534 Y1230.888 I-2.02 J-5.048
X548.466 Y1199.112 I31.466 J-15.888
X485.534 Y1230.888 I-31.466 J15.888
X487.342 Y1226.397 I2.875 J-1.452
G1 X501.394 Y1221.467
G2 X502.191 Y1221.055 I-1.066 J-3.039
G1 X514.652 Y1212.212
G3 X519.711 Y1214.435 I1.864 J2.626
X510.757 Y1215.565 Z-24.495 I-4.477 J0.565
X514.951 Y1210.496 Z-24.752 I4.477 J-0.565
X519.747 Y1215 Z-25.01 I0.283 J4.504
X510.722 Z-25.505 I-4.513
X519.747 Z-26 I4.513
X514.253 I-2.747
X519.747 I2.747
G2 X521.532 Y1218.346 I4.029
G3 X521.474 Y1222.139 I-1.258 J1.877
X508.575 Y1215 I-4.474 J-7.139
X525.425 I8.425
X521.474 Y1222.139 I-8.425
G2 X518.373 Y1227.844 I3.513 J5.605
G3 X513.353 Y1231.962 I-4.148 J0.063
X517 Y1197.65 I3.647 J-16.962
Y1232.35 J17.35
X513.353 Y1231.962 J-17.35
G2 X506.678 Y1234.224 I-1.444 J6.717
G3 X499.649 Y1234.731 I-3.764 J-3.206
X517 Y1188.725 I17.351 J-19.731
Y1241.275 J26.275
X499.649 Y1234.731 J-26.275
G2 X492.407 Y1233.486 I-4.634 J5.27
G3 X485.534 Y1230.888 I-2.02 J-5.048
X548.466 Y1199.112 I31.466 J-15.888
X485.534 Y1230.888 I-31.466 J15.888
X487.342 Y1226.397 I2.875 J-1.452
G1 X501.394 Y1221.467
G2 X502.191 Y1221.055 I-1.066 J-3.039
G1 X514.652 Y1212.212
G3 X519.711 Y1214.435 I1.864 J2.626
X510.757 Y1215.565 Z-26.495 I-4.477 J0.565
X514.951 Y1210.496 Z-26.752 I4.477 J-0.565
X519.747 Y1215 Z-27.01 I0.283 J4.504
X510.722 Z-27.505 I-4.513
X519.747 Z-28 I4.513
X514.253 I-2.747
X519.747 I2.747
G2 X521.532 Y1218.346 I4.029
G3 X521.474 Y1222.139 I-1.258 J1.877
X508.575 Y1215 I-4.474 J-7.139
X525.425 I8.425
X521.474 Y1222.139 I-8.425
G2 X518.373 Y1227.844 I3.513 J5.605
G3 X513.353 Y1231.962 I-4.148 J0.063
X517 Y1197.65 I3.647 J-16.962
Y1232.35 J17.35
X513.353 Y1231.962 J-17.35
G2 X506.678 Y1234.224 I-1.444 J6.717
G3 X499.649 Y1234.731 I-3.764 J-3.206
X517 Y1188.725 I17.351 J-19.731
Y1241.275 J26.275
X499.649 Y1234.731 J-26.275
G2 X492.407 Y1233.486 I-4.634 J5.27
G3 X485.534 Y1230.888 I-2.02 J-5.048
X548.466 Y1199.112 I31.466 J-15.888
X485.534 Y1230.888 I-31.466 J15.888
X487.342 Y1226.397 I2.875 J-1.452
G1 X501.394 Y1221.467
G2 X502.191 Y1221.055 I-1.066 J-3.039
G1 X514.652 Y1212.212
G3 X519.711 Y1214.435 I1.864 J2.626
X510.757 Y1215.565 Z-28.495 I-4.477 J0.565
X514.951 Y1210.496 Z-28.752 I4.477 J-0.565
X519.747 Y1215 Z-29.01 I0.283 J4.504
X510.722 Z-29.505 I-4.513
X519.747 Z-30 I4.513
X514.253 I-2.747
X519.747 I2.747
G2 X521.532 Y1218.346 I4.029
G3 X521.474 Y1222.139 I-1.258 J1.877
X508.575 Y1215 I-4.474 J-7.139
X525.425 I8.425
X521.474 Y1222.139 I-8.425
G2 X518.373 Y1227.844 I3.513 J5.605
G3 X513.353 Y1231.962 I-4.148 J0.063
X517 Y1197.65 I3.647 J-16.962
Y1232.35 J17.35
X513.353 Y1231.962 J-17.35
G2 X506.678 Y1234.224 I-1.444 J6.717
G3 X499.649 Y1234.731 I-3.764 J-3.206
X517 Y1188.725 I17.351 J-19.731
Y1241.275 J26.275
X499.649 Y1234.731 J-26.275
G2 X492.407 Y1233.486 I-4.634 J5.27
G3 X485.534 Y1230.888 I-2.02 J-5.048
X548.466 Y1199.112 I31.466 J-15.888
X485.534 Y1230.888 I-31.466 J15.888
X487.342 Y1226.397 I2.875 J-1.452
G1 X501.394 Y1221.467
G2 X502.191 Y1221.055 I-1.066 J-3.039
G1 X514.652 Y1212.212
G3 X519.711 Y1214.435 I1.864 J2.626
X510.757 Y1215.565 Z-30.495 I-4.477 J0.565
X514.951 Y1210.496 Z-30.752 I4.477 J-0.565
X519.747 Y1215 Z-31.01 I0.283 J4.504
X510.722 Z-31.505 I-4.513
X519.747 Z-32 I4.513
X514.253 I-2.747
X519.747 I2.747
G2 X521.532 Y1218.346 I4.029
G3 X521.474 Y1222.139 I-1.258 J1.877
X508.575 Y1215 I-4.474 J-7.139
X525.425 I8.425
X521.474 Y1222.139 I-8.425
G2 X518.373 Y1227.844 I3.513 J5.605
G3 X513.353 Y1231.962 I-4.148 J0.063
X517 Y1197.65 I3.647 J-16.962
Y1232.35 J17.35
X513.353 Y1231.962 J-17.35
G2 X506.678 Y1234.224 I-1.444 J6.717
G3 X499.649 Y1234.731 I-3.764 J-3.206
X517 Y1188.725 I17.351 J-19.731
Y1241.275 J26.275
X499.649 Y1234.731 J-26.275
G2 X492.407 Y1233.486 I-4.634 J5.27
G3 X485.534 Y1230.888 I-2.02 J-5.048
X548.466 Y1199.112 I31.466 J-15.888
X485.534 Y1230.888 I-31.466 J15.888
X487.342 Y1226.397 I2.875 J-1.452
G1 X501.394 Y1221.467
G2 X502.191 Y1221.055 I-1.066 J-3.039
G1 X514.652 Y1212.212
G3 X519.711 Y1214.435 I1.864 J2.626
X510.757 Y1215.565 Z-32.495 I-4.477 J0.565
X514.951 Y1210.496 Z-32.752 I4.477 J-0.565
X519.747 Y1215 Z-33.01 I0.283 J4.504
X510.722 Z-33.505 I-4.513
X519.747 Z-34 I4.513
X514.253 I-2.747
X519.747 I2.747
G2 X521.532 Y1218.346 I4.029
G3 X521.474 Y1222.139 I-1.258 J1.877
X508.575 Y1215 I-4.474 J-7.139
X525.425 I8.425
X521.474 Y1222.139 I-8.425
G2 X518.373 Y1227.844 I3.513 J5.605
G3 X513.353 Y1231.962 I-4.148 J0.063
X517 Y1197.65 I3.647 J-16.962
Y1232.35 J17.35
X513.353 Y1231.962 J-17.35
G2 X506.678 Y1234.224 I-1.444 J6.717
G3 X499.649 Y1234.731 I-3.764 J-3.206
X517 Y1188.725 I17.351 J-19.731
Y1241.275 J26.275
X499.649 Y1234.731 J-26.275
G2 X492.407 Y1233.486 I-4.634 J5.27
G3 X485.534 Y1230.888 I-2.02 J-5.048
X548.466 Y1199.112 I31.466 J-15.888
X485.534 Y1230.888 I-31.466 J15.888
X487.342 Y1226.397 I2.875 J-1.452
G1 X501.394 Y1221.467
G2 X502.191 Y1221.055 I-1.066 J-3.039
G1 X514.652 Y1212.212
G3 X519.711 Y1214.435 I1.864 J2.626
X510.757 Y1215.565 Z-34.495 I-4.477 J0.565
X514.951 Y1210.496 Z-34.752 I4.477 J-0.565
X519.747 Y1215 Z-35.01 I0.283 J4.504
X510.722 Z-35.505 I-4.513
X519.747 Z-36 I4.513
X514.253 I-2.747
X519.747 I2.747
G2 X521.532 Y1218.346 I4.029
G3 X521.474 Y1222.139 I-1.258 J1.877
X508.575 Y1215 I-4.474 J-7.139
X525.425 I8.425
X521.474 Y1222.139 I-8.425
G2 X518.373 Y1227.844 I3.513 J5.605
G3 X513.353 Y1231.962 I-4.148 J0.063
X517 Y1197.65 I3.647 J-16.962
Y1232.35 J17.35
X513.353 Y1231.962 J-17.35
G2 X506.678 Y1234.224 I-1.444 J6.717
G3 X499.649 Y1234.731 I-3.764 J-3.206
X517 Y1188.725 I17.351 J-19.731
Y1241.275 J26.275
X499.649 Y1234.731 J-26.275
G2 X492.407 Y1233.486 I-4.634 J5.27
G3 X485.534 Y1230.888 I-2.02 J-5.048
X548.466 Y1199.112 I31.466 J-15.888
X485.534 Y1230.888 I-31.466 J15.888
X487.342 Y1226.397 I2.875 J-1.452
G1 X501.394 Y1221.467
G2 X502.191 Y1221.055 I-1.066 J-3.039
G1 X514.652 Y1212.212
G3 X519.711 Y1214.435 I1.864 J2.626
X510.757 Y1215.565 Z-36.495 I-4.477 J0.565
X514.951 Y1210.496 Z-36.752 I4.477 J-0.565
X519.747 Y1215 Z-37.01 I0.283 J4.504
X510.722 Z-37.505 I-4.513
X519.747 Z-38 I4.513
X514.253 I-2.747
X519.747 I2.747
G2 X521.532 Y1218.346 I4.029
G3 X521.474 Y1222.139 I-1.258 J1.877
X508.575 Y1215 I-4.474 J-7.139
X525.425 I8.425
X521.474 Y1222.139 I-8.425
G2 X518.373 Y1227.844 I3.513 J5.605
G3 X513.353 Y1231.962 I-4.148 J0.063
X517 Y1197.65 I3.647 J-16.962
Y1232.35 J17.35
X513.353 Y1231.962 J-17.35
G2 X506.678 Y1234.224 I-1.444 J6.717
G3 X499.649 Y1234.731 I-3.764 J-3.206
X517 Y1188.725 I17.351 J-19.731
Y1241.275 J26.275
X499.649 Y1234.731 J-26.275
G2 X492.407 Y1233.486 I-4.634 J5.27
G3 X485.534 Y1230.888 I-2.02 J-5.048
X548.466 Y1199.112 I31.466 J-15.888
X485.534 Y1230.888 I-31.466 J15.888
X487.342 Y1226.397 I2.875 J-1.452
G1 X501.394 Y1221.467
G2 X502.191 Y1221.055 I-1.066 J-3.039
G1 X514.652 Y1212.212
G3 X519.711 Y1214.435 I1.864 J2.626
X510.757 Y1215.565 Z-38.495 I-4.477 J0.565
X514.951 Y1210.496 Z-38.752 I4.477 J-0.565
X519.747 Y1215 Z-39.01 I0.283 J4.504
X510.722 Z-39.505 I-4.513
X519.747 Z-40 I4.513
X514.253 I-2.747
X519.747 I2.747
G2 X521.532 Y1218.346 I4.029
G3 X521.474 Y1222.139 I-1.258 J1.877
X508.575 Y1215 I-4.474 J-7.139
X525.425 I8.425
X521.474 Y1222.139 I-8.425
G2 X518.373 Y1227.844 I3.513 J5.605
G3 X513.353 Y1231.962 I-4.148 J0.063
X517 Y1197.65 I3.647 J-16.962
Y1232.35 J17.35
X513.353 Y1231.962 J-17.35
G2 X506.678 Y1234.224 I-1.444 J6.717
G3 X499.649 Y1234.731 I-3.764 J-3.206
X517 Y1188.725 I17.351 J-19.731
Y1241.275 J26.275
X499.649 Y1234.731 J-26.275
G2 X492.407 Y1233.486 I-4.634 J5.27
G3 X485.534 Y1230.888 I-2.02 J-5.048
X548.466 Y1199.112 I31.466 J-15.888
X485.534 Y1230.888 I-31.466 J15.888
X487.342 Y1226.397 I2.875 J-1.452
G1 X501.394 Y1221.467
G2 X502.191 Y1221.055 I-1.066 J-3.039
G1 X514.652 Y1212.212
G3 X519.711 Y1214.435 I1.864 J2.626
X510.757 Y1215.565 Z-40.495 I-4.477 J0.565
X514.951 Y1210.496 Z-40.752 I4.477 J-0.565
X519.747 Y1215 Z-41.01 I0.283 J4.504
X510.722 Z-41.505 I-4.513
X519.747 Z-42 I4.513
X514.253 I-2.747
X519.747 I2.747
G2 X521.532 Y1218.346 I4.029
G3 X521.474 Y1222.139 I-1.258 J1.877
X508.575 Y1215 I-4.474 J-7.139
X525.425 I8.425
X521.474 Y1222.139 I-8.425
G2 X518.373 Y1227.844 I3.513 J5.605
G3 X513.353 Y1231.962 I-4.148 J0.063
X517 Y1197.65 I3.647 J-16.962
Y1232.35 J17.35
X513.353 Y1231.962 J-17.35
G2 X506.678 Y1234.224 I-1.444 J6.717
G3 X499.649 Y1234.731 I-3.764 J-3.206
X517 Y1188.725 I17.351 J-19.731
Y1241.275 J26.275
X499.649 Y1234.731 J-26.275
G2 X492.407 Y1233.486 I-4.634 J5.27
G3 X485.534 Y1230.888 I-2.02 J-5.048
X548.466 Y1199.112 I31.466 J-15.888
X485.534 Y1230.888 I-31.466 J15.888
G0 Z5
X519.653 Y601.866
G1 Z2.5 F2000
G3 X522.572 Y606.087 Z2.309 I-1.593 J4.222
X515.352 Y609.697 Z1.96 I-4.513
X516.796 Y601.755 Z1.611 I2.708 J-3.61
X519.323 Y610.419 Z1.116 I1.263 J4.332
X515.352 Y609.697 Z0.97 I-1.263 J-4.332
X516.796 Y601.755 Z0.621 I2.708 J-3.61
X519.323 Y610.419 Z0.126 I1.263 J4.332
X515.352 Y609.697 Z-0.02 I-1.263 J-4.332
X516.796 Y601.755 Z-0.369 I2.708 J-3.61
X519.323 Y610.419 Z-0.864 I1.263 J4.332
X515.352 Y609.697 Z-1.01 I-1.263 J-4.332
X516.796 Y601.755 Z-1.359 I2.708 J-3.61
X519.323 Y610.419 Z-1.854 I1.263 J4.332
X515.352 Y609.697 Z-2 I-1.263 J-4.332
X518.648 Y605.303 I1.648 J-2.197
X515.352 Y609.697 I-1.648 J2.197
G2 X511.604 Y609.118 I-2.417 J3.223
G3 X508.604 Y606.796 I-0.747 J-2.133
X525.396 Y608.204 I8.396 J0.704
X511.945 Y614.24 I-8.396 J-0.704
X508.604 Y606.796 I5.055 J-6.74
G2 X505.901 Y600.892 I-6.591 J-0.553
G3 X505.618 Y594.405 I2.438 J-3.356
X534.35 Y607.5 I11.382 J13.095
X506.59 Y621.38 I-17.35
X505.618 Y594.405 I10.41 J-13.88
G2 X507.814 Y587.708 I-4.507 J-5.186
G3 X511.626 Y581.781 I4.823 J-1.088
X522.374 Y633.219 I5.374 J25.719
X511.626 Y581.781 I-5.374 J-25.719
G2 X516.967 Y576.734 I-1.435 J-6.87
G3 X523.169 Y572.794 I5.25 J1.413
X510.831 Y642.206 I-6.169 J34.706
X517 Y572.25 I6.169 J-34.706
X523.169 Y572.794 J35.25
X525.677 Y576.936 I-0.564 J3.171
G1 X521.19 Y591.135
G2 X521.041 Y592.02 I3.071 J0.97
G1 X520.64 Y607.294
G3 X515.826 Y610.008 I-3.22 J-0.085
X516.796 Y601.755 Z-2.369 I2.234 J-3.921
X519.323 Y610.419 Z-2.864 I1.263 J4.332
X515.352 Y609.697 Z-3.01 I-1.263 J-4.332
X516.796 Y601.755 Z-3.359 I2.708 J-3.61
X519.323 Y610.419 Z-3.854 I1.263 J4.332
X515.352 Y609.697 Z-4 I-1.263 J-4.332
X518.648 Y605.303 I1.648 J-2.197
X515.352 Y609.697 I-1.648 J2.197
G2 X511.604 Y609.118 I-2.417 J3.223
G3 X508.604 Y606.796 I-0.747 J-2.133
X525.396 Y608.204 I8.396 J0.704
X511.945 Y614.24 I-8.396 J-0.704
X508.604 Y606.796 I5.055 J-6.74
G2 X505.901 Y600.892 I-6.591 J-0.553
G3 X505.618 Y594.405 I2.438 J-3.356
X534.35 Y607.5 I11.382 J13.095
X506.59 Y621.38 I-17.35
X505.618 Y594.405 I10.41 J-13.88
G2 X507.814 Y587.708 I-4.507 J-5.186
G3 X511.626 Y581.781 I4.823 J-1.088
X522.374 Y633.219 I5.374 J25.719
X511.626 Y581.781 I-5.374 J-25.719
G2 X516.967 Y576.734 I-1.435 J-6.87
G3 X523.169 Y572.794 I5.25 J1.413
X510.831 Y642.206 I-6.169 J34.706
X517 Y572.25 I6.169 J-34.706
X523.169 Y572.794 J35.25
X525.677 Y576.936 I-0.564 J3.171
G1 X521.19 Y591.135
G2 X521.041 Y592.02 I3.071 J0.97
G1 X520.64 Y607.294
G3 X515.826 Y610.008 I-3.22 J-0.085
X516.796 Y601.755 Z-4.369 I2.234 J-3.921
X519.323 Y610.419 Z-4.864 I1.263 J4.332
X515.352 Y609.697 Z-5.01 I-1.263 J-4.332
X516.796 Y601.755 Z-5.359 I2.708 J-3.61
X519.323 Y610.419 Z-5.854 I1.263 J4.332
X515.352 Y609.697 Z-6 I-1.263 J-4.332
X518.648 Y605.303 I1.648 J-2.197
X515.352 Y609.697 I-1.648 J2.197
G2 X511.604 Y609.118 I-2.417 J3.223
G3 X508.604 Y606.796 I-0.747 J-2.133
X525.396 Y608.204 I8.396 J0.704
X511.945 Y614.24 I-8.396 J-0.704
X508.604 Y606.796 I5.055 J-6.74
G2 X505.901 Y600.892 I-6.591 J-0.553
G3 X505.618 Y594.405 I2.438 J-3.356
X534.35 Y607.5 I11.382 J13.095
X506.59 Y621.38 I-17.35
X505.618 Y594.405 I10.41 J-13.88
G2 X507.814 Y587.708 I-4.507 J-5.186
G3 X511.626 Y581.781 I4.823 J-1.088
X522.374 Y633.219 I5.374 J25.719
X511.626 Y581.781 I-5.374 J-25.719
G2 X516.967 Y576.734 I-1.435 J-6.87
G3 X523.169 Y572.794 I5.25 J1.413
X510.831 Y642.206 I-6.169 J34.706
X517 Y572.25 I6.169 J-34.706
X523.169 Y572.794 J35.25
X525.677 Y576.936 I-0.564 J3.171
G1 X521.19 Y591.135
G2 X521.041 Y592.02 I3.071 J0.97
G1 X520.64 Y607.294
G3 X515.826 Y610.008 I-3.22 J-0.085
X516.796 Y601.755 Z-6.369 I2.234 J-3.921
X519.323 Y610.419 Z-6.864 I1.263 J4.332
X515.352 Y609.697 Z-7.01 I-1.263 J-4.332
X516.796 Y601.755 Z-7.359 I2.708 J-3.61
X519.323 Y610.419 Z-7.854 I1.263 J4.332
X515.352 Y609.697 Z-8 I-1.263 J-4.332
X518.648 Y605.303 I1.648 J-2.197
X515.352 Y609.697 I-1.648 J2.197
G2 X511.604 Y609.118 I-2.417 J3.223
G3 X508.604 Y606.796 I-0.747 J-2.133
X525.396 Y608.204 I8.396 J0.704
X511.945 Y614.24 I-8.396 J-0.704
X508.604 Y606.796 I5.055 J-6.74
G2 X505.901 Y600.892 I-6.591 J-0.553
G3 X505.618 Y594.405 I2.438 J-3.356
X534.35 Y607.5 I11.382 J13.095
X506.59 Y621.38 I-17.35
X505.618 Y594.405 I10.41 J-13.88
G2 X507.814 Y587.708 I-4.507 J-5.186
G3 X511.626 Y581.781 I4.823 J-1.088
X522.374 Y633.219 I5.374 J25.719
X511.626 Y581.781 I-5.374 J-25.719
G2 X516.967 Y576.734 I-1.435 J-6.87
G3 X523.169 Y572.794 I5.25 J1.413
X510.831 Y642.206 I-6.169 J34.706
X517 Y572.25 I6.169 J-34.706
X523.169 Y572.794 J35.25
X525.677 Y576.936 I-0.564 J3.171
G1 X521.19 Y591.135
G2 X521.041 Y592.02 I3.071 J0.97
G1 X520.64 Y607.294
G3 X515.826 Y610.008 I-3.22 J-0.085
X516.796 Y601.755 Z-8.369 I2.234 J-3.921
X519.323 Y610.419 Z-8.864 I1.263 J4.332
X515.352 Y609.697 Z-9.01 I-1.263 J-4.332
X516.796 Y601.755 Z-9.359 I2.708 J-3.61
X519.323 Y610.419 Z-9.854 I1.263 J4.332
X515.352 Y609.697 Z-10 I-1.263 J-4.332
X518.648 Y605.303 I1.648 J-2.197
X515.352 Y609.697 I-1.648 J2.197
G2 X511.604 Y609.118 I-2.417 J3.223
G3 X508.604 Y606.796 I-0.747 J-2.133
X525.396 Y608.204 I8.396 J0.704
X511.945 Y614.24 I-8.396 J-0.704
X508.604 Y606.796 I5.055 J-6.74
G2 X505.901 Y600.892 I-6.591 J-0.553
G3 X505.618 Y594.405 I2.438 J-3.356
X534.35 Y607.5 I11.382 J13.095
X506.59 Y621.38 I-17.35
X505.618 Y594.405 I10.41 J-13.88
G2 X507.814 Y587.708 I-4.507 J-5.186
G3 X511.626 Y581.781 I4.823 J-1.088
X522.374 Y633.219 I5.374 J25.719
X511.626 Y581.781 I-5.374 J-25.719
G2 X516.967 Y576.734 I-1.435 J-6.87
G3 X523.169 Y572.794 I5.25 J1.413
X510.831 Y642.206 I-6.169 J34.706
X517 Y572.25 I6.169 J-34.706
X523.169 Y572.794 J35.25
X525.677 Y576.936 I-0.564 J3.171
G1 X521.19 Y591.135
G2 X521.041 Y592.02 I3.071 J0.97
G1 X520.64 Y607.294
G3 X515.826 Y610.008 I-3.22 J-0.085
X516.796 Y601.755 Z-10.369 I2.234 J-3.921
X519.323 Y610.419 Z-10.864 I1.263 J4.332
X515.352 Y609.697 Z-11.01 I-1.263 J-4.332
X516.796 Y601.755 Z-11.359 I2.708 J-3.61
X519.323 Y610.419 Z-11.854 I1.263 J4.332
X515.352 Y609.697 Z-12 I-1.263 J-4.332
X518.648 Y605.303 I1.648 J-2.197
X515.352 Y609.697 I-1.648 J2.197
G2 X511.604 Y609.118 I-2.417 J3.223
G3 X508.604 Y606.796 I-0.747 J-2.133
X525.396 Y608.204 I8.396 J0.704
X511.945 Y614.24 I-8.396 J-0.704
X508.604 Y606.796 I5.055 J-6.74
G2 X505.901 Y600.892 I-6.591 J-0.553
G3 X505.618 Y594.405 I2.438 J-3.356
X534.35 Y607.5 I11.382 J13.095
X506.59 Y621.38 I-17.35
X505.618 Y594.405 I10.41 J-13.88
G2 X507.814 Y587.708 I-4.507 J-5.186
G3 X511.626 Y581.781 I4.823 J-1.088
X522.374 Y633.219 I5.374 J25.719
X511.626 Y581.781 I-5.374 J-25.719
G2 X516.967 Y576.734 I-1.435 J-6.87
G3 X523.169 Y572.794 I5.25 J1.413
X510.831 Y642.206 I-6.169 J34.706
X517 Y572.25 I6.169 J-34.706
X523.169 Y572.794 J35.25
X525.677 Y576.936 I-0.564 J3.171
G1 X521.19 Y591.135
G2 X521.041 Y592.02 I3.071 J0.97
G1 X520.64 Y607.294
G3 X515.826 Y610.008 I-3.22 J-0.085
X516.796 Y601.755 Z-12.369 I2.234 J-3.921
X519.323 Y610.419 Z-12.864 I1.263 J4.332
X515.352 Y609.697 Z-13.01 I-1.263 J-4.332
X516.796 Y601.755 Z-13.359 I2.708 J-3.61
X519.323 Y610.419 Z-13.854 I1.263 J4.332
X515.352 Y609.697 Z-14 I-1.263 J-4.332
X518.648 Y605.303 I1.648 J-2.197
X515.352 Y609.697 I-1.648 J2.197
G2 X511.604 Y609.118 I-2.417 J3.223
G3 X508.604 Y606.796 I-0.747 J-2.133
X525.396 Y608.204 I8.396 J0.704
X511.945 Y614.24 I-8.396 J-0.704
X508.604 Y606.796 I5.055 J-6.74
G2 X505.901 Y600.892 I-6.591 J-0.553
G3 X505.618 Y594.405 I2.438 J-3.356
X534.35 Y607.5 I11.382 J13.095
X506.59 Y621.38 I-17.35
X505.618 Y594.405 I10.41 J-13.88
G2 X507.814 Y587.708 I-4.507 J-5.186
G3 X511.626 Y581.781 I4.823 J-1.088
X522.374 Y633.219 I5.374 J25.719
X511.626 Y581.781 I-5.374 J-25.719
G2 X516.967 Y576.734 I-1.435 J-6.87
G3 X523.169 Y572.794 I5.25 J1.413
X510.831 Y642.206 I-6.169 J34.706
X517 Y572.25 I6.169 J-34.706
X523.169 Y572.794 J35.25
X525.677 Y576.936 I-0.564 J3.171
G1 X521.19 Y591.135
G2 X521.041 Y592.02 I3.071 J0.97
G1 X520.64 Y607.294
G3 X515.826 Y610.008 I-3.22 J-0.085
X516.796 Y601.755 Z-14.369 I2.234 J-3.921
X519.323 Y610.419 Z-14.864 I1.263 J4.332
X515.352 Y609.697 Z-15.01 I-1.263 J-4.332
X516.796 Y601.755 Z-15.359 I2.708 J-3.61
X519.323 Y610.419 Z-15.854 I1.263 J4.332
X515.352 Y609.697 Z-16 I-1.263 J-4.332
X518.648 Y605.303 I1.648 J-2.197
X515.352 Y609.697 I-1.648 J2.197
G2 X511.604 Y609.118 I-2.417 J3.223
G3 X508.604 Y606.796 I-0.747 J-2.133
X525.396 Y608.204 I8.396 J0.704
X511.945 Y614.24 I-8.396 J-0.704
X508.604 Y606.796 I5.055 J-6.74
G2 X505.901 Y600.892 I-6.591 J-0.553
G3 X505.618 Y594.405 I2.438 J-3.356
X534.35 Y607.5 I11.382 J13.095
X506.59 Y621.38 I-17.35
X505.618 Y594.405 I10.41 J-13.88
G2 X507.814 Y587.708 I-4.507 J-5.186
G3 X511.626 Y581.781 I4.823 J-1.088
X522.374 Y633.219 I5.374 J25.719
X511.626 Y581.781 I-5.374 J-25.719
G2 X516.967 Y576.734 I-1.435 J-6.87
G3 X523.169 Y572.794 I5.25 J1.413
X510.831 Y642.206 I-6.169 J34.706
X517 Y572.25 I6.169 J-34.706
X523.169 Y572.794 J35.25
X525.677 Y576.936 I-0.564 J3.171
G1 X521.19 Y591.135
G2 X521.041 Y592.02 I3.071 J0.97
G1 X520.64 Y607.294
G3 X515.826 Y610.008 I-3.22 J-0.085
X516.796 Y601.755 Z-16.369 I2.234 J-3.921
X519.323 Y610.419 Z-16.864 I1.263 J4.332
X515.352 Y609.697 Z-17.01 I-1.263 J-4.332
X516.796 Y601.755 Z-17.359 I2.708 J-3.61
X519.323 Y610.419 Z-17.854 I1.263 J4.332
X515.352 Y609.697 Z-18 I-1.263 J-4.332
X518.648 Y605.303 I1.648 J-2.197
X515.352 Y609.697 I-1.648 J2.197
G2 X511.604 Y609.118 I-2.417 J3.223
G3 X508.604 Y606.796 I-0.747 J-2.133
X525.396 Y608.204 I8.396 J0.704
X511.945 Y614.24 I-8.396 J-0.704
X508.604 Y606.796 I5.055 J-6.74
G2 X505.901 Y600.892 I-6.591 J-0.553
G3 X505.618 Y594.405 I2.438 J-3.356
X534.35 Y607.5 I11.382 J13.095
X506.59 Y621.38 I-17.35
X505.618 Y594.405 I10.41 J-13.88
G2 X507.814 Y587.708 I-4.507 J-5.186
G3 X511.626 Y581.781 I4.823 J-1.088
X522.374 Y633.219 I5.374 J25.719
X511.626 Y581.781 I-5.374 J-25.719
G2 X516.967 Y576.734 I-1.435 J-6.87
G3 X523.169 Y572.794 I5.25 J1.413
X510.831 Y642.206 I-6.169 J34.706
X517 Y572.25 I6.169 J-34.706
X523.169 Y572.794 J35.25
X525.677 Y576.936 I-0.564 J3.171
G1 X521.19 Y591.135
G2 X521.041 Y592.02 I3.071 J0.97
G1 X520.64 Y607.294
G3 X515.826 Y610.008 I-3.22 J-0.085
X516.796 Y601.755 Z-18.369 I2.234 J-3.921
X519.323 Y610.419 Z-18.864 I1.263 J4.332
X515.352 Y609.697 Z-19.01 I-1.263 J-4.332
X516.796 Y601.755 Z-19.359 I2.708 J-3.61
X519.323 Y610.419 Z-19.854 I1.263 J4.332
X515.352 Y609.697 Z-20 I-1.263 J-4.332
X518.648 Y605.303 I1.648 J-2.197
X515.352 Y609.697 I-1.648 J2.197
G2 X511.604 Y609.118 I-2.417 J3.223
G3 X508.604 Y606.796 I-0.747 J-2.133
X525.396 Y608.204 I8.396 J0.704
X511.945 Y614.24 I-8.396 J-0.704
X508.604 Y606.796 I5.055 J-6.74
G2 X505.901 Y600.892 I-6.591 J-0.553
G3 X505.618 Y594.405 I2.438 J-3.356
X534.35 Y607.5 I11.382 J13.095
X506.59 Y621.38 I-17.35
X505.618 Y594.405 I10.41 J-13.88
G2 X507.814 Y587.708 I-4.507 J-5.186
G3 X511.626 Y581.781 I4.823 J-1.088
X522.374 Y633.219 I5.374 J25.719
X511.626 Y581.781 I-5.374 J-25.719
G2 X516.967 Y576.734 I-1.435 J-6.87
G3 X523.169 Y572.794 I5.25 J1.413
