(TopGigBS20mm)
(T1  D=9.5 CR=0 - ZMIN=-41 - flat end mill)
G90 G94
G17
G21

(2D Contour1 2)
M9
S25000 M3
G54
M9
G0 X-1 Y-3.75
Z15
Z4
G1 Z0 F3000
X66 F2000
Z-2 F3000
X-1 F2000
Z-4 F3000
X66 F2000
Z-6 F3000
X-1 F2000
Z-8 F3000
X66 F2000
Z-10 F3000
X-1 F2000
Z-12 F3000
X66 F2000
Z-14 F3000
X-1 F2000
Z-16 F3000
X66 F2000
Z-18 F3000
X-1 F2000
Z-20 F3000
X66 F2000
Z-22 F3000
X-1 F2000
Z-24 F3000
X66 F2000
Z-26 F3000
X-1 F2000
Z-28 F3000
X66 F2000
Z-30 F3000
X-1 F2000
Z-32 F3000
X66 F2000
Z-34 F3000
X-1 F2000
Z-36 F3000
X66 F2000
Z-38 F3000
X-1 F2000
Z-40 F3000
X66 F2000
Z-41 F3000
X-1 F2000
G0 Z5
Y312.75
Z4
G1 Z0 F3000
X66 F2000
Z-2 F3000
X-1 F2000
Z-4 F3000
X66 F2000
Z-6 F3000
X-1 F2000
Z-8 F3000
X66 F2000
Z-10 F3000
X-1 F2000
Z-12 F3000
X66 F2000
Z-14 F3000
X-1 F2000
Z-16 F3000
X66 F2000
Z-18 F3000
X-1 F2000
Z-20 F3000
X66 F2000
Z-22 F3000
X-1 F2000
Z-24 F3000
X66 F2000
Z-26 F3000
X-1 F2000
Z-28 F3000
X66 F2000
Z-30 F3000
X-1 F2000
Z-32 F3000
X66 F2000
Z-34 F3000
X-1 F2000
Z-36 F3000
X66 F2000
Z-38 F3000
X-1 F2000
Z-40 F3000
X66 F2000
Z-41 F3000
X-1 F2000
G0 Z15

(2D Pocket2)
M9
X30.772 Y-3.677
Z15
Z5
G1 Z3 F2000
Z-2
Y-3.64
Y312.641
G2 X30.973 Y312.841 I0.2
G1 X34.028 Y312.84
G2 X34.228 Y312.64 J-0.2
G1 Y-3.641
G3 X34.427 Y-3.84 I0.2
G1 X37.549 Y-3.85
G3 X37.75 Y-3.65 I0.001 J0.2
G1 Y308
Y312.636
G3 X37.55 Y312.836 I-0.2
G1 X27.45 Y312.85
G3 X27.25 Y312.65 J-0.2
G1 Y1
Y-3.636
G3 X27.447 Y-3.836 I0.2
G1 X30.57 Y-3.877
G3 X30.772 Y-3.677 I0.003 J0.2
G1 Z-4
Y-3.64
Y312.641
G2 X30.973 Y312.841 I0.2
G1 X34.028 Y312.84
G2 X34.228 Y312.64 J-0.2
G1 Y-3.641
G3 X34.427 Y-3.84 I0.2
G1 X37.549 Y-3.85
G3 X37.75 Y-3.65 I0.001 J0.2
G1 Y308
Y312.636
G3 X37.55 Y312.836 I-0.2
G1 X27.45 Y312.85
G3 X27.25 Y312.65 J-0.2
G1 Y1
Y-3.636
G3 X27.447 Y-3.836 I0.2
G1 X30.57 Y-3.877
G3 X30.772 Y-3.677 I0.003 J0.2
G1 Z-6
Y-3.64
Y312.641
G2 X30.973 Y312.841 I0.2
G1 X34.028 Y312.84
G2 X34.228 Y312.64 J-0.2
G1 Y-3.641
G3 X34.427 Y-3.84 I0.2
G1 X37.549 Y-3.85
G3 X37.75 Y-3.65 I0.001 J0.2
G1 Y308
Y312.636
G3 X37.55 Y312.836 I-0.2
G1 X27.45 Y312.85
G3 X27.25 Y312.65 J-0.2
G1 Y1
Y-3.636
G3 X27.447 Y-3.836 I0.2
G1 X30.57 Y-3.877
G3 X30.772 Y-3.677 I0.003 J0.2
G1 Z-8
Y-3.64
Y312.641
G2 X30.973 Y312.841 I0.2
G1 X34.028 Y312.84
G2 X34.228 Y312.64 J-0.2
G1 Y-3.641
G3 X34.427 Y-3.84 I0.2
G1 X37.549 Y-3.85
G3 X37.75 Y-3.65 I0.001 J0.2
G1 Y308
Y312.636
G3 X37.55 Y312.836 I-0.2
G1 X27.45 Y312.85
G3 X27.25 Y312.65 J-0.2
G1 Y1
Y-3.636
G3 X27.447 Y-3.836 I0.2
G1 X30.57 Y-3.877
G3 X30.772 Y-3.677 I0.003 J0.2
G1 Z-10
Y-3.64
Y312.641
G2 X30.973 Y312.841 I0.2
G1 X34.028 Y312.84
G2 X34.228 Y312.64 J-0.2
G1 Y-3.641
G3 X34.427 Y-3.84 I0.2
G1 X37.549 Y-3.85
G3 X37.75 Y-3.65 I0.001 J0.2
G1 Y308
Y312.636
G3 X37.55 Y312.836 I-0.2
G1 X27.45 Y312.85
G3 X27.25 Y312.65 J-0.2
G1 Y1
Y-3.636
G3 X27.447 Y-3.836 I0.2
G1 X30.57 Y-3.877
G3 X30.772 Y-3.677 I0.003 J0.2
G1 Z-11
Y-3.64
Y312.641
G2 X30.973 Y312.841 I0.2
G1 X34.028 Y312.84
G2 X34.228 Y312.64 J-0.2
G1 Y-3.641
G3 X34.427 Y-3.84 I0.2
G1 X37.549 Y-3.85
G3 X37.75 Y-3.65 I0.001 J0.2
G1 Y308
Y312.636
G3 X37.55 Y312.836 I-0.2
G1 X27.45 Y312.85
G3 X27.25 Y312.65 J-0.2
G1 Y1
Y-3.636
G0 Z15

(2D Pocket2 2)
M9
X33 Y154.5
Z15
Z5
G1 Z3 F2000
Z-2 F3000
G3 X32 I-0.5 F2000
X33 I0.5
G1 Z-4 F3000
G3 X32 I-0.5 F2000
X33 I0.5
G1 Z-6 F3000
G3 X32 I-0.5 F2000
X33 I0.5
G1 Z-8 F3000
G3 X32 I-0.5 F2000
X33 I0.5
G1 Z-10 F3000
G3 X32 I-0.5 F2000
X33 I0.5
G1 Z-12 F3000
G3 X32 I-0.5 F2000
X33 I0.5
G1 Z-14 F3000
G3 X32 I-0.5 F2000
X33 I0.5
G0 Z15
Y52.167
Z5
G1 Z3 F2000
Z-2 F3000
G3 X32 I-0.5 F2000
X33 I0.5
G1 Z-4 F3000
G3 X32 I-0.5 F2000
X33 I0.5
G1 Z-6 F3000
G3 X32 I-0.5 F2000
X33 I0.5
G1 Z-8 F3000
G3 X32 I-0.5 F2000
X33 I0.5
G1 Z-10 F3000
G3 X32 I-0.5 F2000
X33 I0.5
G1 Z-12 F3000
G3 X32 I-0.5 F2000
X33 I0.5
G1 Z-14 F3000
G3 X32 I-0.5 F2000
X33 I0.5
G0 Z15
Y256.833
Z5
G1 Z3 F2000
Z-2 F3000
G3 X32 I-0.5 F2000
X33 I0.5
G1 Z-4 F3000
G3 X32 I-0.5 F2000
X33 I0.5
G1 Z-6 F3000
G3 X32 I-0.5 F2000
X33 I0.5
G1 Z-8 F3000
G3 X32 I-0.5 F2000
X33 I0.5
G1 Z-10 F3000
G3 X32 I-0.5 F2000
X33 I0.5
G1 Z-12 F3000
G3 X32 I-0.5 F2000
X33 I0.5
G1 Z-14 F3000
G3 X32 I-0.5 F2000
X33 I0.5
G0 Z15
M9
M30
