%
(1001)
(Test brick 1)
(T1  D=3 CR=0 - ZMIN=-10 - flat end mill)
G90 G94
G17
G21

(2D Contour1)
M9
T1 M6
S5000 M3
G54
M8
G0 X27.7 Y12.8
Z12
Z7
G1 Z-5.7 F100
G18 G3 X27.4 Z-6 I-0.3
G1 X27.1 F600
G17 G3 X26.8 Y12.5 J-0.3
G1 Y0
G2 X25 Y-1.8 I-1.8
G1 X0
G2 X-1.8 Y0 J1.8
G1 Y25
G2 X0 Y26.8 I1.8
G1 X25
G2 X26.8 Y25 J-1.8
G1 Y12.5
G2 X26.65 Y12.275 I-0.244
G3 X26.5 Y12.05 I0.094 J-0.225
G1 Y0
G2 X25 Y-1.5 I-1.5
G1 X0
G2 X-1.5 Y0 J1.5
G1 Y25
G2 X0 Y26.5 I1.5
G1 X25
G2 X26.5 Y25 J-1.5
G1 Y12.05
G3 X26.8 Y11.75 I0.3 F1000
G1 X27.1
G18 G2 X27.4 Z-5.7 K0.3
G0 Z4
X27.7 Y12.8
Z2
G1 Z1 F100
Z-9.7
G3 X27.4 Z-10 I-0.3
G1 X27.1 F600
G17 G3 X26.8 Y12.5 J-0.3
G1 Y0
G2 X25 Y-1.8 I-1.8
G1 X0
G2 X-1.8 Y0 J1.8
G1 Y25
G2 X0 Y26.8 I1.8
G1 X25
G2 X26.8 Y25 J-1.8
G1 Y12.5
G2 X26.65 Y12.275 I-0.244
G3 X26.5 Y12.05 I0.094 J-0.225
G1 Y0
G2 X25 Y-1.5 I-1.5
G1 X0
G2 X-1.5 Y0 J1.5
G1 Y25
G2 X0 Y26.5 I1.5
G1 X25
G2 X26.5 Y25 J-1.5
G1 Y12.05
G3 X26.8 Y11.75 I0.3 F1000
G1 X27.1
G18 G2 X27.4 Z-9.7 K0.3
G0 Z12
G17
M9
M30
%
