(Cut depth: -12.000)
(Z safe distance: 5.080)
(Final part x dim: 320.0)
(Final part y dim: 999.51)
(x min: -320.0)
(y min: -250.49)

(VECTRIC POST REVISION)
(B467C182A25E2781624BDAEC17A0D7CE)
T1
G17
G21
G90
G0Z20.320
S20000M3
G0X97.962Y-74.978Z5.080
G1Z-12.000F750.0
G1X98.022Y-74.900F3000.0
G1X98.086Y-74.826
G1X98.154Y-74.755
G1X98.224Y-74.687
G1X98.298Y-74.623
G1X98.374Y-74.563
G1X98.453Y-74.506
G1X98.534Y-74.454
G1X98.617Y-74.406
G1X98.703Y-74.362
G1X98.790Y-74.322
G1X98.879Y-74.287
G1X98.969Y-74.256
G1X99.062Y-74.230
G1X99.156Y-74.208
G1X99.253Y-74.191
G1X99.352Y-74.178
G1X99.453Y-74.170
G1X99.559Y-74.167
G1X99.664Y-74.170
G1X99.766Y-74.178
G1X99.865Y-74.191
G1X99.961Y-74.208
G1X100.056Y-74.230
G1X100.148Y-74.256
G1X100.239Y-74.287
G1X100.328Y-74.322
G1X100.415Y-74.362
G1X100.500Y-74.406
G1X100.583Y-74.454
G1X100.664Y-74.506
G1X100.743Y-74.563
G1X100.819Y-74.623
G1X100.893Y-74.687
G1X100.964Y-74.755
G1X101.031Y-74.826
G1X101.095Y-74.900
G1X101.155Y-74.978
G1X101.212Y-75.058
G1X101.265Y-75.141
G1X101.314Y-75.226
G1X101.358Y-75.314
G1X101.399Y-75.403
G1X101.435Y-75.495
G1X101.466Y-75.589
G1X101.493Y-75.685
G1X101.516Y-75.783
G1X101.534Y-75.884
G1X101.547Y-75.987
G1X101.555Y-76.093
G1X101.559Y-76.253
G1Y-97.666
G1Y-115.902
G1Y-129.079
G1X101.555Y-129.239
G1X101.547Y-129.345
G1X101.534Y-129.448
G1X101.516Y-129.549
G1X101.493Y-129.647
G1X101.466Y-129.743
G1X101.435Y-129.837
G1X101.399Y-129.929
G1X101.358Y-130.019
G1X101.314Y-130.106
G1X101.265Y-130.191
G1X101.212Y-130.274
G1X101.155Y-130.354
G1X101.095Y-130.432
G1X101.031Y-130.506
G1X100.964Y-130.577
G1X100.893Y-130.645
G1X100.819Y-130.709
G1X100.743Y-130.770
G1X100.664Y-130.826
G1X100.583Y-130.878
G1X100.500Y-130.926
G1X100.415Y-130.970
G1X100.328Y-131.010
G1X100.239Y-131.045
G1X100.148Y-131.076
G1X100.056Y-131.102
G1X99.961Y-131.124
G1X99.865Y-131.142
G1X99.766Y-131.154
G1X99.664Y-131.162
G1X99.559Y-131.165
G1X99.453Y-131.162
G1X99.352Y-131.154
G1X99.253Y-131.142
G1X99.156Y-131.124
G1X99.062Y-131.102
G1X98.969Y-131.076
G1X98.879Y-131.045
G1X98.790Y-131.010
G1X98.703Y-130.970
G1X98.617Y-130.926
G1X98.534Y-130.878
G1X98.453Y-130.826
G1X98.374Y-130.770
G1X98.298Y-130.709
G1X98.224Y-130.645
G1X98.154Y-130.577
G1X98.086Y-130.506
G1X98.022Y-130.432
G1X97.962Y-130.354
G1X97.905Y-130.274
G1X97.852Y-130.191
G1X97.804Y-130.106
G1X97.759Y-130.019
G1X97.719Y-129.929
G1X97.683Y-129.837
G1X97.651Y-129.743
G1X97.624Y-129.647
G1X97.602Y-129.549
G1X97.584Y-129.448
G1X97.571Y-129.345
G1X97.563Y-129.239
G1X97.559Y-129.079
G1Y-115.902
G1Y-97.666
G1Y-76.253
G1X97.563Y-76.093
G1X97.571Y-75.987
G1X97.584Y-75.884
G1X97.602Y-75.783
G1X97.624Y-75.685
G1X97.651Y-75.589
G1X97.683Y-75.495
G1X97.719Y-75.403
G1X97.759Y-75.314
G1X97.804Y-75.226
G1X97.852Y-75.141
G1X97.905Y-75.058
G1X97.962Y-74.978
G0Z5.080
G0X134.559Y-26.000
G1Z-12.000F750.0
G2X108.559Y0.000I0.000J26.000F3000.0
G2X134.559Y26.000I26.000J0.000
G2X160.559Y0.000I0.000J-26.000
G2X134.559Y-26.000I-26.000J0.000
G0Z5.080
G0X714.059Y-91.000
G1Z-12.000F750.0
G1Y91.000F3000.0
G1X826.059
G1Y-91.000
G1X714.059
G0Z5.080
G0X101.493Y75.685
G1Z-12.000F750.0
G1X101.466Y75.589F3000.0
G1X101.435Y75.495
G1X101.399Y75.403
G1X101.358Y75.314
G1X101.314Y75.226
G1X101.265Y75.141
G1X101.212Y75.058
G1X101.155Y74.978
G1X101.095Y74.900
G1X101.031Y74.826
G1X100.964Y74.755
G1X100.893Y74.687
G1X100.819Y74.623
G1X100.743Y74.563
G1X100.664Y74.506
G1X100.583Y74.454
G1X100.500Y74.406
G1X100.415Y74.362
G1X100.328Y74.322
G1X100.239Y74.287
G1X100.148Y74.256
G1X100.056Y74.230
G1X99.961Y74.208
G1X99.865Y74.191
G1X99.766Y74.178
G1X99.664Y74.170
G1X99.559Y74.167
G1X99.453Y74.170
G1X99.352Y74.178
G1X99.253Y74.191
G1X99.156Y74.208
G1X99.062Y74.230
G1X98.969Y74.256
G1X98.879Y74.287
G1X98.790Y74.322
G1X98.703Y74.362
G1X98.617Y74.406
G1X98.534Y74.454
G1X98.453Y74.506
G1X98.374Y74.563
G1X98.298Y74.623
G1X98.224Y74.687
G1X98.154Y74.755
G1X98.086Y74.826
G1X98.022Y74.900
G1X97.962Y74.978
G1X97.905Y75.058
G1X97.852Y75.141
G1X97.804Y75.226
G1X97.759Y75.314
G1X97.719Y75.403
G1X97.683Y75.495
G1X97.651Y75.589
G1X97.624Y75.685
G1X97.602Y75.783
G1X97.584Y75.884
G1X97.571Y75.987
G1X97.563Y76.093
G1X97.559Y76.253
G1Y97.666
G1Y115.902
G1Y129.079
G1X97.563Y129.239
G1X97.571Y129.345
G1X97.584Y129.448
G1X97.602Y129.549
G1X97.624Y129.647
G1X97.651Y129.743
G1X97.683Y129.837
G1X97.719Y129.929
G1X97.759Y130.019
G1X97.804Y130.106
G1X97.852Y130.191
G1X97.905Y130.274
G1X97.962Y130.354
G1X98.022Y130.432
G1X98.086Y130.506
G1X98.154Y130.577
G1X98.224Y130.645
G1X98.298Y130.709
G1X98.374Y130.770
G1X98.453Y130.826
G1X98.534Y130.878
G1X98.617Y130.926
G1X98.703Y130.970
G1X98.790Y131.010
G1X98.879Y131.045
G1X98.969Y131.076
G1X99.062Y131.102
G1X99.156Y131.124
G1X99.253Y131.142
G1X99.352Y131.154
G1X99.453Y131.162
G1X99.559Y131.165
G1X99.664Y131.162
G1X99.766Y131.154
G1X99.865Y131.142
G1X99.961Y131.124
G1X100.056Y131.102
G1X100.148Y131.076
G1X100.239Y131.045
G1X100.328Y131.010
G1X100.415Y130.970
G1X100.500Y130.926
G1X100.583Y130.878
G1X100.664Y130.826
G1X100.743Y130.770
G1X100.819Y130.709
G1X100.893Y130.645
G1X100.964Y130.577
G1X101.031Y130.506
G1X101.095Y130.432
G1X101.155Y130.354
G1X101.212Y130.274
G1X101.265Y130.191
G1X101.314Y130.106
G1X101.358Y130.019
G1X101.399Y129.929
G1X101.435Y129.837
G1X101.466Y129.743
G1X101.493Y129.647
G1X101.516Y129.549
G1X101.534Y129.448
G1X101.547Y129.345
G1X101.555Y129.239
G1X101.559Y129.079
G1Y115.902
G1Y97.666
G1Y76.253
G1X101.555Y76.093
G1X101.547Y75.987
G1X101.534Y75.884
G1X101.516Y75.783
G1X101.493Y75.685
G0Z5.080
G0X44.559Y0.000
G1Z-12.000F750.0
G2X-0.441Y-45.000I-45.000J0.000F3000.0
G2X-45.441Y0.000I0.000J45.000
G2X-0.441Y45.000I45.000J0.000
G2X44.559Y0.000I0.000J-45.000
G0Z5.080
M5
G0Z20.320
G0X0.000Y0.000
M2
