(Cut depth: -12.000)
(Z safe distance: 5.080)
(Final part x dim: 999.51)
(Final part y dim: 320.0)
(x min: -250.49)
(y min: -320.0)

(VECTRIC POST REVISION)
(B467C182A25E2781624BDAEC17A0D7CE)
T1
G17
G21
G90
G0Z20.320
S20000M3
G0X0.000Y44.559Z5.080
G1Z-12.000F750.0
G2X45.000Y-0.441I0.000J-45.000F3000.0
G2X0.000Y-45.441I-45.000J0.000
G2X-45.000Y-0.441I0.000J45.000
G2X0.000Y44.559I45.000J0.000
G0Z5.080
G0X-74.563Y98.374
G1Z-12.000F750.0
G1X-74.623Y98.298F3000.0
G1X-74.687Y98.224
G1X-74.755Y98.154
G1X-74.826Y98.086
G1X-74.900Y98.022
G1X-74.978Y97.962
G1X-75.058Y97.905
G1X-75.141Y97.852
G1X-75.226Y97.804
G1X-75.314Y97.759
G1X-75.403Y97.719
G1X-75.495Y97.683
G1X-75.589Y97.651
G1X-75.685Y97.624
G1X-75.783Y97.602
G1X-75.884Y97.584
G1X-75.987Y97.571
G1X-76.093Y97.563
G1X-76.253Y97.559
G1X-97.666
G1X-115.902
G1X-129.079
G1X-129.239Y97.563
G1X-129.345Y97.571
G1X-129.448Y97.584
G1X-129.549Y97.602
G1X-129.647Y97.624
G1X-129.743Y97.651
G1X-129.837Y97.683
G1X-129.929Y97.719
G1X-130.019Y97.759
G1X-130.106Y97.804
G1X-130.191Y97.852
G1X-130.274Y97.905
G1X-130.354Y97.962
G1X-130.432Y98.022
G1X-130.506Y98.086
G1X-130.577Y98.154
G1X-130.645Y98.224
G1X-130.709Y98.298
G1X-130.770Y98.374
G1X-130.826Y98.453
G1X-130.878Y98.534
G1X-130.926Y98.617
G1X-130.970Y98.703
G1X-131.010Y98.790
G1X-131.045Y98.879
G1X-131.076Y98.969
G1X-131.102Y99.062
G1X-131.124Y99.156
G1X-131.142Y99.253
G1X-131.154Y99.352
G1X-131.162Y99.453
G1X-131.165Y99.559
G1X-131.162Y99.664
G1X-131.154Y99.766
G1X-131.142Y99.865
G1X-131.124Y99.961
G1X-131.102Y100.056
G1X-131.076Y100.148
G1X-131.045Y100.239
G1X-131.010Y100.328
G1X-130.970Y100.415
G1X-130.926Y100.500
G1X-130.878Y100.583
G1X-130.826Y100.664
G1X-130.770Y100.743
G1X-130.709Y100.819
G1X-130.645Y100.893
G1X-130.577Y100.964
G1X-130.506Y101.031
G1X-130.432Y101.095
G1X-130.354Y101.155
G1X-130.274Y101.212
G1X-130.191Y101.265
G1X-130.106Y101.314
G1X-130.019Y101.358
G1X-129.929Y101.399
G1X-129.837Y101.435
G1X-129.743Y101.466
G1X-129.647Y101.493
G1X-129.549Y101.516
G1X-129.448Y101.534
G1X-129.345Y101.547
G1X-129.239Y101.555
G1X-129.079Y101.559
G1X-115.902
G1X-97.666
G1X-76.253
G1X-76.093Y101.555
G1X-75.987Y101.547
G1X-75.884Y101.534
G1X-75.783Y101.516
G1X-75.685Y101.493
G1X-75.589Y101.466
G1X-75.495Y101.435
G1X-75.403Y101.399
G1X-75.314Y101.358
G1X-75.226Y101.314
G1X-75.141Y101.265
G1X-75.058Y101.212
G1X-74.978Y101.155
G1X-74.900Y101.095
G1X-74.826Y101.031
G1X-74.755Y100.964
G1X-74.687Y100.893
G1X-74.623Y100.819
G1X-74.563Y100.743
G1X-74.506Y100.664
G1X-74.454Y100.583
G1X-74.406Y100.500
G1X-74.362Y100.415
G1X-74.322Y100.328
G1X-74.287Y100.239
G1X-74.256Y100.148
G1X-74.230Y100.056
G1X-74.208Y99.961
G1X-74.191Y99.865
G1X-74.178Y99.766
G1X-74.170Y99.664
G1X-74.167Y99.559
G1X-74.170Y99.453
G1X-74.178Y99.352
G1X-74.191Y99.253
G1X-74.208Y99.156
G1X-74.230Y99.062
G1X-74.256Y98.969
G1X-74.287Y98.879
G1X-74.322Y98.790
G1X-74.362Y98.703
G1X-74.406Y98.617
G1X-74.454Y98.534
G1X-74.506Y98.453
G1X-74.563Y98.374
G0Z5.080
G0X-91.000Y714.059
G1Z-12.000F750.0
G1Y826.059F3000.0
G1X91.000
G1Y714.059
G1X-91.000
G0Z5.080
G0X0.000Y160.559
G1Z-12.000F750.0
G2X26.000Y134.559I0.000J-26.000F3000.0
G2X0.000Y108.559I-26.000J0.000
G2X-26.000Y134.559I0.000J26.000
G2X0.000Y160.559I26.000J0.000
G0Z5.080
G0X74.623Y100.819
G1Z-12.000F750.0
G1X74.687Y100.893F3000.0
G1X74.755Y100.964
G1X74.826Y101.031
G1X74.900Y101.095
G1X74.978Y101.155
G1X75.058Y101.212
G1X75.141Y101.265
G1X75.226Y101.314
G1X75.314Y101.358
G1X75.403Y101.399
G1X75.495Y101.435
G1X75.589Y101.466
G1X75.685Y101.493
G1X75.783Y101.516
G1X75.884Y101.534
G1X75.987Y101.547
G1X76.093Y101.555
G1X76.253Y101.559
G1X97.666
G1X115.902
G1X129.079
G1X129.239Y101.555
G1X129.345Y101.547
G1X129.448Y101.534
G1X129.549Y101.516
G1X129.647Y101.493
G1X129.743Y101.466
G1X129.837Y101.435
G1X129.929Y101.399
G1X130.019Y101.358
G1X130.106Y101.314
G1X130.191Y101.265
G1X130.274Y101.212
G1X130.354Y101.155
G1X130.432Y101.095
G1X130.506Y101.031
G1X130.577Y100.964
G1X130.645Y100.893
G1X130.709Y100.819
G1X130.770Y100.743
G1X130.826Y100.664
G1X130.878Y100.583
G1X130.926Y100.500
G1X130.970Y100.415
G1X131.010Y100.328
G1X131.045Y100.239
G1X131.076Y100.148
G1X131.102Y100.056
G1X131.124Y99.961
G1X131.142Y99.865
G1X131.154Y99.766
G1X131.162Y99.664
G1X131.165Y99.559
G1X131.162Y99.453
G1X131.154Y99.352
G1X131.142Y99.253
G1X131.124Y99.156
G1X131.102Y99.062
G1X131.076Y98.969
G1X131.045Y98.879
G1X131.010Y98.790
G1X130.970Y98.703
G1X130.926Y98.617
G1X130.878Y98.534
G1X130.826Y98.453
G1X130.770Y98.374
G1X130.709Y98.298
G1X130.645Y98.224
G1X130.577Y98.154
G1X130.506Y98.086
G1X130.432Y98.022
G1X130.354Y97.962
G1X130.274Y97.905
G1X130.191Y97.852
G1X130.106Y97.804
G1X130.019Y97.759
G1X129.929Y97.719
G1X129.837Y97.683
G1X129.743Y97.651
G1X129.647Y97.624
G1X129.549Y97.602
G1X129.448Y97.584
G1X129.345Y97.571
G1X129.239Y97.563
G1X129.079Y97.559
G1X115.902
G1X97.666
G1X76.253
G1X76.093Y97.563
G1X75.987Y97.571
G1X75.884Y97.584
G1X75.783Y97.602
G1X75.685Y97.624
G1X75.589Y97.651
G1X75.495Y97.683
G1X75.403Y97.719
G1X75.314Y97.759
G1X75.226Y97.804
G1X75.141Y97.852
G1X75.058Y97.905
G1X74.978Y97.962
G1X74.900Y98.022
G1X74.826Y98.086
G1X74.755Y98.154
G1X74.687Y98.224
G1X74.623Y98.298
G1X74.563Y98.374
G1X74.506Y98.453
G1X74.454Y98.534
G1X74.406Y98.617
G1X74.362Y98.703
G1X74.322Y98.790
G1X74.287Y98.879
G1X74.256Y98.969
G1X74.230Y99.062
G1X74.208Y99.156
G1X74.191Y99.253
G1X74.178Y99.352
G1X74.170Y99.453
G1X74.167Y99.559
G1X74.170Y99.664
G1X74.178Y99.766
G1X74.191Y99.865
G1X74.208Y99.961
G1X74.230Y100.056
G1X74.256Y100.148
G1X74.287Y100.239
G1X74.322Y100.328
G1X74.362Y100.415
G1X74.406Y100.500
G1X74.454Y100.583
G1X74.506Y100.664
G1X74.563Y100.743
G1X74.623Y100.819
G0Z5.080
M5
G0Z20.320
G0X0.000Y0.000
M2
