(Cut depth: -12.000)
(Z safe distance: 5.080)
(Final part x dim: 640.0)
(Final part y dim: 1250.0)
(x min: 0.0)
(y min: -3.0)

(VECTRIC POST REVISION)
(B467C182A25E2781624BDAEC17A0D7CE)
T1
G17
G21
G90
G0Z20.320
G0X0.000Y0.000
S20000M3
G0X189.419Y347.413Z5.080
G1Z-12.000F750.0
G1X189.292Y347.486F4000.0
G1X189.168Y347.565
G1X189.049Y347.649
G1X188.934Y347.739
G1X188.823Y347.834
G1X188.717Y347.934
G1X188.617Y348.039
G1X188.521Y348.149
G1X188.431Y348.263
G1X188.347Y348.381
G1X188.268Y348.503
G1X188.196Y348.628
G1X188.130Y348.756
G1X188.070Y348.888
G1X188.016Y349.023
G1X187.969Y349.160
G1X187.929Y349.301
G1X187.896Y349.444
G1X187.870Y349.591
G1X187.850Y349.740
G1X187.839Y349.893
G1X187.835Y350.049
G1X187.839Y350.205
G1X187.850Y350.357
G1X187.870Y350.507
G1X187.896Y350.653
G1X187.929Y350.796
G1X187.969Y350.937
G1X188.016Y351.075
G1X188.070Y351.209
G1X188.130Y351.341
G1X188.196Y351.470
G1X188.268Y351.595
G1X188.347Y351.717
G1X188.431Y351.834
G1X188.521Y351.948
G1X188.617Y352.058
G1X188.717Y352.163
G1X188.823Y352.263
G1X188.934Y352.358
G1X189.049Y352.448
G1X189.168Y352.533
G1X189.292Y352.611
G1X189.419Y352.684
G1X189.549Y352.750
G1X189.684Y352.811
G1X189.821Y352.865
G1X189.961Y352.912
G1X190.105Y352.952
G1X190.252Y352.986
G1X190.401Y353.013
G1X190.554Y353.032
G1X190.711Y353.044
G1X190.908Y353.049
G1X204.098
G1X222.334
G1X243.760
G1X243.957Y353.044
G1X244.113Y353.032
G1X244.266Y353.013
G1X244.416Y352.986
G1X244.563Y352.952
G1X244.706Y352.912
G1X244.847Y352.865
G1X244.984Y352.811
G1X245.118Y352.750
G1X245.249Y352.684
G1X245.376Y352.611
G1X245.500Y352.533
G1X245.619Y352.448
G1X245.734Y352.358
G1X245.845Y352.263
G1X245.950Y352.163
G1X246.051Y352.058
G1X246.147Y351.948
G1X246.237Y351.834
G1X246.321Y351.717
G1X246.400Y351.595
G1X246.472Y351.470
G1X246.538Y351.341
G1X246.598Y351.209
G1X246.652Y351.075
G1X246.698Y350.937
G1X246.739Y350.796
G1X246.772Y350.653
G1X246.798Y350.507
G1X246.817Y350.357
G1X246.829Y350.205
G1X246.833Y350.049
G1X246.829Y349.893
G1X246.817Y349.740
G1X246.798Y349.591
G1X246.772Y349.444
G1X246.739Y349.301
G1X246.698Y349.160
G1X246.652Y349.023
G1X246.598Y348.888
G1X246.538Y348.756
G1X246.472Y348.628
G1X246.400Y348.503
G1X246.321Y348.381
G1X246.237Y348.263
G1X246.147Y348.149
G1X246.051Y348.039
G1X245.950Y347.934
G1X245.845Y347.834
G1X245.734Y347.739
G1X245.619Y347.649
G1X245.500Y347.565
G1X245.376Y347.486
G1X245.249Y347.413
G1X245.118Y347.347
G1X244.984Y347.287
G1X244.847Y347.233
G1X244.706Y347.186
G1X244.563Y347.145
G1X244.416Y347.111
G1X244.266Y347.085
G1X244.113Y347.065
G1X243.957Y347.054
G1X243.760Y347.049
G1X222.334
G1X204.098
G1X190.908
G1X190.711Y347.054
G1X190.554Y347.065
G1X190.401Y347.085
G1X190.252Y347.111
G1X190.105Y347.145
G1X189.961Y347.186
G1X189.821Y347.233
G1X189.684Y347.287
G1X189.549Y347.347
G1X189.419Y347.413
G0Z5.080
G0X274.000Y250.049
G1Z-12.000F750.0
G2X320.000Y296.049I46.000J0.000F4000.0
G2X366.000Y250.049I0.000J-46.000
G2X320.000Y204.049I-46.000J0.000
G2X274.000Y250.049I0.000J46.000
G0Z5.080
G0X393.853Y348.149
G1Z-12.000F750.0
G1X393.763Y348.263F4000.0
G1X393.679Y348.381
G1X393.600Y348.503
G1X393.528Y348.628
G1X393.462Y348.756
G1X393.402Y348.888
G1X393.348Y349.023
G1X393.302Y349.160
G1X393.261Y349.301
G1X393.228Y349.444
G1X393.202Y349.591
G1X393.183Y349.740
G1X393.171Y349.893
G1X393.167Y350.049
G1X393.171Y350.205
G1X393.183Y350.357
G1X393.202Y350.507
G1X393.228Y350.653
G1X393.261Y350.796
G1X393.302Y350.937
G1X393.348Y351.075
G1X393.402Y351.209
G1X393.462Y351.341
G1X393.528Y351.470
G1X393.600Y351.595
G1X393.679Y351.717
G1X393.763Y351.834
G1X393.853Y351.948
G1X393.949Y352.058
G1X394.050Y352.163
G1X394.155Y352.263
G1X394.266Y352.358
G1X394.381Y352.448
G1X394.500Y352.533
G1X394.624Y352.611
G1X394.751Y352.684
G1X394.882Y352.750
G1X395.016Y352.811
G1X395.153Y352.865
G1X395.294Y352.912
G1X395.437Y352.952
G1X395.584Y352.986
G1X395.734Y353.013
G1X395.887Y353.032
G1X396.043Y353.044
G1X396.240Y353.049
G1X417.666
G1X435.902
G1X449.092
G1X449.289Y353.044
G1X449.446Y353.032
G1X449.599Y353.013
G1X449.748Y352.986
G1X449.895Y352.952
G1X450.039Y352.912
G1X450.179Y352.865
G1X450.316Y352.811
G1X450.451Y352.750
G1X450.581Y352.684
G1X450.708Y352.611
G1X450.832Y352.533
G1X450.951Y352.448
G1X451.066Y352.358
G1X451.177Y352.263
G1X451.283Y352.163
G1X451.383Y352.058
G1X451.479Y351.948
G1X451.569Y351.834
G1X451.653Y351.717
G1X451.732Y351.595
G1X451.804Y351.470
G1X451.870Y351.341
G1X451.930Y351.209
G1X451.984Y351.075
G1X452.031Y350.937
G1X452.071Y350.796
G1X452.104Y350.653
G1X452.130Y350.507
G1X452.150Y350.357
G1X452.161Y350.205
G1X452.165Y350.049
G1X452.161Y349.893
G1X452.150Y349.740
G1X452.130Y349.591
G1X452.104Y349.444
G1X452.071Y349.301
G1X452.031Y349.160
G1X451.984Y349.023
G1X451.930Y348.888
G1X451.870Y348.756
G1X451.804Y348.628
G1X451.732Y348.503
G1X451.653Y348.381
G1X451.569Y348.263
G1X451.479Y348.149
G1X451.383Y348.039
G1X451.283Y347.934
G1X451.177Y347.834
G1X451.066Y347.739
G1X450.951Y347.649
G1X450.832Y347.565
G1X450.708Y347.486
G1X450.581Y347.413
G1X450.451Y347.347
G1X450.316Y347.287
G1X450.179Y347.233
G1X450.039Y347.186
G1X449.895Y347.145
G1X449.748Y347.111
G1X449.599Y347.085
G1X449.446Y347.065
G1X449.289Y347.054
G1X449.092Y347.049
G1X435.902
G1X417.666
G1X396.240
G1X396.043Y347.054
G1X395.887Y347.065
G1X395.734Y347.085
G1X395.584Y347.111
G1X395.437Y347.145
G1X395.294Y347.186
G1X395.153Y347.233
G1X395.016Y347.287
G1X394.882Y347.347
G1X394.751Y347.413
G1X394.624Y347.486
G1X394.500Y347.565
G1X394.381Y347.649
G1X394.266Y347.739
G1X394.155Y347.834
G1X394.050Y347.934
G1X393.949Y348.039
G1X393.853Y348.149
G0Z5.080
G0X347.000Y385.049
G1Z-12.000F750.0
G2X320.000Y358.049I-27.000J0.000F4000.0
G2X293.000Y385.049I0.000J27.000
G2X320.000Y412.049I27.000J0.000
G2X347.000Y385.049I0.000J-27.000
G0Z5.080
G0X412.000Y963.549
G1Z-12.000F750.0
G1X228.000F4000.0
G1Y1077.549
G1X412.000
G1Y963.549
G0Z5.080
M5
G0Z20.320
G0X0.000Y0.000
M2
