(Cut depth: -12.000)
(Z safe distance: 5.080)
(Final part x dim: 1250.0)
(Final part y dim: 640.0)
(x min: -3.0)
(y min: 0.0)

(VECTRIC POST REVISION)
(B467C182A25E2781624BDAEC17A0D7CE)
T1
G17
G21
G90
G0Z20.320
G0X0.000Y0.000
S20000M3
G0X347.413Y189.419Z5.080
G1Z-12.000F750.0
G1X347.347Y189.549F4000.0
G1X347.287Y189.684
G1X347.233Y189.821
G1X347.186Y189.961
G1X347.145Y190.105
G1X347.111Y190.252
G1X347.085Y190.401
G1X347.065Y190.554
G1X347.054Y190.711
G1X347.049Y190.908
G1Y204.098
G1Y222.334
G1Y243.760
G1X347.054Y243.957
G1X347.065Y244.113
G1X347.085Y244.266
G1X347.111Y244.416
G1X347.145Y244.563
G1X347.186Y244.706
G1X347.233Y244.847
G1X347.287Y244.984
G1X347.347Y245.118
G1X347.413Y245.249
G1X347.486Y245.376
G1X347.565Y245.500
G1X347.649Y245.619
G1X347.739Y245.734
G1X347.834Y245.845
G1X347.934Y245.950
G1X348.039Y246.051
G1X348.149Y246.147
G1X348.263Y246.237
G1X348.381Y246.321
G1X348.503Y246.400
G1X348.628Y246.472
G1X348.756Y246.538
G1X348.888Y246.598
G1X349.023Y246.652
G1X349.160Y246.698
G1X349.301Y246.739
G1X349.444Y246.772
G1X349.591Y246.798
G1X349.740Y246.817
G1X349.893Y246.829
G1X350.049Y246.833
G1X350.205Y246.829
G1X350.357Y246.817
G1X350.507Y246.798
G1X350.653Y246.772
G1X350.796Y246.739
G1X350.937Y246.698
G1X351.075Y246.652
G1X351.209Y246.598
G1X351.341Y246.538
G1X351.470Y246.472
G1X351.595Y246.400
G1X351.717Y246.321
G1X351.834Y246.237
G1X351.948Y246.147
G1X352.058Y246.051
G1X352.163Y245.950
G1X352.263Y245.845
G1X352.358Y245.734
G1X352.448Y245.619
G1X352.533Y245.500
G1X352.611Y245.376
G1X352.684Y245.249
G1X352.750Y245.118
G1X352.811Y244.984
G1X352.865Y244.847
G1X352.912Y244.706
G1X352.952Y244.563
G1X352.986Y244.416
G1X353.013Y244.266
G1X353.032Y244.113
G1X353.044Y243.957
G1X353.049Y243.760
G1Y222.334
G1Y204.098
G1Y190.908
G1X353.044Y190.711
G1X353.032Y190.554
G1X353.013Y190.401
G1X352.986Y190.252
G1X352.952Y190.105
G1X352.912Y189.961
G1X352.865Y189.821
G1X352.811Y189.684
G1X352.750Y189.549
G1X352.684Y189.419
G1X352.611Y189.292
G1X352.533Y189.168
G1X352.448Y189.049
G1X352.358Y188.934
G1X352.263Y188.823
G1X352.163Y188.717
G1X352.058Y188.617
G1X351.948Y188.521
G1X351.834Y188.431
G1X351.717Y188.347
G1X351.595Y188.268
G1X351.470Y188.196
G1X351.341Y188.130
G1X351.209Y188.070
G1X351.075Y188.016
G1X350.937Y187.969
G1X350.796Y187.929
G1X350.653Y187.896
G1X350.507Y187.870
G1X350.357Y187.850
G1X350.205Y187.839
G1X350.049Y187.835
G1X349.893Y187.839
G1X349.740Y187.850
G1X349.591Y187.870
G1X349.444Y187.896
G1X349.301Y187.929
G1X349.160Y187.969
G1X349.023Y188.016
G1X348.888Y188.070
G1X348.756Y188.130
G1X348.628Y188.196
G1X348.503Y188.268
G1X348.381Y188.347
G1X348.263Y188.431
G1X348.149Y188.521
G1X348.039Y188.617
G1X347.934Y188.717
G1X347.834Y188.823
G1X347.739Y188.934
G1X347.649Y189.049
G1X347.565Y189.168
G1X347.486Y189.292
G1X347.413Y189.419
G0Z5.080
G0X250.049Y274.000
G1Z-12.000F750.0
G2X204.049Y320.000I0.000J46.000F4000.0
G2X250.049Y366.000I46.000J0.000
G2X296.049Y320.000I0.000J-46.000
G2X250.049Y274.000I-46.000J0.000
G0Z5.080
G0X348.149Y393.853
G1Z-12.000F750.0
G1X348.039Y393.949F4000.0
G1X347.934Y394.050
G1X347.834Y394.155
G1X347.739Y394.266
G1X347.649Y394.381
G1X347.565Y394.500
G1X347.486Y394.624
G1X347.413Y394.751
G1X347.347Y394.882
G1X347.287Y395.016
G1X347.233Y395.153
G1X347.186Y395.294
G1X347.145Y395.437
G1X347.111Y395.584
G1X347.085Y395.734
G1X347.065Y395.887
G1X347.054Y396.043
G1X347.049Y396.240
G1Y417.666
G1Y435.902
G1Y449.092
G1X347.054Y449.289
G1X347.065Y449.446
G1X347.085Y449.599
G1X347.111Y449.748
G1X347.145Y449.895
G1X347.186Y450.039
G1X347.233Y450.179
G1X347.287Y450.316
G1X347.347Y450.451
G1X347.413Y450.581
G1X347.486Y450.708
G1X347.565Y450.832
G1X347.649Y450.951
G1X347.739Y451.066
G1X347.834Y451.177
G1X347.934Y451.283
G1X348.039Y451.383
G1X348.149Y451.479
G1X348.263Y451.569
G1X348.381Y451.653
G1X348.503Y451.732
G1X348.628Y451.804
G1X348.756Y451.870
G1X348.888Y451.930
G1X349.023Y451.984
G1X349.160Y452.031
G1X349.301Y452.071
G1X349.444Y452.104
G1X349.591Y452.130
G1X349.740Y452.150
G1X349.893Y452.161
G1X350.049Y452.165
G1X350.205Y452.161
G1X350.357Y452.150
G1X350.507Y452.130
G1X350.653Y452.104
G1X350.796Y452.071
G1X350.937Y452.031
G1X351.075Y451.984
G1X351.209Y451.930
G1X351.341Y451.870
G1X351.470Y451.804
G1X351.595Y451.732
G1X351.717Y451.653
G1X351.834Y451.569
G1X351.948Y451.479
G1X352.058Y451.383
G1X352.163Y451.283
G1X352.263Y451.177
G1X352.358Y451.066
G1X352.448Y450.951
G1X352.533Y450.832
G1X352.611Y450.708
G1X352.684Y450.581
G1X352.750Y450.451
G1X352.811Y450.316
G1X352.865Y450.179
G1X352.912Y450.039
G1X352.952Y449.895
G1X352.986Y449.748
G1X353.013Y449.599
G1X353.032Y449.446
G1X353.044Y449.289
G1X353.049Y449.092
G1Y435.902
G1Y417.666
G1Y396.240
G1X353.044Y396.043
G1X353.032Y395.887
G1X353.013Y395.734
G1X352.986Y395.584
G1X352.952Y395.437
G1X352.912Y395.294
G1X352.865Y395.153
G1X352.811Y395.016
G1X352.750Y394.882
G1X352.684Y394.751
G1X352.611Y394.624
G1X352.533Y394.500
G1X352.448Y394.381
G1X352.358Y394.266
G1X352.263Y394.155
G1X352.163Y394.050
G1X352.058Y393.949
G1X351.948Y393.853
G1X351.834Y393.763
G1X351.717Y393.679
G1X351.595Y393.600
G1X351.470Y393.528
G1X351.341Y393.462
G1X351.209Y393.402
G1X351.075Y393.348
G1X350.937Y393.302
G1X350.796Y393.261
G1X350.653Y393.228
G1X350.507Y393.202
G1X350.357Y393.183
G1X350.205Y393.171
G1X350.049Y393.167
G1X349.893Y393.171
G1X349.740Y393.183
G1X349.591Y393.202
G1X349.444Y393.228
G1X349.301Y393.261
G1X349.160Y393.302
G1X349.023Y393.348
G1X348.888Y393.402
G1X348.756Y393.462
G1X348.628Y393.528
G1X348.503Y393.600
G1X348.381Y393.679
G1X348.263Y393.763
G1X348.149Y393.853
G0Z5.080
G0X385.049Y347.000
G1Z-12.000F750.0
G2X412.049Y320.000I0.000J-27.000F4000.0
G2X385.049Y293.000I-27.000J0.000
G2X358.049Y320.000I0.000J27.000
G2X385.049Y347.000I27.000J0.000
G0Z5.080
G0X963.549Y412.000
G1Z-12.000F750.0
G1X1077.549F4000.0
G1Y228.000
G1X963.549
G1Y412.000
G0Z5.080
M5
G0Z20.320
G0X0.000Y0.000
M2
