(Cut depth: -12.000)
(Z safe distance: 5.080)
(Final part x dim: 640.0)
(Final part y dim: 1250.0)
(x min: 0.0)
(y min: -3.0)

(VECTRIC POST REVISION)
(B467C182A25E2781624BDAEC17A0D7CE)
T1
G17
G21
G90
G0Z20.320
S20000M3
G0X189.894Y348.294Z5.080
G1Z-12.000F750.0
G1X189.809Y348.342F3000.0
G1X189.726Y348.395
G1X189.646Y348.452
G1X189.568Y348.512
G1X189.494Y348.576
G1X189.423Y348.644
G1X189.355Y348.714
G1X189.291Y348.788
G1X189.230Y348.864
G1X189.174Y348.943
G1X189.122Y349.024
G1X189.074Y349.107
G1X189.030Y349.193
G1X188.990Y349.280
G1X188.955Y349.369
G1X188.924Y349.459
G1X188.898Y349.552
G1X188.876Y349.646
G1X188.858Y349.743
G1X188.846Y349.842
G1X188.838Y349.944
G1X188.835Y350.049
G1X188.838Y350.154
G1X188.846Y350.256
G1X188.858Y350.355
G1X188.876Y350.451
G1X188.898Y350.546
G1X188.924Y350.638
G1X188.955Y350.729
G1X188.990Y350.818
G1X189.030Y350.905
G1X189.074Y350.990
G1X189.122Y351.073
G1X189.174Y351.154
G1X189.230Y351.233
G1X189.291Y351.309
G1X189.355Y351.383
G1X189.423Y351.454
G1X189.494Y351.521
G1X189.568Y351.585
G1X189.646Y351.646
G1X189.726Y351.702
G1X189.809Y351.755
G1X189.894Y351.804
G1X189.981Y351.848
G1X190.071Y351.889
G1X190.163Y351.925
G1X190.257Y351.956
G1X190.353Y351.983
G1X190.451Y352.006
G1X190.552Y352.024
G1X190.655Y352.037
G1X190.761Y352.045
G1X190.921Y352.049
G1X204.098
G1X222.334
G1X243.747
G1X243.907Y352.045
G1X244.013Y352.037
G1X244.116Y352.024
G1X244.217Y352.006
G1X244.315Y351.983
G1X244.411Y351.956
G1X244.505Y351.925
G1X244.597Y351.889
G1X244.686Y351.848
G1X244.774Y351.804
G1X244.859Y351.755
G1X244.942Y351.702
G1X245.022Y351.646
G1X245.100Y351.585
G1X245.174Y351.521
G1X245.245Y351.454
G1X245.313Y351.383
G1X245.377Y351.309
G1X245.437Y351.233
G1X245.494Y351.154
G1X245.546Y351.073
G1X245.594Y350.990
G1X245.638Y350.905
G1X245.678Y350.818
G1X245.713Y350.729
G1X245.744Y350.638
G1X245.770Y350.546
G1X245.792Y350.451
G1X245.809Y350.355
G1X245.822Y350.256
G1X245.830Y350.154
G1X245.833Y350.049
G1X245.830Y349.944
G1X245.822Y349.842
G1X245.809Y349.743
G1X245.792Y349.646
G1X245.770Y349.552
G1X245.744Y349.459
G1X245.713Y349.369
G1X245.678Y349.280
G1X245.638Y349.193
G1X245.594Y349.107
G1X245.546Y349.024
G1X245.494Y348.943
G1X245.437Y348.864
G1X245.377Y348.788
G1X245.313Y348.714
G1X245.245Y348.644
G1X245.174Y348.576
G1X245.100Y348.512
G1X245.022Y348.452
G1X244.942Y348.395
G1X244.859Y348.342
G1X244.774Y348.294
G1X244.686Y348.249
G1X244.597Y348.209
G1X244.505Y348.173
G1X244.411Y348.141
G1X244.315Y348.114
G1X244.217Y348.092
G1X244.116Y348.074
G1X244.013Y348.061
G1X243.907Y348.053
G1X243.747Y348.049
G1X222.334
G1X204.098
G1X190.921
G1X190.761Y348.053
G1X190.655Y348.061
G1X190.552Y348.074
G1X190.451Y348.092
G1X190.353Y348.114
G1X190.257Y348.141
G1X190.163Y348.173
G1X190.071Y348.209
G1X189.981Y348.249
G1X189.894Y348.294
G0Z5.080
G0X275.000Y250.049
G1Z-12.000F750.0
G2X320.000Y295.049I45.000J0.000F3000.0
G2X365.000Y250.049I0.000J-45.000
G2X320.000Y205.049I-45.000J0.000
G2X275.000Y250.049I0.000J45.000
G0Z5.080
G0X394.623Y348.788
G1Z-12.000F750.0
G1X394.563Y348.864F3000.0
G1X394.506Y348.943
G1X394.454Y349.024
G1X394.406Y349.107
G1X394.362Y349.193
G1X394.322Y349.280
G1X394.287Y349.369
G1X394.256Y349.459
G1X394.230Y349.552
G1X394.208Y349.646
G1X394.191Y349.743
G1X394.178Y349.842
G1X394.170Y349.944
G1X394.167Y350.049
G1X394.170Y350.154
G1X394.178Y350.256
G1X394.191Y350.355
G1X394.208Y350.451
G1X394.230Y350.546
G1X394.256Y350.638
G1X394.287Y350.729
G1X394.322Y350.818
G1X394.362Y350.905
G1X394.406Y350.990
G1X394.454Y351.073
G1X394.506Y351.154
G1X394.563Y351.233
G1X394.623Y351.309
G1X394.687Y351.383
G1X394.755Y351.454
G1X394.826Y351.521
G1X394.900Y351.585
G1X394.978Y351.646
G1X395.058Y351.702
G1X395.141Y351.755
G1X395.226Y351.804
G1X395.314Y351.848
G1X395.403Y351.889
G1X395.495Y351.925
G1X395.589Y351.956
G1X395.685Y351.983
G1X395.783Y352.006
G1X395.884Y352.024
G1X395.987Y352.037
G1X396.093Y352.045
G1X396.253Y352.049
G1X417.666
G1X435.902
G1X449.079
G1X449.239Y352.045
G1X449.345Y352.037
G1X449.448Y352.024
G1X449.549Y352.006
G1X449.647Y351.983
G1X449.743Y351.956
G1X449.837Y351.925
G1X449.929Y351.889
G1X450.019Y351.848
G1X450.106Y351.804
G1X450.191Y351.755
G1X450.274Y351.702
G1X450.354Y351.646
G1X450.432Y351.585
G1X450.506Y351.521
G1X450.577Y351.454
G1X450.645Y351.383
G1X450.709Y351.309
G1X450.770Y351.233
G1X450.826Y351.154
G1X450.878Y351.073
G1X450.926Y350.990
G1X450.970Y350.905
G1X451.010Y350.818
G1X451.045Y350.729
G1X451.076Y350.638
G1X451.102Y350.546
G1X451.124Y350.451
G1X451.142Y350.355
G1X451.154Y350.256
G1X451.162Y350.154
G1X451.165Y350.049
G1X451.162Y349.944
G1X451.154Y349.842
G1X451.142Y349.743
G1X451.124Y349.646
G1X451.102Y349.552
G1X451.076Y349.459
G1X451.045Y349.369
G1X451.010Y349.280
G1X450.970Y349.193
G1X450.926Y349.107
G1X450.878Y349.024
G1X450.826Y348.943
G1X450.770Y348.864
G1X450.709Y348.788
G1X450.645Y348.714
G1X450.577Y348.644
G1X450.506Y348.576
G1X450.432Y348.512
G1X450.354Y348.452
G1X450.274Y348.395
G1X450.191Y348.342
G1X450.106Y348.294
G1X450.019Y348.249
G1X449.929Y348.209
G1X449.837Y348.173
G1X449.743Y348.141
G1X449.647Y348.114
G1X449.549Y348.092
G1X449.448Y348.074
G1X449.345Y348.061
G1X449.239Y348.053
G1X449.079Y348.049
G1X435.902
G1X417.666
G1X396.253
G1X396.093Y348.053
G1X395.987Y348.061
G1X395.884Y348.074
G1X395.783Y348.092
G1X395.685Y348.114
G1X395.589Y348.141
G1X395.495Y348.173
G1X395.403Y348.209
G1X395.314Y348.249
G1X395.226Y348.294
G1X395.141Y348.342
G1X395.058Y348.395
G1X394.978Y348.452
G1X394.900Y348.512
G1X394.826Y348.576
G1X394.755Y348.644
G1X394.687Y348.714
G1X394.623Y348.788
G0Z5.080
G0X346.000Y385.049
G1Z-12.000F750.0
G2X320.000Y359.049I-26.000J0.000F3000.0
G2X294.000Y385.049I0.000J26.000
G2X320.000Y411.049I26.000J0.000
G2X346.000Y385.049I0.000J-26.000
G0Z5.080
G0X411.000Y964.549
G1Z-12.000F750.0
G1X229.000F3000.0
G1Y1076.549
G1X411.000
G1Y964.549
G0Z5.080
M5
G0Z20.320
G0X0.000Y0.000
M2
