(Cut depth: -12.000)
(Z safe distance: 5.080)
(Final part x dim: 999.51)
(Final part y dim: 320.0)
(x min: -250.49)
(y min: -320.0)

(VECTRIC POST REVISION)
(B467C182A25E2781624BDAEC17A0D7CE)
T1
G17
G21
G90
G0Z20.320
G0X0.000Y0.000
S22000M3
G0X0.000Y45.559Z5.080
G1Z-12.000F250.0
G2X46.000Y-0.441I0.000J-46.000F4000.0
G2X0.000Y-46.441I-46.000J0.000
G2X-46.000Y-0.441I0.000J46.000
G2X0.000Y45.559I46.000J0.000
G0Z5.080
G0X-73.679Y97.891
G1Z-12.000F250.0
G1X-73.763Y97.773F4000.0
G1X-73.853Y97.659
G1X-73.949Y97.549
G1X-74.050Y97.444
G1X-74.155Y97.344
G1X-74.266Y97.249
G1X-74.381Y97.159
G1X-74.500Y97.075
G1X-74.624Y96.996
G1X-74.751Y96.923
G1X-74.882Y96.857
G1X-75.016Y96.797
G1X-75.153Y96.743
G1X-75.294Y96.696
G1X-75.437Y96.655
G1X-75.584Y96.621
G1X-75.734Y96.595
G1X-75.887Y96.575
G1X-76.043Y96.564
G1X-76.240Y96.559
G1X-97.666
G1X-115.902
G1X-129.092
G1X-129.289Y96.564
G1X-129.446Y96.575
G1X-129.599Y96.595
G1X-129.748Y96.621
G1X-129.895Y96.655
G1X-130.039Y96.696
G1X-130.179Y96.743
G1X-130.316Y96.797
G1X-130.451Y96.857
G1X-130.581Y96.923
G1X-130.708Y96.996
G1X-130.832Y97.075
G1X-130.951Y97.159
G1X-131.066Y97.249
G1X-131.177Y97.344
G1X-131.283Y97.444
G1X-131.383Y97.549
G1X-131.479Y97.659
G1X-131.569Y97.773
G1X-131.653Y97.891
G1X-131.732Y98.013
G1X-131.804Y98.138
G1X-131.870Y98.266
G1X-131.930Y98.398
G1X-131.984Y98.533
G1X-132.031Y98.670
G1X-132.071Y98.811
G1X-132.104Y98.954
G1X-132.130Y99.101
G1X-132.150Y99.250
G1X-132.161Y99.403
G1X-132.165Y99.559
G1X-132.161Y99.715
G1X-132.150Y99.867
G1X-132.130Y100.017
G1X-132.104Y100.163
G1X-132.071Y100.306
G1X-132.031Y100.447
G1X-131.984Y100.585
G1X-131.930Y100.719
G1X-131.870Y100.851
G1X-131.804Y100.980
G1X-131.732Y101.105
G1X-131.653Y101.227
G1X-131.569Y101.344
G1X-131.479Y101.458
G1X-131.383Y101.568
G1X-131.283Y101.673
G1X-131.177Y101.773
G1X-131.066Y101.868
G1X-130.951Y101.958
G1X-130.832Y102.043
G1X-130.708Y102.121
G1X-130.581Y102.194
G1X-130.451Y102.260
G1X-130.316Y102.321
G1X-130.179Y102.375
G1X-130.039Y102.422
G1X-129.895Y102.462
G1X-129.748Y102.496
G1X-129.599Y102.523
G1X-129.446Y102.542
G1X-129.289Y102.554
G1X-129.092Y102.559
G1X-115.902
G1X-97.666
G1X-76.240
G1X-76.043Y102.554
G1X-75.887Y102.542
G1X-75.734Y102.523
G1X-75.584Y102.496
G1X-75.437Y102.462
G1X-75.294Y102.422
G1X-75.153Y102.375
G1X-75.016Y102.321
G1X-74.882Y102.260
G1X-74.751Y102.194
G1X-74.624Y102.121
G1X-74.500Y102.043
G1X-74.381Y101.958
G1X-74.266Y101.868
G1X-74.155Y101.773
G1X-74.050Y101.673
G1X-73.949Y101.568
G1X-73.853Y101.458
G1X-73.763Y101.344
G1X-73.679Y101.227
G1X-73.600Y101.105
G1X-73.528Y100.980
G1X-73.462Y100.851
G1X-73.402Y100.719
G1X-73.348Y100.585
G1X-73.302Y100.447
G1X-73.261Y100.306
G1X-73.228Y100.163
G1X-73.202Y100.017
G1X-73.183Y99.867
G1X-73.171Y99.715
G1X-73.167Y99.559
G1X-73.171Y99.403
G1X-73.183Y99.250
G1X-73.202Y99.101
G1X-73.228Y98.954
G1X-73.261Y98.811
G1X-73.302Y98.670
G1X-73.348Y98.533
G1X-73.402Y98.398
G1X-73.462Y98.266
G1X-73.528Y98.138
G1X-73.600Y98.013
G1X-73.679Y97.891
G0Z5.080
G0X-92.000Y713.059
G1Z-12.000F250.0
G1Y827.059F4000.0
G1X92.000
G1Y713.059
G1X-92.000
G0Z5.080
G0X0.000Y161.559
G1Z-12.000F250.0
G2X27.000Y134.559I0.000J-27.000F4000.0
G2X0.000Y107.559I-27.000J0.000
G2X-27.000Y134.559I0.000J27.000
G2X0.000Y161.559I27.000J0.000
G0Z5.080
G0X73.853Y101.458
G1Z-12.000F250.0
G1X73.949Y101.568F4000.0
G1X74.050Y101.673
G1X74.155Y101.773
G1X74.266Y101.868
G1X74.381Y101.958
G1X74.500Y102.043
G1X74.624Y102.121
G1X74.751Y102.194
G1X74.882Y102.260
G1X75.016Y102.321
G1X75.153Y102.375
G1X75.294Y102.422
G1X75.437Y102.462
G1X75.584Y102.496
G1X75.734Y102.523
G1X75.887Y102.542
G1X76.043Y102.554
G1X76.240Y102.559
G1X97.666
G1X115.902
G1X129.092
G1X129.289Y102.554
G1X129.446Y102.542
G1X129.599Y102.523
G1X129.748Y102.496
G1X129.895Y102.462
G1X130.039Y102.422
G1X130.179Y102.375
G1X130.316Y102.321
G1X130.451Y102.260
G1X130.581Y102.194
G1X130.708Y102.121
G1X130.832Y102.043
G1X130.951Y101.958
G1X131.066Y101.868
G1X131.177Y101.773
G1X131.283Y101.673
G1X131.383Y101.568
G1X131.479Y101.458
G1X131.569Y101.344
G1X131.653Y101.227
G1X131.732Y101.105
G1X131.804Y100.980
G1X131.870Y100.851
G1X131.930Y100.719
G1X131.984Y100.585
G1X132.031Y100.447
G1X132.071Y100.306
G1X132.104Y100.163
G1X132.130Y100.017
G1X132.150Y99.867
G1X132.161Y99.715
G1X132.165Y99.559
G1X132.161Y99.403
G1X132.150Y99.250
G1X132.130Y99.101
G1X132.104Y98.954
G1X132.071Y98.811
G1X132.031Y98.670
G1X131.984Y98.533
G1X131.930Y98.398
G1X131.870Y98.266
G1X131.804Y98.138
G1X131.732Y98.013
G1X131.653Y97.891
G1X131.569Y97.773
G1X131.479Y97.659
G1X131.383Y97.549
G1X131.283Y97.444
G1X131.177Y97.344
G1X131.066Y97.249
G1X130.951Y97.159
G1X130.832Y97.075
G1X130.708Y96.996
G1X130.581Y96.923
G1X130.451Y96.857
G1X130.316Y96.797
G1X130.179Y96.743
G1X130.039Y96.696
G1X129.895Y96.655
G1X129.748Y96.621
G1X129.599Y96.595
G1X129.446Y96.575
G1X129.289Y96.564
G1X129.092Y96.559
G1X115.902
G1X97.666
G1X76.240
G1X76.043Y96.564
G1X75.887Y96.575
G1X75.734Y96.595
G1X75.584Y96.621
G1X75.437Y96.655
G1X75.294Y96.696
G1X75.153Y96.743
G1X75.016Y96.797
G1X74.882Y96.857
G1X74.751Y96.923
G1X74.624Y96.996
G1X74.500Y97.075
G1X74.381Y97.159
G1X74.266Y97.249
G1X74.155Y97.344
G1X74.050Y97.444
G1X73.949Y97.549
G1X73.853Y97.659
G1X73.763Y97.773
G1X73.679Y97.891
G1X73.600Y98.013
G1X73.528Y98.138
G1X73.462Y98.266
G1X73.402Y98.398
G1X73.348Y98.533
G1X73.302Y98.670
G1X73.261Y98.811
G1X73.228Y98.954
G1X73.202Y99.101
G1X73.183Y99.250
G1X73.171Y99.403
G1X73.167Y99.559
G1X73.171Y99.715
G1X73.183Y99.867
G1X73.202Y100.017
G1X73.228Y100.163
G1X73.261Y100.306
G1X73.302Y100.447
G1X73.348Y100.585
G1X73.402Y100.719
G1X73.462Y100.851
G1X73.528Y100.980
G1X73.600Y101.105
G1X73.679Y101.227
G1X73.763Y101.344
G1X73.853Y101.458
G0Z5.080
M5
G0Z20.320
G0X0.000Y0.000
M2
