(Cut depth: -12.000)
(Z safe distance: 5.080)
(Final part x dim: 320.0)
(Final part y dim: 999.51)
(x min: -320.0)
(y min: -250.49)

(VECTRIC POST REVISION)
(B467C182A25E2781624BDAEC17A0D7CE)
T1
G17
G21
G90
G0Z20.320
G0X0.000Y0.000
S22000M3
G0X97.159Y-74.381Z5.080
G1Z-12.000F250.0
G1X97.249Y-74.266F4000.0
G1X97.344Y-74.155
G1X97.444Y-74.050
G1X97.549Y-73.949
G1X97.659Y-73.853
G1X97.773Y-73.763
G1X97.891Y-73.679
G1X98.013Y-73.600
G1X98.138Y-73.528
G1X98.266Y-73.462
G1X98.398Y-73.402
G1X98.533Y-73.348
G1X98.670Y-73.302
G1X98.811Y-73.261
G1X98.954Y-73.228
G1X99.101Y-73.202
G1X99.250Y-73.183
G1X99.403Y-73.171
G1X99.559Y-73.167
G1X99.715Y-73.171
G1X99.867Y-73.183
G1X100.017Y-73.202
G1X100.163Y-73.228
G1X100.306Y-73.261
G1X100.447Y-73.302
G1X100.585Y-73.348
G1X100.719Y-73.402
G1X100.851Y-73.462
G1X100.980Y-73.528
G1X101.105Y-73.600
G1X101.227Y-73.679
G1X101.344Y-73.763
G1X101.458Y-73.853
G1X101.568Y-73.949
G1X101.673Y-74.050
G1X101.773Y-74.155
G1X101.868Y-74.266
G1X101.958Y-74.381
G1X102.043Y-74.500
G1X102.121Y-74.624
G1X102.194Y-74.751
G1X102.260Y-74.882
G1X102.321Y-75.016
G1X102.375Y-75.153
G1X102.422Y-75.294
G1X102.462Y-75.437
G1X102.496Y-75.584
G1X102.523Y-75.734
G1X102.542Y-75.887
G1X102.554Y-76.043
G1X102.559Y-76.240
G1Y-97.666
G1Y-115.902
G1Y-129.092
G1X102.554Y-129.289
G1X102.542Y-129.446
G1X102.523Y-129.599
G1X102.496Y-129.748
G1X102.462Y-129.895
G1X102.422Y-130.039
G1X102.375Y-130.179
G1X102.321Y-130.316
G1X102.260Y-130.451
G1X102.194Y-130.581
G1X102.121Y-130.708
G1X102.043Y-130.832
G1X101.958Y-130.951
G1X101.868Y-131.066
G1X101.773Y-131.177
G1X101.673Y-131.283
G1X101.568Y-131.383
G1X101.458Y-131.479
G1X101.344Y-131.569
G1X101.227Y-131.653
G1X101.105Y-131.732
G1X100.980Y-131.804
G1X100.851Y-131.870
G1X100.719Y-131.930
G1X100.585Y-131.984
G1X100.447Y-132.031
G1X100.306Y-132.071
G1X100.163Y-132.104
G1X100.017Y-132.130
G1X99.867Y-132.150
G1X99.715Y-132.161
G1X99.559Y-132.165
G1X99.403Y-132.161
G1X99.250Y-132.150
G1X99.101Y-132.130
G1X98.954Y-132.104
G1X98.811Y-132.071
G1X98.670Y-132.031
G1X98.533Y-131.984
G1X98.398Y-131.930
G1X98.266Y-131.870
G1X98.138Y-131.804
G1X98.013Y-131.732
G1X97.891Y-131.653
G1X97.773Y-131.569
G1X97.659Y-131.479
G1X97.549Y-131.383
G1X97.444Y-131.283
G1X97.344Y-131.177
G1X97.249Y-131.066
G1X97.159Y-130.951
G1X97.075Y-130.832
G1X96.996Y-130.708
G1X96.923Y-130.581
G1X96.857Y-130.451
G1X96.797Y-130.316
G1X96.743Y-130.179
G1X96.696Y-130.039
G1X96.655Y-129.895
G1X96.621Y-129.748
G1X96.595Y-129.599
G1X96.575Y-129.446
G1X96.564Y-129.289
G1X96.559Y-129.092
G1Y-115.902
G1Y-97.666
G1Y-76.240
G1X96.564Y-76.043
G1X96.575Y-75.887
G1X96.595Y-75.734
G1X96.621Y-75.584
G1X96.655Y-75.437
G1X96.696Y-75.294
G1X96.743Y-75.153
G1X96.797Y-75.016
G1X96.857Y-74.882
G1X96.923Y-74.751
G1X96.996Y-74.624
G1X97.075Y-74.500
G1X97.159Y-74.381
G0Z5.080
G0X134.559Y-27.000
G1Z-12.000F250.0
G2X107.559Y0.000I0.000J27.000F4000.0
G2X134.559Y27.000I27.000J0.000
G2X161.559Y0.000I0.000J-27.000
G2X134.559Y-27.000I-27.000J0.000
G0Z5.080
G0X713.059Y-92.000
G1Z-12.000F250.0
G1Y92.000F4000.0
G1X827.059
G1Y-92.000
G1X713.059
G0Z5.080
G0X102.462Y75.437
G1Z-12.000F250.0
G1X102.422Y75.294F4000.0
G1X102.375Y75.153
G1X102.321Y75.016
G1X102.260Y74.882
G1X102.194Y74.751
G1X102.121Y74.624
G1X102.043Y74.500
G1X101.958Y74.381
G1X101.868Y74.266
G1X101.773Y74.155
G1X101.673Y74.050
G1X101.568Y73.949
G1X101.458Y73.853
G1X101.344Y73.763
G1X101.227Y73.679
G1X101.105Y73.600
G1X100.980Y73.528
G1X100.851Y73.462
G1X100.719Y73.402
G1X100.585Y73.348
G1X100.447Y73.302
G1X100.306Y73.261
G1X100.163Y73.228
G1X100.017Y73.202
G1X99.867Y73.183
G1X99.715Y73.171
G1X99.559Y73.167
G1X99.403Y73.171
G1X99.250Y73.183
G1X99.101Y73.202
G1X98.954Y73.228
G1X98.811Y73.261
G1X98.670Y73.302
G1X98.533Y73.348
G1X98.398Y73.402
G1X98.266Y73.462
G1X98.138Y73.528
G1X98.013Y73.600
G1X97.891Y73.679
G1X97.773Y73.763
G1X97.659Y73.853
G1X97.549Y73.949
G1X97.444Y74.050
G1X97.344Y74.155
G1X97.249Y74.266
G1X97.159Y74.381
G1X97.075Y74.500
G1X96.996Y74.624
G1X96.923Y74.751
G1X96.857Y74.882
G1X96.797Y75.016
G1X96.743Y75.153
G1X96.696Y75.294
G1X96.655Y75.437
G1X96.621Y75.584
G1X96.595Y75.734
G1X96.575Y75.887
G1X96.564Y76.043
G1X96.559Y76.240
G1Y97.666
G1Y115.902
G1Y129.092
G1X96.564Y129.289
G1X96.575Y129.446
G1X96.595Y129.599
G1X96.621Y129.748
G1X96.655Y129.895
G1X96.696Y130.039
G1X96.743Y130.179
G1X96.797Y130.316
G1X96.857Y130.451
G1X96.923Y130.581
G1X96.996Y130.708
G1X97.075Y130.832
G1X97.159Y130.951
G1X97.249Y131.066
G1X97.344Y131.177
G1X97.444Y131.283
G1X97.549Y131.383
G1X97.659Y131.479
G1X97.773Y131.569
G1X97.891Y131.653
G1X98.013Y131.732
G1X98.138Y131.804
G1X98.266Y131.870
G1X98.398Y131.930
G1X98.533Y131.984
G1X98.670Y132.031
G1X98.811Y132.071
G1X98.954Y132.104
G1X99.101Y132.130
G1X99.250Y132.150
G1X99.403Y132.161
G1X99.559Y132.165
G1X99.715Y132.161
G1X99.867Y132.150
G1X100.017Y132.130
G1X100.163Y132.104
G1X100.306Y132.071
G1X100.447Y132.031
G1X100.585Y131.984
G1X100.719Y131.930
G1X100.851Y131.870
G1X100.980Y131.804
G1X101.105Y131.732
G1X101.227Y131.653
G1X101.344Y131.569
G1X101.458Y131.479
G1X101.568Y131.383
G1X101.673Y131.283
G1X101.773Y131.177
G1X101.868Y131.066
G1X101.958Y130.951
G1X102.043Y130.832
G1X102.121Y130.708
G1X102.194Y130.581
G1X102.260Y130.451
G1X102.321Y130.316
G1X102.375Y130.179
G1X102.422Y130.039
G1X102.462Y129.895
G1X102.496Y129.748
G1X102.523Y129.599
G1X102.542Y129.446
G1X102.554Y129.289
G1X102.559Y129.092
G1Y115.902
G1Y97.666
G1Y76.240
G1X102.554Y76.043
G1X102.542Y75.887
G1X102.523Y75.734
G1X102.496Y75.584
G1X102.462Y75.437
G0Z5.080
G0X45.559Y0.000
G1Z-12.000F250.0
G2X-0.441Y-46.000I-46.000J0.000F4000.0
G2X-46.441Y0.000I0.000J46.000
G2X-0.441Y46.000I46.000J0.000
G2X45.559Y0.000I0.000J-46.000
G0Z5.080
M5
G0Z20.320
G0X0.000Y0.000
M2
