(Cut depth: -12.000)
(Z safe distance: 5.080)
(Final part x dim: 1250.0)
(Final part y dim: 640.0)
(x min: -3.0)
(y min: 0.0)

(VECTRIC POST REVISION)
(B467C182A25E2781624BDAEC17A0D7CE)
T1
G17
G21
G90
G0Z20.320
S20000M3
G0X348.294Y189.894Z5.080
G1Z-12.000F750.0
G1X348.249Y189.981F3000.0
G1X348.209Y190.071
G1X348.173Y190.163
G1X348.141Y190.257
G1X348.114Y190.353
G1X348.092Y190.451
G1X348.074Y190.552
G1X348.061Y190.655
G1X348.053Y190.761
G1X348.049Y190.921
G1Y204.098
G1Y222.334
G1Y243.747
G1X348.053Y243.907
G1X348.061Y244.013
G1X348.074Y244.116
G1X348.092Y244.217
G1X348.114Y244.315
G1X348.141Y244.411
G1X348.173Y244.505
G1X348.209Y244.597
G1X348.249Y244.686
G1X348.294Y244.774
G1X348.342Y244.859
G1X348.395Y244.942
G1X348.452Y245.022
G1X348.512Y245.100
G1X348.576Y245.174
G1X348.644Y245.245
G1X348.714Y245.313
G1X348.788Y245.377
G1X348.864Y245.437
G1X348.943Y245.494
G1X349.024Y245.546
G1X349.107Y245.594
G1X349.193Y245.638
G1X349.280Y245.678
G1X349.369Y245.713
G1X349.459Y245.744
G1X349.552Y245.770
G1X349.646Y245.792
G1X349.743Y245.809
G1X349.842Y245.822
G1X349.944Y245.830
G1X350.049Y245.833
G1X350.154Y245.830
G1X350.256Y245.822
G1X350.355Y245.809
G1X350.451Y245.792
G1X350.546Y245.770
G1X350.638Y245.744
G1X350.729Y245.713
G1X350.818Y245.678
G1X350.905Y245.638
G1X350.990Y245.594
G1X351.073Y245.546
G1X351.154Y245.494
G1X351.233Y245.437
G1X351.309Y245.377
G1X351.383Y245.313
G1X351.454Y245.245
G1X351.521Y245.174
G1X351.585Y245.100
G1X351.646Y245.022
G1X351.702Y244.942
G1X351.755Y244.859
G1X351.804Y244.774
G1X351.848Y244.686
G1X351.889Y244.597
G1X351.925Y244.505
G1X351.956Y244.411
G1X351.983Y244.315
G1X352.006Y244.217
G1X352.024Y244.116
G1X352.037Y244.013
G1X352.045Y243.907
G1X352.049Y243.747
G1Y222.334
G1Y204.098
G1Y190.921
G1X352.045Y190.761
G1X352.037Y190.655
G1X352.024Y190.552
G1X352.006Y190.451
G1X351.983Y190.353
G1X351.956Y190.257
G1X351.925Y190.163
G1X351.889Y190.071
G1X351.848Y189.981
G1X351.804Y189.894
G1X351.755Y189.809
G1X351.702Y189.726
G1X351.646Y189.646
G1X351.585Y189.568
G1X351.521Y189.494
G1X351.454Y189.423
G1X351.383Y189.355
G1X351.309Y189.291
G1X351.233Y189.230
G1X351.154Y189.174
G1X351.073Y189.122
G1X350.990Y189.074
G1X350.905Y189.030
G1X350.818Y188.990
G1X350.729Y188.955
G1X350.638Y188.924
G1X350.546Y188.898
G1X350.451Y188.876
G1X350.355Y188.858
G1X350.256Y188.846
G1X350.154Y188.838
G1X350.049Y188.835
G1X349.944Y188.838
G1X349.842Y188.846
G1X349.743Y188.858
G1X349.646Y188.876
G1X349.552Y188.898
G1X349.459Y188.924
G1X349.369Y188.955
G1X349.280Y188.990
G1X349.193Y189.030
G1X349.107Y189.074
G1X349.024Y189.122
G1X348.943Y189.174
G1X348.864Y189.230
G1X348.788Y189.291
G1X348.714Y189.355
G1X348.644Y189.423
G1X348.576Y189.494
G1X348.512Y189.568
G1X348.452Y189.646
G1X348.395Y189.726
G1X348.342Y189.809
G1X348.294Y189.894
G0Z5.080
G0X250.049Y275.000
G1Z-12.000F750.0
G2X205.049Y320.000I0.000J45.000F3000.0
G2X250.049Y365.000I45.000J0.000
G2X295.049Y320.000I0.000J-45.000
G2X250.049Y275.000I-45.000J0.000
G0Z5.080
G0X348.788Y394.623
G1Z-12.000F750.0
G1X348.714Y394.687F3000.0
G1X348.644Y394.755
G1X348.576Y394.826
G1X348.512Y394.900
G1X348.452Y394.978
G1X348.395Y395.058
G1X348.342Y395.141
G1X348.294Y395.226
G1X348.249Y395.314
G1X348.209Y395.403
G1X348.173Y395.495
G1X348.141Y395.589
G1X348.114Y395.685
G1X348.092Y395.783
G1X348.074Y395.884
G1X348.061Y395.987
G1X348.053Y396.093
G1X348.049Y396.253
G1Y417.666
G1Y435.902
G1Y449.079
G1X348.053Y449.239
G1X348.061Y449.345
G1X348.074Y449.448
G1X348.092Y449.549
G1X348.114Y449.647
G1X348.141Y449.743
G1X348.173Y449.837
G1X348.209Y449.929
G1X348.249Y450.019
G1X348.294Y450.106
G1X348.342Y450.191
G1X348.395Y450.274
G1X348.452Y450.354
G1X348.512Y450.432
G1X348.576Y450.506
G1X348.644Y450.577
G1X348.714Y450.645
G1X348.788Y450.709
G1X348.864Y450.770
G1X348.943Y450.826
G1X349.024Y450.878
G1X349.107Y450.926
G1X349.193Y450.970
G1X349.280Y451.010
G1X349.369Y451.045
G1X349.459Y451.076
G1X349.552Y451.102
G1X349.646Y451.124
G1X349.743Y451.142
G1X349.842Y451.154
G1X349.944Y451.162
G1X350.049Y451.165
G1X350.154Y451.162
G1X350.256Y451.154
G1X350.355Y451.142
G1X350.451Y451.124
G1X350.546Y451.102
G1X350.638Y451.076
G1X350.729Y451.045
G1X350.818Y451.010
G1X350.905Y450.970
G1X350.990Y450.926
G1X351.073Y450.878
G1X351.154Y450.826
G1X351.233Y450.770
G1X351.309Y450.709
G1X351.383Y450.645
G1X351.454Y450.577
G1X351.521Y450.506
G1X351.585Y450.432
G1X351.646Y450.354
G1X351.702Y450.274
G1X351.755Y450.191
G1X351.804Y450.106
G1X351.848Y450.019
G1X351.889Y449.929
G1X351.925Y449.837
G1X351.956Y449.743
G1X351.983Y449.647
G1X352.006Y449.549
G1X352.024Y449.448
G1X352.037Y449.345
G1X352.045Y449.239
G1X352.049Y449.079
G1Y435.902
G1Y417.666
G1Y396.253
G1X352.045Y396.093
G1X352.037Y395.987
G1X352.024Y395.884
G1X352.006Y395.783
G1X351.983Y395.685
G1X351.956Y395.589
G1X351.925Y395.495
G1X351.889Y395.403
G1X351.848Y395.314
G1X351.804Y395.226
G1X351.755Y395.141
G1X351.702Y395.058
G1X351.646Y394.978
G1X351.585Y394.900
G1X351.521Y394.826
G1X351.454Y394.755
G1X351.383Y394.687
G1X351.309Y394.623
G1X351.233Y394.563
G1X351.154Y394.506
G1X351.073Y394.454
G1X350.990Y394.406
G1X350.905Y394.362
G1X350.818Y394.322
G1X350.729Y394.287
G1X350.638Y394.256
G1X350.546Y394.230
G1X350.451Y394.208
G1X350.355Y394.191
G1X350.256Y394.178
G1X350.154Y394.170
G1X350.049Y394.167
G1X349.944Y394.170
G1X349.842Y394.178
G1X349.743Y394.191
G1X349.646Y394.208
G1X349.552Y394.230
G1X349.459Y394.256
G1X349.369Y394.287
G1X349.280Y394.322
G1X349.193Y394.362
G1X349.107Y394.406
G1X349.024Y394.454
G1X348.943Y394.506
G1X348.864Y394.563
G1X348.788Y394.623
G0Z5.080
G0X385.049Y346.000
G1Z-12.000F750.0
G2X411.049Y320.000I0.000J-26.000F3000.0
G2X385.049Y294.000I-26.000J0.000
G2X359.049Y320.000I0.000J26.000
G2X385.049Y346.000I26.000J0.000
G0Z5.080
G0X964.549Y411.000
G1Z-12.000F750.0
G1X1076.549F3000.0
G1Y229.000
G1X964.549
G1Y411.000
G0Z5.080
M5
G0Z20.320
G0X0.000Y0.000
M2
