(VECTRIC POST REVISION)
(FC16A22438222CB0A5088D1738135480)
T1
G17
G21
G90
G0Z20.320
G0X0.000Y0.000
S20000M3
G0X140.621Y51.509Z5.080
G1Z-4.067F750.0
G2X10.621Y181.509I0.000J130.000F3000.0
G2X140.621Y311.509I130.000J0.000
G2X270.621Y181.509I0.000J-130.000
G2X140.621Y51.509I-130.000J0.000
G1Z-8.133F750.0
G2X10.621Y181.509I0.000J130.000F3000.0
G2X140.621Y311.509I130.000J0.000
G2X270.621Y181.509I0.000J-130.000
G2X140.621Y51.509I-130.000J0.000
G1Z-12.200F750.0
G2X10.621Y181.509I0.000J130.000F3000.0
G2X140.621Y311.509I130.000J0.000
G2X270.621Y181.509I0.000J-130.000
G2X140.621Y51.509I-130.000J0.000
G0Z5.080
G0X446.541Y406.080
G1Z-4.067F750.0
G2X296.541Y556.080I0.000J150.000F3000.0
G2X446.541Y706.080I150.000J0.000
G2X596.541Y556.080I0.000J-150.000
G2X446.541Y406.080I-150.000J0.000
G1Z-8.133F750.0
G2X296.541Y556.080I0.000J150.000F3000.0
G2X446.541Y706.080I150.000J0.000
G2X596.541Y556.080I0.000J-150.000
G2X446.541Y406.080I-150.000J0.000
G1Z-12.200F750.0
G2X296.541Y556.080I0.000J150.000F3000.0
G2X446.541Y706.080I150.000J0.000
G2X596.541Y556.080I0.000J-150.000
G2X446.541Y406.080I-150.000J0.000
G0Z5.080
G0X448.359Y798.283
G1Z-4.067F750.0
G1X479.230Y978.273F3000.0
G1X348.459Y1105.742
G1X529.180Y1132.002
G1X610.000Y1295.763
G1X690.820Y1132.002
G1X871.541Y1105.742
G1X740.770Y978.273
G1X771.641Y798.283
G1X610.000Y883.263
G1X448.359Y798.283
G1Z-8.133F750.0
G1X479.230Y978.273F3000.0
G1X348.459Y1105.742
G1X529.180Y1132.002
G1X610.000Y1295.763
G1X690.820Y1132.002
G1X871.541Y1105.742
G1X740.770Y978.273
G1X771.641Y798.283
G1X610.000Y883.263
G1X448.359Y798.283
G1Z-12.200F750.0
G1X479.230Y978.273F3000.0
G1X348.459Y1105.742
G1X529.180Y1132.002
G1X610.000Y1295.763
G1X690.820Y1132.002
G1X871.541Y1105.742
G1X740.770Y978.273
G1X771.641Y798.283
G1X610.000Y883.263
G1X448.359Y798.283
G0Z5.080
G0X747.643Y448.226
G1Z-4.067F750.0
G2X927.643Y268.226I0.000J-180.000F3000.0
G2X747.643Y88.226I-180.000J0.000
G2X567.643Y268.226I0.000J180.000
G2X747.643Y448.226I180.000J0.000
G1Z-8.133F750.0
G2X927.643Y268.226I0.000J-180.000F3000.0
G2X747.643Y88.226I-180.000J0.000
G2X567.643Y268.226I0.000J180.000
G2X747.643Y448.226I180.000J0.000
G1Z-12.200F750.0
G2X927.643Y268.226I0.000J-180.000F3000.0
G2X747.643Y88.226I-180.000J0.000
G2X567.643Y268.226I0.000J180.000
G2X747.643Y448.226I180.000J0.000
G0Z5.080
M5
G0Z20.320
G0X0.000Y0.000
M2
