(VECTRIC POST REVISION)
(FC16A22438222CB0A5088D1738135480)
T1
G17
G21
G90
G0Z20.320
G0X0.000Y0.000
S20000M3
G0X47.706Y30.412Z5.080
G1Z-3.050F750.0
G1Y360.412F3000.0
G1X377.706
G1Y30.412
G1X47.706
G1Z-6.100F750.0
G1Y360.412F3000.0
G1X377.706
G1Y30.412
G1X47.706
G1Z-9.150F750.0
G1Y360.412F3000.0
G1X377.706
G1Y30.412
G1X47.706
G1Z-12.200F750.0
G1Y360.412F3000.0
G1X377.706
G1Y30.412
G1X47.706
G0Z5.080
M5
G0Z20.320
G0X0.000Y0.000
M2
