(VECTRIC POST REVISION)
(FC16A22438222CB0A5088D1738135480)
T1
G17
G21
G90
G0Z20.320
G0X0.000Y0.000
S20000M3
G0X10.621Y51.509Z5.080
G1Z-4.067F750.0
G1Y1295.763F3000.0
G1X927.643
G1Y51.509
G1X10.621
G1Z-8.133F750.0
G1Y1295.763F3000.0
G1X927.643
G1Y51.509
G1X10.621
G1Z-12.200F750.0
G1Y1295.763F3000.0
G1X927.643
G1Y51.509
G1X10.621
G0Z5.080
M5
G0Z20.320
G0X0.000Y0.000
M2
