(VECTRIC POST REVISION)
(FC16A22438222CB0A5088D1738135480)
T1
G17
G21
G90
G0Z20.320
G0X0.000Y0.000
S20000M3
G0X47.706Y30.412Z5.080
G1Z-3.050F750.0
G1Y360.412F3000.0
G1X377.706
G1Y30.412
G1X47.706
G1Z-6.100F750.0
G1Y360.412F3000.0
G1X377.706
G1Y30.412
G1X47.706
G1Z-9.150F750.0
G1Y360.412F3000.0
G1X377.706
G1Y30.412
G1X47.706
G1Z-12.200F750.0
G1Y360.412F3000.0
G1X377.706
G1Y30.412
G1X47.706
G0Z5.080
G0X218.329Y195.391Z5.080
G1Z-4.067F750.0
G1Y195.655F3000.0
G1X218.593
G1Y195.391
G1X218.329
G1X215.332Y192.394
G1Y198.652
G1X221.590
G1Y192.394
G1X215.332
G1X212.335Y189.396
G1Y201.648
G1X224.587
G1Y189.396
G1X212.335
G1X209.338Y186.400
G1Y204.646
G1X227.584
G1Y186.400
G1X209.338
G1X206.341Y183.402
G1Y207.643
G1X230.581
G1Y183.402
G1X206.341
G1X203.344Y180.406
G1Y210.640
G1X233.578
G1Y180.406
G1X203.344
G1X200.347Y177.409
G1Y213.637
G1X236.575
G1Y177.409
G1X200.347
G1X197.350Y174.411
G1Y216.633
G1X239.572
G1Y174.411
G1X197.350
G1X194.353Y171.415
G1Y219.631
G1X242.569
G1Y171.415
G1X194.353
G1X191.356Y168.418
G1Y222.628
G1X245.566
G1Y168.418
G1X191.356
G1X188.359Y165.421
G1Y225.624
G1X248.563
G1Y165.421
G1X188.359
G1X185.362Y162.424
G1Y228.622
G1X251.560
G1Y162.424
G1X185.362
G1X182.365Y159.426
G1Y231.618
G1X254.557
G1Y159.426
G1X182.365
G1X179.368Y156.430
G1Y234.616
G1X257.554
G1Y156.430
G1X179.368
G1X176.371Y153.433
G1Y237.613
G1X260.551
G1Y153.433
G1X176.371
G1X173.374Y150.436
G1Y240.609
G1X263.548
G1Y150.436
G1X173.374
G1X170.377Y147.439
G1Y243.607
G1X266.545
G1Y147.439
G1X170.377
G1X167.380Y144.441
G1Y246.604
G1X269.542
G1Y144.441
G1X167.380
G1X164.383Y141.445
G1Y249.601
G1X272.539
G1Y141.445
G1X164.383
G1X161.386Y138.448
G1Y252.598
G1X275.536
G1Y138.448
G1X161.386
G1X158.389Y135.451
G1Y255.594
G1X278.533
G1Y135.451
G1X158.389
G1X155.392Y132.454
G1Y258.591
G1X281.530
G1Y132.454
G1X155.392
G1X152.395Y129.456
G1Y261.589
G1X284.527
G1Y129.456
G1X152.395
G1X149.398Y126.460
G1Y264.586
G1X287.524
G1Y126.460
G1X149.398
G1X146.401Y123.463
G1Y267.582
G1X290.521
G1Y123.463
G1X146.401
G1X143.404Y120.465
G1Y270.579
G1X293.518
G1Y120.465
G1X143.404
G1X140.407Y117.469
G1Y273.577
G1X296.515
G1Y117.469
G1X140.407
G1X137.410Y114.472
G1Y276.574
G1X299.512
G1Y114.472
G1X137.410
G1X134.413Y111.475
G1Y279.570
G1X302.509
G1Y111.475
G1X134.413
G1X131.416Y108.478
G1Y282.568
G1X305.506
G1Y108.478
G1X131.416
G1X128.419Y105.481
G1Y285.565
G1X308.503
G1Y105.481
G1X128.419
G1X125.422Y102.484
G1Y288.561
G1X311.500
G1Y102.484
G1X125.422
G1X122.425Y99.487
G1Y291.559
G1X314.497
G1Y99.487
G1X122.425
G1X119.428Y96.490
G1Y294.556
G1X317.494
G1Y96.490
G1X119.428
G1X116.431Y93.493
G1Y297.552
G1X320.491
G1Y93.493
G1X116.431
G1X113.434Y90.496
G1Y300.549
G1X323.488
G1Y90.496
G1X113.434
G1X110.437Y87.499
G1Y303.547
G1X326.485
G1Y87.499
G1X110.437
G1X107.440Y84.502
G1Y306.544
G1X329.482
G1Y84.502
G1X107.440
G1X104.443Y81.505
G1Y309.540
G1X332.479
G1Y81.505
G1X104.443
G1X101.446Y78.508
G1Y312.538
G1X335.476
G1Y78.508
G1X101.446
G1X98.449Y75.511
G1Y315.535
G1X338.473
G1Y75.511
G1X98.449
G1X95.452Y72.514
G1Y318.531
G1X341.470
G1Y72.514
G1X95.452
G1X92.455Y69.517
G1Y321.529
G1X344.467
G1Y69.517
G1X92.455
G1X89.458Y66.520
G1Y324.526
G1X347.464
G1Y66.520
G1X89.458
G1X86.461Y63.523
G1Y327.522
G1X350.461
G1Y63.523
G1X86.461
G0Z5.080
G0X218.329Y195.391
G1Z-8.133F750.0
G1Y195.655F3000.0
G1X218.593
G1Y195.391
G1X218.329
G1X215.332Y192.394
G1Y198.652
G1X221.590
G1Y192.394
G1X215.332
G1X212.335Y189.396
G1Y201.648
G1X224.587
G1Y189.396
G1X212.335
G1X209.338Y186.400
G1Y204.646
G1X227.584
G1Y186.400
G1X209.338
G1X206.341Y183.402
G1Y207.643
G1X230.581
G1Y183.402
G1X206.341
G1X203.344Y180.406
G1Y210.640
G1X233.578
G1Y180.406
G1X203.344
G1X200.347Y177.409
G1Y213.637
G1X236.575
G1Y177.409
G1X200.347
G1X197.350Y174.411
G1Y216.633
G1X239.572
G1Y174.411
G1X197.350
G1X194.353Y171.415
G1Y219.631
G1X242.569
G1Y171.415
G1X194.353
G1X191.356Y168.418
G1Y222.628
G1X245.566
G1Y168.418
G1X191.356
G1X188.359Y165.421
G1Y225.624
G1X248.563
G1Y165.421
G1X188.359
G1X185.362Y162.424
G1Y228.622
G1X251.560
G1Y162.424
G1X185.362
G1X182.365Y159.426
G1Y231.618
G1X254.557
G1Y159.426
G1X182.365
G1X179.368Y156.430
G1Y234.616
G1X257.554
G1Y156.430
G1X179.368
G1X176.371Y153.433
G1Y237.613
G1X260.551
G1Y153.433
G1X176.371
G1X173.374Y150.436
G1Y240.609
G1X263.548
G1Y150.436
G1X173.374
G1X170.377Y147.439
G1Y243.607
G1X266.545
G1Y147.439
G1X170.377
G1X167.380Y144.441
G1Y246.604
G1X269.542
G1Y144.441
G1X167.380
G1X164.383Y141.445
G1Y249.601
G1X272.539
G1Y141.445
G1X164.383
G1X161.386Y138.448
G1Y252.598
G1X275.536
G1Y138.448
G1X161.386
G1X158.389Y135.451
G1Y255.594
G1X278.533
G1Y135.451
G1X158.389
G1X155.392Y132.454
G1Y258.591
G1X281.530
G1Y132.454
G1X155.392
G1X152.395Y129.456
G1Y261.589
G1X284.527
G1Y129.456
G1X152.395
G1X149.398Y126.460
G1Y264.586
G1X287.524
G1Y126.460
G1X149.398
G1X146.401Y123.463
G1Y267.582
G1X290.521
G1Y123.463
G1X146.401
G1X143.404Y120.465
G1Y270.579
G1X293.518
G1Y120.465
G1X143.404
G1X140.407Y117.469
G1Y273.577
G1X296.515
G1Y117.469
G1X140.407
G1X137.410Y114.472
G1Y276.574
G1X299.512
G1Y114.472
G1X137.410
G1X134.413Y111.475
G1Y279.570
G1X302.509
G1Y111.475
G1X134.413
G1X131.416Y108.478
G1Y282.568
G1X305.506
G1Y108.478
G1X131.416
G1X128.419Y105.481
G1Y285.565
G1X308.503
G1Y105.481
G1X128.419
G1X125.422Y102.484
G1Y288.561
G1X311.500
G1Y102.484
G1X125.422
G1X122.425Y99.487
G1Y291.559
G1X314.497
G1Y99.487
G1X122.425
G1X119.428Y96.490
G1Y294.556
G1X317.494
G1Y96.490
G1X119.428
G1X116.431Y93.493
G1Y297.552
G1X320.491
G1Y93.493
G1X116.431
G1X113.434Y90.496
G1Y300.549
G1X323.488
G1Y90.496
G1X113.434
G1X110.437Y87.499
G1Y303.547
G1X326.485
G1Y87.499
G1X110.437
G1X107.440Y84.502
G1Y306.544
G1X329.482
G1Y84.502
G1X107.440
G1X104.443Y81.505
G1Y309.540
G1X332.479
G1Y81.505
G1X104.443
G1X101.446Y78.508
G1Y312.538
G1X335.476
G1Y78.508
G1X101.446
G1X98.449Y75.511
G1Y315.535
G1X338.473
G1Y75.511
G1X98.449
G1X95.452Y72.514
G1Y318.531
G1X341.470
G1Y72.514
G1X95.452
G1X92.455Y69.517
G1Y321.529
G1X344.467
G1Y69.517
G1X92.455
G1X89.458Y66.520
G1Y324.526
G1X347.464
G1Y66.520
G1X89.458
G1X86.461Y63.523
G1Y327.522
G1X350.461
G1Y63.523
G1X86.461
G0Z5.080
G0X218.329Y195.391
G1Z-12.200F750.0
G1Y195.655F3000.0
G1X218.593
G1Y195.391
G1X218.329
G1X215.332Y192.394
G1Y198.652
G1X221.590
G1Y192.394
G1X215.332
G1X212.335Y189.396
G1Y201.648
G1X224.587
G1Y189.396
G1X212.335
G1X209.338Y186.400
G1Y204.646
G1X227.584
G1Y186.400
G1X209.338
G1X206.341Y183.402
G1Y207.643
G1X230.581
G1Y183.402
G1X206.341
G1X203.344Y180.406
G1Y210.640
G1X233.578
G1Y180.406
G1X203.344
G1X200.347Y177.409
G1Y213.637
G1X236.575
G1Y177.409
G1X200.347
G1X197.350Y174.411
G1Y216.633
G1X239.572
G1Y174.411
G1X197.350
G1X194.353Y171.415
G1Y219.631
G1X242.569
G1Y171.415
G1X194.353
G1X191.356Y168.418
G1Y222.628
G1X245.566
G1Y168.418
G1X191.356
G1X188.359Y165.421
G1Y225.624
G1X248.563
G1Y165.421
G1X188.359
G1X185.362Y162.424
G1Y228.622
G1X251.560
G1Y162.424
G1X185.362
G1X182.365Y159.426
G1Y231.618
G1X254.557
G1Y159.426
G1X182.365
G1X179.368Y156.430
G1Y234.616
G1X257.554
G1Y156.430
G1X179.368
G1X176.371Y153.433
G1Y237.613
G1X260.551
G1Y153.433
G1X176.371
G1X173.374Y150.436
G1Y240.609
G1X263.548
G1Y150.436
G1X173.374
G1X170.377Y147.439
G1Y243.607
G1X266.545
G1Y147.439
G1X170.377
G1X167.380Y144.441
G1Y246.604
G1X269.542
G1Y144.441
G1X167.380
G1X164.383Y141.445
G1Y249.601
G1X272.539
G1Y141.445
G1X164.383
G1X161.386Y138.448
G1Y252.598
G1X275.536
G1Y138.448
G1X161.386
G1X158.389Y135.451
G1Y255.594
G1X278.533
G1Y135.451
G1X158.389
G1X155.392Y132.454
G1Y258.591
G1X281.530
G1Y132.454
G1X155.392
G1X152.395Y129.456
G1Y261.589
G1X284.527
G1Y129.456
G1X152.395
G1X149.398Y126.460
G1Y264.586
G1X287.524
G1Y126.460
G1X149.398
G1X146.401Y123.463
G1Y267.582
G1X290.521
G1Y123.463
G1X146.401
G1X143.404Y120.465
G1Y270.579
G1X293.518
G1Y120.465
G1X143.404
G1X140.407Y117.469
G1Y273.577
G1X296.515
G1Y117.469
G1X140.407
G1X137.410Y114.472
G1Y276.574
G1X299.512
G1Y114.472
G1X137.410
G1X134.413Y111.475
G1Y279.570
G1X302.509
G1Y111.475
G1X134.413
G1X131.416Y108.478
G1Y282.568
G1X305.506
G1Y108.478
G1X131.416
G1X128.419Y105.481
G1Y285.565
G1X308.503
G1Y105.481
G1X128.419
G1X125.422Y102.484
G1Y288.561
G1X311.500
G1Y102.484
G1X125.422
G1X122.425Y99.487
G1Y291.559
G1X314.497
G1Y99.487
G1X122.425
G1X119.428Y96.490
G1Y294.556
G1X317.494
G1Y96.490
G1X119.428
G1X116.431Y93.493
G1Y297.552
G1X320.491
G1Y93.493
G1X116.431
G1X113.434Y90.496
G1Y300.549
G1X323.488
G1Y90.496
G1X113.434
G1X110.437Y87.499
G1Y303.547
G1X326.485
G1Y87.499
G1X110.437
G1X107.440Y84.502
G1Y306.544
G1X329.482
G1Y84.502
G1X107.440
G1X104.443Y81.505
G1Y309.540
G1X332.479
G1Y81.505
G1X104.443
G1X101.446Y78.508
G1Y312.538
G1X335.476
G1Y78.508
G1X101.446
G1X98.449Y75.511
G1Y315.535
G1X338.473
G1Y75.511
G1X98.449
G1X95.452Y72.514
G1Y318.531
G1X341.470
G1Y72.514
G1X95.452
G1X92.455Y69.517
G1Y321.529
G1X344.467
G1Y69.517
G1X92.455
G1X89.458Y66.520
G1Y324.526
G1X347.464
G1Y66.520
G1X89.458
G1X86.461Y63.523
G1Y327.522
G1X350.461
G1Y63.523
G1X86.461
G0Z5.080
M5
G0Z20.320
G0X0.000Y0.000
M2
